(G-CODE GENERATED BY FLATCAM v8.994 - www.flatcam.org - Version Date: 2020/11/7)
(Name: bms test circuit.drl_edit_cnc)
(Type: G-code from Geometry)
(Units: MM)
(Created on Wednesday, 10 July 2024 at 13:51)
(This preprocessor is the default preprocessor used by FlatCAM.)
(It is made to work with MACH3 compatible motion controllers.)
(TOOLS DIAMETER: )
(Tool: 1 -> Dia: 0.8)
(Tool: 2 -> Dia: 0.9)
(Tool: 3 -> Dia: 1.0)
(Tool: 4 -> Dia: 1.8)
(Tool: 5 -> Dia: 3.0)
(FEEDRATE Z: )
(Tool: 1 -> Feedrate: 300)
(Tool: 2 -> Feedrate: 300)
(Tool: 3 -> Feedrate: 300)
(Tool: 4 -> Feedrate: 300)
(Tool: 5 -> Feedrate: 300)
(FEEDRATE RAPIDS: )
(Tool: 1 -> Feedrate Rapids: 1500)
(Tool: 2 -> Feedrate Rapids: 1500)
(Tool: 3 -> Feedrate Rapids: 1500)
(Tool: 4 -> Feedrate Rapids: 1500)
(Tool: 5 -> Feedrate Rapids: 1500)
(Z_CUT: )
(Tool: 1 -> Z_Cut: -2.0)
(Tool: 2 -> Z_Cut: -1.7)
(Tool: 3 -> Z_Cut: -1.7)
(Tool: 4 -> Z_Cut: -1.7)
(Tool: 5 -> Z_Cut: -1.7)
(Tools Offset: )
(Tool: 1 -> Offset Z: 0.0)
(Z_MOVE: )
(Tool: 1 -> Z_Move: 2)
(Tool: 2 -> Z_Move: 2)
(Tool: 3 -> Z_Move: 2)
(Tool: 4 -> Z_Move: 2)
(Tool: 5 -> Z_Move: 2)
(Z Toolchange: 15 mm)
(X,Y Toolchange: 0.0000, 0.0000 mm)
(Z Start: None mm)
(Z End: 0.5 mm)
(X,Y End: None mm)
(Steps per circle: 64)
(Preprocessor Excellon: default)
(X range:    5.5850 ...   96.0880  mm)
(Y range:    3.7420 ...   58.7280  mm)
(Spindle Speed: 8000 RPM)
G21
G90
G94
G01 F300.00
M5
G00 Z15.0000
T1
G00 X0.0000 Y0.0000
G00 Z15.0000
G01 F300.00
M03 S8000
G00 X34.1610 Y20.3550
G01 Z-2.0000
G01 Z0
G00 Z2.0000
G00 X34.1360 Y22.8950
G01 Z-2.0000
G01 Z0
G00 Z2.0000
G00 X37.9460 Y58.3280
G01 Z-2.0000
G01 Z0
G00 Z2.0000
G00 X30.3260 Y58.3280
G01 Z-2.0000
G01 Z0
G00 Z2.0000
G00 X15.2130 Y22.8950
G01 Z-2.0000
G01 Z0
G00 Z2.0000
G00 X15.2380 Y20.3550
G01 Z-2.0000
G01 Z0
G00 Z2.0000
G00 X15.3400 Y11.9730
G01 Z-2.0000
G01 Z0
G00 Z2.0000
G00 X15.3400 Y9.4330
G01 Z-2.0000
G01 Z0
G00 Z2.0000
G00 X34.1360 Y9.5600
G01 Z-2.0000
G01 Z0
G00 Z2.0000
G00 X34.1360 Y12.1000
G01 Z-2.0000
G01 Z0
G00 Z2.0000
M05
G00 Z0.50
