(G-CODE GENERATED BY FLATCAM v8.994 - www.flatcam.org - Version Date: 2020/11/7)
(Name: bms test circuit.drl_edit_cnc)
(Type: G-code from Geometry)
(Units: MM)
(Created on Wednesday, 10 July 2024 at 13:52)
(This preprocessor is the default preprocessor used by FlatCAM.)
(It is made to work with MACH3 compatible motion controllers.)
(TOOLS DIAMETER: )
(Tool: 1 -> Dia: 0.8)
(Tool: 2 -> Dia: 0.9)
(Tool: 3 -> Dia: 1.0)
(Tool: 4 -> Dia: 1.8)
(Tool: 5 -> Dia: 3.0)
(FEEDRATE Z: )
(Tool: 1 -> Feedrate: 300)
(Tool: 2 -> Feedrate: 300)
(Tool: 3 -> Feedrate: 300)
(Tool: 4 -> Feedrate: 300)
(Tool: 5 -> Feedrate: 300)
(FEEDRATE RAPIDS: )
(Tool: 1 -> Feedrate Rapids: 1500)
(Tool: 2 -> Feedrate Rapids: 1500)
(Tool: 3 -> Feedrate Rapids: 1500)
(Tool: 4 -> Feedrate Rapids: 1500)
(Tool: 5 -> Feedrate Rapids: 1500)
(Z_CUT: )
(Tool: 1 -> Z_Cut: -2.0)
(Tool: 2 -> Z_Cut: -2.0)
(Tool: 3 -> Z_Cut: -2.0)
(Tool: 4 -> Z_Cut: -2.0)
(Tool: 5 -> Z_Cut: -2.0)
(Tools Offset: )
(Tool: 3 -> Offset Z: 0.0)
(Z_MOVE: )
(Tool: 1 -> Z_Move: 2)
(Tool: 2 -> Z_Move: 2)
(Tool: 3 -> Z_Move: 2)
(Tool: 4 -> Z_Move: 2)
(Tool: 5 -> Z_Move: 2)
(Z Toolchange: 15 mm)
(X,Y Toolchange: 0.0000, 0.0000 mm)
(Z Start: None mm)
(Z End: 0.5 mm)
(X,Y End: None mm)
(Steps per circle: 64)
(Preprocessor Excellon: default)
(X range:    5.5850 ...   96.0880  mm)
(Y range:    3.7420 ...   58.7280  mm)
(Spindle Speed: 8000 RPM)
G21
G90
G94
G01 F300.00
M5
G00 Z15.0000
T3
G00 X0.0000 Y0.0000
G00 Z15.0000
G01 F300.00
M03 S8000
G00 X34.7280 Y50.1430
G01 Z-2.0000
G01 Z0
G00 Z2.0000
G00 X32.1880 Y50.1430
G01 Z-2.0000
G01 Z0
G00 Z2.0000
G00 X29.6480 Y50.1430
G01 Z-2.0000
G01 Z0
G00 Z2.0000
G00 X27.1080 Y50.1430
G01 Z-2.0000
G01 Z0
G00 Z2.0000
G00 X24.5680 Y50.1430
G01 Z-2.0000
G01 Z0
G00 Z2.0000
G00 X22.0280 Y50.1430
G01 Z-2.0000
G01 Z0
G00 Z2.0000
G00 X19.5280 Y42.3930
G01 Z-2.0000
G01 Z0
G00 Z2.0000
G00 X19.5280 Y39.8530
G01 Z-2.0000
G01 Z0
G00 Z2.0000
G00 X14.9590 Y33.6900
G01 Z-2.0000
G01 Z0
G00 Z2.0000
G00 X19.5280 Y37.3130
G01 Z-2.0000
G01 Z0
G00 Z2.0000
G00 X39.7240 Y44.7390
G01 Z-2.0000
G01 Z0
G00 Z2.0000
G00 X44.6770 Y38.3890
G01 Z-2.0000
G01 Z0
G00 Z2.0000
G00 X47.8520 Y31.7850
G01 Z-2.0000
G01 Z0
G00 Z2.0000
G00 X38.0730 Y24.7520
G01 Z-2.0000
G01 Z0
G00 Z2.0000
G00 X42.7720 Y17.5610
G01 Z-2.0000
G01 Z0
G00 Z2.0000
G00 X51.1540 Y22.7660
G01 Z-2.0000
G01 Z0
G00 Z2.0000
G00 X53.8210 Y22.6410
G01 Z-2.0000
G01 Z0
G00 Z2.0000
G00 X64.3620 Y23.6570
G01 Z-2.0000
G01 Z0
G00 Z2.0000
G00 X68.8070 Y38.3890
G01 Z-2.0000
G01 Z0
G00 Z2.0000
G00 X73.3790 Y39.5320
G01 Z-2.0000
G01 Z0
G00 Z2.0000
G00 X73.3790 Y42.4530
G01 Z-2.0000
G01 Z0
G00 Z2.0000
G00 X62.9650 Y55.1530
G01 Z-2.0000
G01 Z0
G00 Z2.0000
G00 X39.7240 Y56.0420
G01 Z-2.0000
G01 Z0
G00 Z2.0000
M05
G00 Z0.50
