(G-CODE GENERATED BY FLATCAM v8.994 - www.flatcam.org - Version Date: 2020/11/7)
(Name: bms test circuit-B_Cu.gbr_iso_combined_cnc)
(Type: G-code from Geometry)
(Units: MM)
(Created on Wednesday, 03 July 2024 at 01:30)
(This preprocessor is the default preprocessor used by FlatCAM.)
(It is made to work with MACH3 compatible motion controllers.)
(TOOL DIAMETER: 0.39 mm)
(Feedrate_XY: 120.0 mm/min)
(Feedrate_Z: 60.0 mm/min)
(Feedrate rapids 1500.0 mm/min)
(Z_Cut: -0.05 mm)
(Z_Move: 2.0 mm)
(Z Start: None mm)
(Z End: 10.0 mm)
(X,Y End: None mm)
(Steps per circle: 64)
(Preprocessor Geometry: default)
(X range:    2.7495 ...   98.7965  mm)
(Y range:  -61.0125 ...   -1.0335  mm)
(Spindle Speed: 10000.0 RPM)
G21
G90
G94
G01 F120.00
M5
G00 Z15.0000
G00 X0.0000 Y0.0000
T1
G00 Z15.0000
M03 S10000.0
G01 F120.00
G00 X5.2992 Y-5.1814
G01 F60.00
G01 Z-0.0500
G01 F120.00
G01 X5.3080 Y-5.4235
G01 X5.3520 Y-5.6619
G01 X5.4303 Y-5.8912
G01 X5.5411 Y-6.1067
G01 X5.6821 Y-6.3038
G01 X5.8503 Y-6.4783
G01 X6.0421 Y-6.6264
G01 X6.2534 Y-6.7450
G01 X6.4798 Y-6.8316
G01 X6.7163 Y-6.8842
G01 X6.8975 Y-6.8975
G01 X7.0792 Y-6.8975
G01 X7.3189 Y-6.8622
G01 X7.5510 Y-6.7924
G01 X7.7704 Y-6.6895
G01 X7.9725 Y-6.5558
G01 X8.1530 Y-6.3941
G01 X8.3080 Y-6.2078
G01 X8.4342 Y-6.0010
G01 X8.5290 Y-5.7780
G01 X8.5903 Y-5.5435
G01 X8.6168 Y-5.3026
G01 X8.6080 Y-5.0605
G01 X8.5640 Y-4.8221
G01 X8.4857 Y-4.5928
G01 X8.3749 Y-4.3773
G01 X8.2339 Y-4.1802
G01 X8.0657 Y-4.0057
G01 X7.8739 Y-3.8576
G01 X7.6626 Y-3.7390
G01 X7.4362 Y-3.6524
G01 X7.1997 Y-3.5998
G01 X7.0185 Y-3.5865
G01 X6.8368 Y-3.5865
G01 X6.5971 Y-3.6218
G01 X6.3650 Y-3.6916
G01 X6.1456 Y-3.7945
G01 X5.9435 Y-3.9282
G01 X5.7630 Y-4.0899
G01 X5.6080 Y-4.2762
G01 X5.4818 Y-4.4830
G01 X5.3870 Y-4.7060
G01 X5.3257 Y-4.9405
G01 X5.2992 Y-5.1814
G00 Z2.0000
G00 X5.5923 Y-5.1921
G01 F60.00
G01 Z-0.0500
G01 F120.00
G01 X5.5996 Y-5.3915
G01 X5.6358 Y-5.5877
G01 X5.7002 Y-5.7765
G01 X5.7914 Y-5.9539
G01 X5.9075 Y-6.1162
G01 X6.0460 Y-6.2598
G01 X6.2039 Y-6.3818
G01 X6.3779 Y-6.4794
G01 X6.5643 Y-6.5507
G01 X6.7590 Y-6.5941
G01 X6.9082 Y-6.6050
G01 X7.0578 Y-6.6050
G01 X7.2552 Y-6.5759
G01 X7.4462 Y-6.5185
G01 X7.6269 Y-6.4338
G01 X7.7933 Y-6.3237
G01 X7.9419 Y-6.1906
G01 X8.0695 Y-6.0372
G01 X8.1734 Y-5.8669
G01 X8.2514 Y-5.6833
G01 X8.3019 Y-5.4902
G01 X8.3237 Y-5.2919
G01 X8.3164 Y-5.0925
G01 X8.2802 Y-4.8963
G01 X8.2158 Y-4.7075
G01 X8.1246 Y-4.5301
G01 X8.0085 Y-4.3678
G01 X7.8700 Y-4.2242
G01 X7.7121 Y-4.1022
G01 X7.5381 Y-4.0046
G01 X7.3517 Y-3.9333
G01 X7.1570 Y-3.8899
G01 X7.0078 Y-3.8790
G01 X6.8582 Y-3.8790
G01 X6.6608 Y-3.9081
G01 X6.4698 Y-3.9655
G01 X6.2891 Y-4.0502
G01 X6.1227 Y-4.1603
G01 X5.9741 Y-4.2934
G01 X5.8465 Y-4.4468
G01 X5.7426 Y-4.6171
G01 X5.6645 Y-4.8007
G01 X5.6141 Y-4.9938
G01 X5.5923 Y-5.1921
G00 Z2.0000
G00 X5.8854 Y-5.2028
G01 F60.00
G01 Z-0.0500
G01 F120.00
G01 X5.8911 Y-5.3594
G01 X5.9195 Y-5.5135
G01 X5.9701 Y-5.6618
G01 X6.0418 Y-5.8012
G01 X6.1330 Y-5.9286
G01 X6.2417 Y-6.0414
G01 X6.3658 Y-6.1372
G01 X6.5024 Y-6.2139
G01 X6.6488 Y-6.2699
G01 X6.8017 Y-6.3039
G01 X6.9189 Y-6.3125
G01 X7.0364 Y-6.3125
G01 X7.1914 Y-6.2897
G01 X7.3414 Y-6.2445
G01 X7.4833 Y-6.1780
G01 X7.6140 Y-6.0916
G01 X7.7307 Y-5.9870
G01 X7.8310 Y-5.8665
G01 X7.9126 Y-5.7328
G01 X7.9739 Y-5.5886
G01 X8.0135 Y-5.4370
G01 X8.0306 Y-5.2812
G01 X8.0249 Y-5.1246
G01 X7.9965 Y-4.9705
G01 X7.9459 Y-4.8222
G01 X7.8742 Y-4.6828
G01 X7.7830 Y-4.5554
G01 X7.6743 Y-4.4426
G01 X7.5502 Y-4.3468
G01 X7.4136 Y-4.2701
G01 X7.2672 Y-4.2141
G01 X7.1143 Y-4.1801
G01 X6.9971 Y-4.1715
G01 X6.8797 Y-4.1715
G01 X6.7246 Y-4.1943
G01 X6.5746 Y-4.2395
G01 X6.4327 Y-4.3060
G01 X6.3020 Y-4.3924
G01 X6.1853 Y-4.4970
G01 X6.0850 Y-4.6175
G01 X6.0034 Y-4.7512
G01 X5.9421 Y-4.8954
G01 X5.9025 Y-5.0470
G01 X5.8854 Y-5.2028
G00 Z2.0000
G00 X9.6242 Y-22.7189
G01 F60.00
G01 Z-0.0500
G01 F120.00
G01 X9.6577 Y-22.6989
G01 X9.6702 Y-22.6919
G01 X9.8120 Y-22.6249
G01 X9.8253 Y-22.6196
G01 X9.9639 Y-22.5700
G01 X9.9776 Y-22.5657
G01 X10.1250 Y-22.5287
G01 X10.1438 Y-22.5249
G01 X10.2989 Y-22.5022
G01 X10.4554 Y-22.4942
G01 X10.4746 Y-22.4942
G01 X10.6216 Y-22.5015
G01 X10.6406 Y-22.5033
G01 X10.7957 Y-22.5266
G01 X10.9524 Y-22.5657
G01 X10.9661 Y-22.5700
G01 X11.1047 Y-22.6196
G01 X11.1180 Y-22.6249
G01 X11.2598 Y-22.6919
G01 X11.2723 Y-22.6989
G01 X11.3058 Y-22.7189
G01 X11.3882 Y-22.6365
G01 X11.2167 Y-22.5429
G01 X10.9748 Y-22.4527
G01 X10.7225 Y-22.3978
G01 X10.4650 Y-22.3794
G01 X10.2075 Y-22.3978
G01 X9.9552 Y-22.4527
G01 X9.7133 Y-22.5429
G01 X9.5418 Y-22.6365
G01 X9.6242 Y-22.7189
G00 Z2.0000
G00 X8.6554 Y-24.1890
G01 F60.00
G01 Z-0.0500
G01 F120.00
G01 X8.6738 Y-24.4465
G01 X8.7287 Y-24.6988
G01 X8.8189 Y-24.9407
G01 X8.9125 Y-25.1122
G01 X8.9949 Y-25.0298
G01 X8.9749 Y-24.9963
G01 X8.9679 Y-24.9838
G01 X8.9009 Y-24.8420
G01 X8.8956 Y-24.8287
G01 X8.8460 Y-24.6901
G01 X8.8417 Y-24.6764
G01 X8.8026 Y-24.5197
G01 X8.7793 Y-24.3646
G01 X8.7775 Y-24.3456
G01 X8.7700 Y-24.1890
G01 X8.7775 Y-24.0324
G01 X8.7793 Y-24.0134
G01 X8.8026 Y-23.8583
G01 X8.8417 Y-23.7016
G01 X8.8460 Y-23.6879
G01 X8.8956 Y-23.5493
G01 X8.9009 Y-23.5360
G01 X8.9679 Y-23.3942
G01 X8.9749 Y-23.3817
G01 X8.9949 Y-23.3482
G01 X8.9125 Y-23.2658
G01 X8.8189 Y-23.4373
G01 X8.7287 Y-23.6792
G01 X8.6738 Y-23.9315
G01 X8.6554 Y-24.1890
G00 Z2.0000
G00 X9.5418 Y-25.7415
G01 F60.00
G01 Z-0.0500
G01 F120.00
G01 X9.7133 Y-25.8351
G01 X9.9552 Y-25.9253
G01 X10.2075 Y-25.9802
G01 X10.4650 Y-25.9986
G01 X10.7225 Y-25.9802
G01 X10.9748 Y-25.9253
G01 X11.2167 Y-25.8351
G01 X11.3882 Y-25.7415
G01 X11.3058 Y-25.6591
G01 X11.2723 Y-25.6791
G01 X11.2598 Y-25.6861
G01 X11.1180 Y-25.7531
G01 X11.1047 Y-25.7584
G01 X10.9661 Y-25.8080
G01 X10.9524 Y-25.8123
G01 X10.7957 Y-25.8514
G01 X10.6406 Y-25.8747
G01 X10.6216 Y-25.8765
G01 X10.4650 Y-25.8840
G01 X10.3084 Y-25.8765
G01 X10.2894 Y-25.8747
G01 X10.1343 Y-25.8514
G01 X9.9776 Y-25.8123
G01 X9.9639 Y-25.8080
G01 X9.8253 Y-25.7584
G01 X9.8120 Y-25.7531
G01 X9.6702 Y-25.6861
G01 X9.6577 Y-25.6791
G01 X9.6242 Y-25.6591
G01 X9.5418 Y-25.7415
G00 Z2.0000
G00 X11.9351 Y-23.3482
G01 F60.00
G01 Z-0.0500
G01 F120.00
G01 X11.9551 Y-23.3817
G01 X11.9621 Y-23.3942
G01 X12.0291 Y-23.5360
G01 X12.0344 Y-23.5493
G01 X12.0840 Y-23.6879
G01 X12.0883 Y-23.7016
G01 X12.1253 Y-23.8490
G01 X12.1291 Y-23.8678
G01 X12.1518 Y-24.0229
G01 X12.1598 Y-24.1794
G01 X12.1598 Y-24.1986
G01 X12.1525 Y-24.3456
G01 X12.1507 Y-24.3646
G01 X12.1274 Y-24.5197
G01 X12.0883 Y-24.6764
G01 X12.0840 Y-24.6901
G01 X12.0344 Y-24.8287
G01 X12.0291 Y-24.8420
G01 X11.9621 Y-24.9838
G01 X11.9551 Y-24.9963
G01 X11.9351 Y-25.0298
G01 X12.0175 Y-25.1122
G01 X12.1111 Y-24.9407
G01 X12.2013 Y-24.6988
G01 X12.2562 Y-24.4465
G01 X12.2746 Y-24.1890
G01 X12.2562 Y-23.9315
G01 X12.2013 Y-23.6792
G01 X12.1111 Y-23.4373
G01 X12.0175 Y-23.2658
G01 X11.9351 Y-23.3482
G00 Z2.0000
G00 X18.6549 Y-24.1890
G01 F60.00
G01 Z-0.0500
G01 F120.00
G01 X18.6733 Y-24.4466
G01 X18.7282 Y-24.6990
G01 X18.8185 Y-24.9410
G01 X18.9422 Y-25.1676
G01 X19.0970 Y-25.3744
G01 X19.2796 Y-25.5570
G01 X19.4864 Y-25.7118
G01 X19.7130 Y-25.8355
G01 X19.9550 Y-25.9258
G01 X20.2074 Y-25.9807
G01 X20.4650 Y-25.9991
G01 X20.7226 Y-25.9807
G01 X20.9750 Y-25.9258
G01 X21.1228 Y-25.8707
G01 X21.2170 Y-25.8355
G01 X21.4436 Y-25.7118
G01 X21.6504 Y-25.5570
G01 X21.8330 Y-25.3744
G01 X21.9878 Y-25.1676
G01 X22.1115 Y-24.9409
G01 X22.2018 Y-24.6990
G01 X22.2567 Y-24.4466
G01 X22.2751 Y-24.1890
G01 X22.2567 Y-23.9314
G01 X22.2018 Y-23.6790
G01 X22.1115 Y-23.4371
G01 X21.9878 Y-23.2104
G01 X21.8330 Y-23.0036
G01 X21.6504 Y-22.8210
G01 X21.4436 Y-22.6662
G01 X21.2169 Y-22.5425
G01 X20.9750 Y-22.4522
G01 X20.7226 Y-22.3973
G01 X20.4650 Y-22.3789
G01 X20.2074 Y-22.3973
G01 X19.9550 Y-22.4522
G01 X19.7130 Y-22.5425
G01 X19.4864 Y-22.6662
G01 X19.2796 Y-22.8210
G01 X19.0970 Y-23.0036
G01 X18.9422 Y-23.2104
G01 X18.8185 Y-23.4370
G01 X18.7282 Y-23.6790
G01 X18.6733 Y-23.9314
G01 X18.6549 Y-24.1890
G00 Z2.0000
G00 X19.8253 Y-22.6196
G01 F60.00
G01 Z-0.0500
G01 F120.00
G01 X19.8076 Y-22.6269
G01 X19.6660 Y-22.6941
G01 X19.5233 Y-22.7797
G01 X19.3897 Y-22.8787
G01 X19.2665 Y-22.9905
G01 X19.1547 Y-23.1137
G01 X19.0557 Y-23.2473
G01 X18.9701 Y-23.3900
G01 X18.8990 Y-23.5404
G01 X18.8430 Y-23.6970
G01 X18.8026 Y-23.8583
G01 X18.7782 Y-24.0229
G01 X18.7700 Y-24.1890
G01 X18.7782 Y-24.3551
G01 X18.8026 Y-24.5197
G01 X18.8430 Y-24.6810
G01 X18.8990 Y-24.8376
G01 X18.9701 Y-24.9880
G01 X19.0557 Y-25.1307
G01 X19.1547 Y-25.2643
G01 X19.2665 Y-25.3875
G01 X19.3897 Y-25.4993
G01 X19.5233 Y-25.5983
G01 X19.6660 Y-25.6839
G01 X19.8164 Y-25.7550
G01 X19.9730 Y-25.8110
G01 X20.1343 Y-25.8514
G01 X20.2989 Y-25.8758
G01 X20.4650 Y-25.8840
G01 X20.6311 Y-25.8758
G01 X20.7957 Y-25.8514
G01 X20.9570 Y-25.8110
G01 X21.1136 Y-25.7550
G01 X21.2640 Y-25.6839
G01 X21.4067 Y-25.5983
G01 X21.5403 Y-25.4993
G01 X21.6635 Y-25.3875
G01 X21.7753 Y-25.2643
G01 X21.8743 Y-25.1307
G01 X21.9599 Y-24.9880
G01 X22.0310 Y-24.8376
G01 X22.0870 Y-24.6810
G01 X22.1274 Y-24.5197
G01 X22.1518 Y-24.3551
G01 X22.1600 Y-24.1890
G01 X22.1518 Y-24.0229
G01 X22.1274 Y-23.8583
G01 X22.0870 Y-23.6970
G01 X22.0310 Y-23.5404
G01 X21.9599 Y-23.3900
G01 X21.8743 Y-23.2473
G01 X21.7753 Y-23.1137
G01 X21.6635 Y-22.9905
G01 X21.5403 Y-22.8787
G01 X21.4067 Y-22.7797
G01 X21.2640 Y-22.6941
G01 X21.1136 Y-22.6230
G01 X20.9570 Y-22.5670
G01 X20.7957 Y-22.5266
G01 X20.6311 Y-22.5022
G01 X20.4650 Y-22.4940
G01 X20.2989 Y-22.5022
G01 X20.1343 Y-22.5266
G01 X19.9730 Y-22.5670
G01 X19.8253 Y-22.6196
G00 Z2.0000
G00 X28.5851 Y-38.4137
G01 F60.00
G01 Z-0.0500
G01 F120.00
G01 X28.5230 Y-38.3915
G01 X28.5093 Y-38.3871
G01 X28.4095 Y-38.3621
G01 X28.3954 Y-38.3591
G01 X28.2841 Y-38.3428
G01 X28.1766 Y-38.3372
G01 X28.1622 Y-38.3371
G01 X28.0499 Y-38.3428
G01 X27.9339 Y-38.3600
G01 X27.8201 Y-38.3885
G01 X27.7186 Y-38.4245
G01 X27.7053 Y-38.4298
G01 X27.6037 Y-38.4781
G01 X27.5031 Y-38.5384
G01 X27.4089 Y-38.6083
G01 X27.3220 Y-38.6870
G01 X27.2433 Y-38.7739
G01 X27.1734 Y-38.8681
G01 X27.1131 Y-38.9687
G01 X27.0668 Y-39.0659
G01 X27.0612 Y-39.0791
G01 X27.0235 Y-39.1851
G01 X26.9950 Y-39.2989
G01 X26.9778 Y-39.4149
G01 X26.9720 Y-39.5320
G01 X26.9778 Y-39.6491
G01 X26.9950 Y-39.7651
G01 X27.0235 Y-39.8789
G01 X27.0630 Y-39.9893
G01 X27.1131 Y-40.0953
G01 X27.1734 Y-40.1959
G01 X27.2433 Y-40.2901
G01 X27.3220 Y-40.3770
G01 X27.4089 Y-40.4557
G01 X27.5031 Y-40.5256
G01 X27.6037 Y-40.5859
G01 X27.7009 Y-40.6322
G01 X27.7141 Y-40.6378
G01 X27.8201 Y-40.6755
G01 X27.9245 Y-40.7019
G01 X27.9433 Y-40.7057
G01 X28.0499 Y-40.7212
G01 X28.1670 Y-40.7270
G01 X28.2746 Y-40.7219
G01 X28.2936 Y-40.7201
G01 X28.4001 Y-40.7040
G01 X28.5047 Y-40.6781
G01 X28.5230 Y-40.6725
G01 X28.6243 Y-40.6360
G01 X28.7303 Y-40.5859
G01 X28.8228 Y-40.5307
G01 X28.8387 Y-40.5201
G01 X28.9251 Y-40.4557
G01 X29.0120 Y-40.3770
G01 X29.0907 Y-40.2901
G01 X29.1551 Y-40.2037
G01 X29.1657 Y-40.1878
G01 X29.2209 Y-40.0953
G01 X29.2672 Y-39.9981
G01 X29.2745 Y-39.9804
G01 X29.3105 Y-39.8789
G01 X29.3380 Y-39.7698
G01 X29.3407 Y-39.7557
G01 X29.3551 Y-39.6586
G01 X29.3569 Y-39.6396
G01 X29.3620 Y-39.5320
G01 X29.3567 Y-39.4196
G01 X29.3551 Y-39.4054
G01 X29.3407 Y-39.3083
G01 X29.3380 Y-39.2942
G01 X29.3105 Y-39.1851
G01 X29.2853 Y-39.1139
G01 X34.6131 Y-33.7861
G01 X34.6458 Y-33.7501
G01 X34.6692 Y-33.7189
G01 X34.6798 Y-33.7030
G01 X34.6974 Y-33.6736
G01 X34.7040 Y-33.6609
G01 X34.7186 Y-33.6299
G01 X34.7239 Y-33.6166
G01 X34.7368 Y-33.5797
G01 X34.7465 Y-33.5419
G01 X34.7503 Y-33.5232
G01 X34.7558 Y-33.4845
G01 X34.7581 Y-33.4360
G01 X34.7581 Y-21.7031
G01 X38.4051 Y-18.0561
G01 X57.6876 Y-18.0561
G01 X57.7158 Y-18.1158
G01 X57.7224 Y-18.1285
G01 X57.7753 Y-18.2168
G01 X57.7831 Y-18.2289
G01 X57.8503 Y-18.3191
G01 X57.9257 Y-18.4026
G01 X57.9359 Y-18.4126
G01 X58.0087 Y-18.4785
G01 X58.0234 Y-18.4906
G01 X58.1101 Y-18.5546
G01 X58.2065 Y-18.6126
G01 X58.2192 Y-18.6192
G01 X58.3079 Y-18.6612
G01 X58.3256 Y-18.6685
G01 X58.4271 Y-18.7045
G01 X58.5409 Y-18.7330
G01 X58.6474 Y-18.7491
G01 X58.6664 Y-18.7509
G01 X58.7740 Y-18.7560
G01 X58.8816 Y-18.7509
G01 X58.9006 Y-18.7491
G01 X59.0071 Y-18.7330
G01 X59.1117 Y-18.7071
G01 X59.1300 Y-18.7015
G01 X59.2313 Y-18.6650
G01 X59.3288 Y-18.6192
G01 X59.3456 Y-18.6102
G01 X59.4379 Y-18.5546
G01 X59.5246 Y-18.4906
G01 X59.5393 Y-18.4785
G01 X59.6190 Y-18.4060
G01 X59.6915 Y-18.3263
G01 X59.7036 Y-18.3116
G01 X59.7676 Y-18.2249
G01 X59.8232 Y-18.1326
G01 X59.8322 Y-18.1158
G01 X59.8780 Y-18.0183
G01 X59.9145 Y-17.9170
G01 X59.9201 Y-17.8987
G01 X59.9460 Y-17.7941
G01 X59.9621 Y-17.6876
G01 X59.9639 Y-17.6686
G01 X59.9690 Y-17.5610
G01 X59.9639 Y-17.4534
G01 X59.9621 Y-17.4344
G01 X59.9460 Y-17.3279
G01 X59.9201 Y-17.2233
G01 X59.9145 Y-17.2050
G01 X59.8780 Y-17.1037
G01 X59.8322 Y-17.0062
G01 X59.8232 Y-16.9894
G01 X59.7727 Y-16.9052
G01 X59.7649 Y-16.8931
G01 X59.7036 Y-16.8104
G01 X59.6915 Y-16.7957
G01 X59.6190 Y-16.7160
G01 X59.5393 Y-16.6435
G01 X59.5246 Y-16.6314
G01 X59.4379 Y-16.5674
G01 X59.3373 Y-16.5071
G01 X59.2401 Y-16.4608
G01 X59.2224 Y-16.4535
G01 X59.1209 Y-16.4175
G01 X59.0165 Y-16.3911
G01 X58.9977 Y-16.3873
G01 X58.8911 Y-16.3718
G01 X58.7740 Y-16.3660
G01 X58.6569 Y-16.3718
G01 X58.5503 Y-16.3873
G01 X58.5315 Y-16.3911
G01 X58.4271 Y-16.4175
G01 X58.3256 Y-16.4535
G01 X58.3079 Y-16.4608
G01 X58.2107 Y-16.5071
G01 X58.1141 Y-16.5648
G01 X58.1023 Y-16.5729
G01 X58.0234 Y-16.6314
G01 X58.0087 Y-16.6435
G01 X57.9290 Y-16.7160
G01 X57.8533 Y-16.7992
G01 X57.8444 Y-16.8104
G01 X57.7859 Y-16.8893
G01 X57.7778 Y-16.9011
G01 X57.7201 Y-16.9977
G01 X57.6876 Y-17.0658
G01 X38.2000 Y-17.0659
G01 X38.1610 Y-17.0675
G01 X38.1420 Y-17.0694
G01 X38.1034 Y-17.0754
G01 X38.0563 Y-17.0872
G01 X38.0105 Y-17.1035
G01 X37.9751 Y-17.1200
G01 X37.9583 Y-17.1290
G01 X37.9330 Y-17.1442
G01 X37.9210 Y-17.1520
G01 X37.8859 Y-17.1782
G01 X37.8499 Y-17.2109
G01 X33.9129 Y-21.1479
G01 X33.8865 Y-21.1766
G01 X33.8744 Y-21.1914
G01 X33.8513 Y-21.2229
G01 X33.8310 Y-21.2563
G01 X33.8220 Y-21.2731
G01 X33.8055 Y-21.3085
G01 X33.7922 Y-21.3452
G01 X33.7866 Y-21.3635
G01 X33.7774 Y-21.4014
G01 X33.7714 Y-21.4400
G01 X33.7695 Y-21.4590
G01 X33.7679 Y-21.4980
G01 X33.7679 Y-33.2309
G01 X28.5851 Y-38.4137
G00 Z2.0000
G00 X26.8570 Y-39.5320
G01 F60.00
G01 Z-0.0500
G01 F120.00
G01 X26.8749 Y-39.7476
G01 X26.9280 Y-39.9573
G01 X27.0149 Y-40.1555
G01 X27.1332 Y-40.3366
G01 X27.2798 Y-40.4958
G01 X27.4505 Y-40.6287
G01 X27.6044 Y-40.7119
G01 X27.6166 Y-40.7191
G01 X27.6283 Y-40.7272
G01 X27.6393 Y-40.7361
G01 X27.6833 Y-40.7743
G01 X27.6965 Y-40.7875
G01 X27.7056 Y-40.7982
G01 X27.7164 Y-40.8135
G01 X27.7257 Y-40.8297
G01 X27.7334 Y-40.8467
G01 X27.7592 Y-40.9167
G01 X27.7638 Y-40.9305
G01 X27.7662 Y-40.9398
G01 X27.7690 Y-40.9541
G01 X27.7702 Y-40.9637
G01 X27.7712 Y-40.9782
G01 X27.7708 Y-40.9976
G01 X27.7685 Y-41.0168
G01 X27.7516 Y-41.0945
G01 X27.7479 Y-41.1086
G01 X27.7414 Y-41.1268
G01 X27.7331 Y-41.1443
G01 X27.7258 Y-41.1568
G01 X27.7204 Y-41.1649
G01 X27.7085 Y-41.1801
G01 X27.6985 Y-41.1907
G01 X27.6456 Y-41.2432
G01 X27.6352 Y-41.2524
G01 X27.6241 Y-41.2608
G01 X27.6125 Y-41.2684
G01 X27.6044 Y-41.2731
G01 X27.4505 Y-41.3563
G01 X27.2798 Y-41.4892
G01 X27.1332 Y-41.6484
G01 X27.0149 Y-41.8295
G01 X26.9280 Y-42.0277
G01 X26.8749 Y-42.2374
G01 X26.8570 Y-42.4530
G01 X26.8749 Y-42.6686
G01 X26.9280 Y-42.8783
G01 X27.0149 Y-43.0765
G01 X27.1332 Y-43.2576
G01 X27.2798 Y-43.4168
G01 X27.4505 Y-43.5497
G01 X27.6408 Y-43.6526
G01 X27.8454 Y-43.7229
G01 X28.0588 Y-43.7585
G01 X28.2752 Y-43.7585
G01 X28.4886 Y-43.7229
G01 X28.6932 Y-43.6526
G01 X28.8835 Y-43.5497
G01 X29.0542 Y-43.4168
G01 X29.2008 Y-43.2576
G01 X29.2390 Y-43.1992
G01 X29.2443 Y-43.1918
G01 X29.2529 Y-43.1812
G01 X29.2623 Y-43.1713
G01 X29.2991 Y-43.1348
G01 X29.3097 Y-43.1250
G01 X29.3250 Y-43.1131
G01 X29.3372 Y-43.1053
G01 X29.3500 Y-43.0984
G01 X29.3632 Y-43.0924
G01 X29.3815 Y-43.0861
G01 X29.4530 Y-43.0651
G01 X29.4620 Y-43.0630
G01 X29.4757 Y-43.0605
G01 X29.4896 Y-43.0590
G01 X29.5035 Y-43.0585
G01 X30.9022 Y-43.0585
G01 X30.9323 Y-43.0520
G01 X30.9445 Y-43.0500
G01 X30.9696 Y-43.0471
G01 X30.9987 Y-43.0372
G01 X31.0106 Y-43.0338
G01 X31.0352 Y-43.0281
G01 X31.0580 Y-43.0172
G01 X31.0695 Y-43.0124
G01 X31.0984 Y-43.0020
G01 X31.1198 Y-42.9886
G01 X31.1306 Y-42.9826
G01 X31.1582 Y-42.9689
G01 X31.1824 Y-42.9500
G01 X31.1926 Y-42.9429
G01 X31.2139 Y-42.9294
G01 X33.1541 Y-40.9893
G01 X33.1659 Y-40.9790
G01 X33.1941 Y-40.9565
G01 X33.2101 Y-40.9460
G01 X33.2271 Y-40.9372
G01 X33.2403 Y-40.9316
G01 X33.2540 Y-40.9271
G01 X33.3255 Y-40.9061
G01 X33.3390 Y-40.9030
G01 X33.3482 Y-40.9015
G01 X33.3620 Y-40.9000
G01 X33.3759 Y-40.8995
G01 X55.0322 Y-40.8995
G01 X55.0623 Y-40.8930
G01 X55.0745 Y-40.8910
G01 X55.0996 Y-40.8881
G01 X55.1287 Y-40.8782
G01 X55.1406 Y-40.8748
G01 X55.1652 Y-40.8691
G01 X55.1880 Y-40.8582
G01 X55.1995 Y-40.8534
G01 X55.2284 Y-40.8430
G01 X55.2498 Y-40.8296
G01 X55.2606 Y-40.8236
G01 X55.2882 Y-40.8099
G01 X55.3124 Y-40.7910
G01 X55.3226 Y-40.7839
G01 X55.3439 Y-40.7704
G01 X56.3525 Y-39.7618
G01 X56.3626 Y-39.7524
G01 X56.3771 Y-39.7409
G01 X56.4237 Y-39.7094
G01 X56.4363 Y-39.7019
G01 X56.4495 Y-39.6955
G01 X56.4630 Y-39.6900
G01 X56.4770 Y-39.6856
G01 X56.4912 Y-39.6822
G01 X56.5057 Y-39.6799
G01 X56.5750 Y-39.6715
G01 X56.5936 Y-39.6702
G01 X56.6075 Y-39.6703
G01 X56.6259 Y-39.6721
G01 X56.7608 Y-39.6945
G01 X56.9772 Y-39.6945
G01 X57.1906 Y-39.6589
G01 X57.3952 Y-39.5886
G01 X57.5855 Y-39.4857
G01 X57.7562 Y-39.3528
G01 X57.9028 Y-39.1936
G01 X58.0211 Y-39.0125
G01 X58.1080 Y-38.8143
G01 X58.1611 Y-38.6046
G01 X58.1790 Y-38.3890
G01 X58.1611 Y-38.1734
G01 X58.1080 Y-37.9637
G01 X58.0211 Y-37.7655
G01 X57.9028 Y-37.5844
G01 X57.7562 Y-37.4252
G01 X57.5855 Y-37.2923
G01 X57.3952 Y-37.1894
G01 X57.1906 Y-37.1191
G01 X56.9772 Y-37.0835
G01 X56.7608 Y-37.0835
G01 X56.7302 Y-37.0884
G01 X56.7164 Y-37.0895
G01 X56.7071 Y-37.0897
G01 X56.6509 Y-37.0884
G01 X56.6363 Y-37.0871
G01 X56.6219 Y-37.0847
G01 X56.6076 Y-37.0813
G01 X56.5937 Y-37.0768
G01 X56.5846 Y-37.0732
G01 X56.5714 Y-37.0670
G01 X56.4977 Y-37.0266
G01 X56.4823 Y-37.0162
G01 X56.4715 Y-37.0075
G01 X56.4613 Y-36.9980
G01 X51.5989 Y-32.1356
G01 X51.5883 Y-32.1241
G01 X51.5654 Y-32.0957
G01 X51.5571 Y-32.0840
G01 X51.5474 Y-32.0675
G01 X51.5394 Y-32.0501
G01 X51.5345 Y-32.0366
G01 X51.5121 Y-31.9605
G01 X51.5090 Y-31.9470
G01 X51.5075 Y-31.9378
G01 X51.5060 Y-31.9240
G01 X51.5055 Y-31.9101
G01 X51.5055 Y-27.2718
G01 X51.5000 Y-27.2471
G01 X51.4978 Y-27.2349
G01 X51.4941 Y-27.2044
G01 X51.4842 Y-27.1753
G01 X51.4808 Y-27.1634
G01 X51.4751 Y-27.1388
G01 X51.4642 Y-27.1160
G01 X51.4594 Y-27.1045
G01 X51.4490 Y-27.0756
G01 X51.4356 Y-27.0542
G01 X51.4295 Y-27.0434
G01 X51.4159 Y-27.0158
G01 X51.3970 Y-26.9916
G01 X51.3899 Y-26.9814
G01 X51.3764 Y-26.9601
G01 X50.9163 Y-26.4999
G01 X50.9060 Y-26.4881
G01 X50.8864 Y-26.4637
G01 X50.8755 Y-26.4479
G01 X50.8684 Y-26.4355
G01 X50.8642 Y-26.4269
G01 X50.8586 Y-26.4137
G01 X50.8541 Y-26.4000
G01 X50.8320 Y-26.3240
G01 X50.8285 Y-26.3058
G01 X50.8270 Y-26.2920
G01 X50.8266 Y-26.2827
G01 X50.8265 Y-25.0688
G01 X50.8210 Y-25.0441
G01 X50.8188 Y-25.0319
G01 X50.8151 Y-25.0014
G01 X50.8052 Y-24.9723
G01 X50.8018 Y-24.9604
G01 X50.7961 Y-24.9358
G01 X50.7852 Y-24.9130
G01 X50.7804 Y-24.9015
G01 X50.7700 Y-24.8726
G01 X50.7566 Y-24.8512
G01 X50.7505 Y-24.8404
G01 X50.7369 Y-24.8128
G01 X50.7180 Y-24.7886
G01 X50.7109 Y-24.7784
G01 X50.6974 Y-24.7571
G01 X49.5909 Y-23.6506
G01 X49.5470 Y-23.6105
G01 X49.5069 Y-23.5666
G01 X49.1008 Y-23.1605
G01 X49.0939 Y-23.1532
G01 X49.0874 Y-23.1456
G01 X49.0813 Y-23.1377
G01 X49.0756 Y-23.1294
G01 X49.0405 Y-23.0728
G01 X49.0337 Y-23.0601
G01 X49.0297 Y-23.0514
G01 X49.0245 Y-23.0380
G01 X49.0191 Y-23.0196
G01 X49.0163 Y-23.0055
G01 X49.0145 Y-22.9912
G01 X49.0113 Y-22.9118
G01 X49.0115 Y-22.8932
G01 X49.0134 Y-22.8748
G01 X49.0171 Y-22.8566
G01 X49.0350 Y-22.6410
G01 X49.0171 Y-22.4254
G01 X48.9640 Y-22.2157
G01 X48.8771 Y-22.0175
G01 X48.7588 Y-21.8364
G01 X48.6122 Y-21.6772
G01 X48.4415 Y-21.5443
G01 X48.2512 Y-21.4414
G01 X48.0466 Y-21.3711
G01 X47.8332 Y-21.3355
G01 X47.6168 Y-21.3355
G01 X47.4034 Y-21.3711
G01 X47.1988 Y-21.4414
G01 X47.0085 Y-21.5443
G01 X46.8378 Y-21.6772
G01 X46.6912 Y-21.8364
G01 X46.5729 Y-22.0175
G01 X46.4860 Y-22.2157
G01 X46.4329 Y-22.4254
G01 X46.4150 Y-22.6410
G01 X46.4329 Y-22.8566
G01 X46.4860 Y-23.0663
G01 X46.5729 Y-23.2645
G01 X46.6912 Y-23.4456
G01 X46.8378 Y-23.6048
G01 X47.0085 Y-23.7377
G01 X47.1988 Y-23.8406
G01 X47.4034 Y-23.9109
G01 X47.6168 Y-23.9465
G01 X47.8332 Y-23.9465
G01 X47.9635 Y-23.9248
G01 X47.9772 Y-23.9230
G01 X47.9957 Y-23.9221
G01 X48.0471 Y-23.9233
G01 X48.0617 Y-23.9242
G01 X48.0714 Y-23.9254
G01 X48.0858 Y-23.9281
G01 X48.0999 Y-23.9319
G01 X48.1137 Y-23.9368
G01 X48.1271 Y-23.9426
G01 X48.2011 Y-23.9829
G01 X48.2129 Y-23.9902
G01 X48.2205 Y-23.9956
G01 X48.2313 Y-24.0044
G01 X48.2415 Y-24.0138
G01 X49.5221 Y-25.2944
G01 X49.5293 Y-25.3020
G01 X49.5360 Y-25.3099
G01 X49.5556 Y-25.3343
G01 X49.5639 Y-25.3460
G01 X49.5736 Y-25.3625
G01 X49.5816 Y-25.3799
G01 X49.5879 Y-25.3980
G01 X49.6089 Y-25.4695
G01 X49.6128 Y-25.4876
G01 X49.6150 Y-25.5060
G01 X49.6155 Y-25.5199
G01 X49.6155 Y-26.7292
G01 X49.6220 Y-26.7593
G01 X49.6240 Y-26.7715
G01 X49.6269 Y-26.7966
G01 X49.6352 Y-26.8204
G01 X49.6387 Y-26.8324
G01 X49.6459 Y-26.8622
G01 X49.6589 Y-26.8901
G01 X49.6636 Y-26.9016
G01 X49.6720 Y-26.9254
G01 X49.6881 Y-26.9516
G01 X49.6940 Y-26.9625
G01 X49.7051 Y-26.9852
G01 X49.7240 Y-27.0094
G01 X49.7311 Y-27.0196
G01 X49.7446 Y-27.0409
G01 X50.2011 Y-27.4974
G01 X50.2117 Y-27.5089
G01 X50.2346 Y-27.5373
G01 X50.2429 Y-27.5490
G01 X50.2526 Y-27.5655
G01 X50.2588 Y-27.5785
G01 X50.2655 Y-27.5964
G01 X50.2890 Y-27.6770
G01 X50.2910 Y-27.6860
G01 X50.2931 Y-27.6998
G01 X50.2944 Y-27.7183
G01 X50.2945 Y-28.5609
G01 X50.2937 Y-28.5810
G01 X50.2919 Y-28.5954
G01 X50.2901 Y-28.6049
G01 X50.2865 Y-28.6190
G01 X50.2622 Y-28.6948
G01 X50.2588 Y-28.7038
G01 X50.2528 Y-28.7171
G01 X50.2459 Y-28.7298
G01 X50.2408 Y-28.7381
G01 X50.2323 Y-28.7499
G01 X50.2262 Y-28.7574
G01 X50.2164 Y-28.7680
G01 X50.2094 Y-28.7747
G01 X50.1443 Y-28.8285
G01 X50.1365 Y-28.8343
G01 X50.1244 Y-28.8422
G01 X50.1159 Y-28.8470
G01 X50.1029 Y-28.8533
G01 X50.0848 Y-28.8603
G01 X50.0661 Y-28.8654
G01 X50.0470 Y-28.8686
G01 X49.9776 Y-28.8768
G01 X49.9583 Y-28.8781
G01 X49.9438 Y-28.8778
G01 X49.9293 Y-28.8765
G01 X49.9150 Y-28.8741
G01 X49.9009 Y-28.8706
G01 X49.8871 Y-28.8660
G01 X49.8737 Y-28.8605
G01 X49.8065 Y-28.8278
G01 X49.7902 Y-28.8189
G01 X49.7786 Y-28.8112
G01 X49.7676 Y-28.8027
G01 X49.7292 Y-28.7681
G01 X49.5709 Y-28.6700
G01 X49.3972 Y-28.6027
G01 X49.2141 Y-28.5685
G01 X49.0279 Y-28.5685
G01 X48.8448 Y-28.6027
G01 X48.7978 Y-28.6209
G01 X48.8871 Y-28.7103
G01 X48.9464 Y-28.6957
G01 X49.0285 Y-28.6833
G01 X49.0428 Y-28.6821
G01 X49.1114 Y-28.6787
G01 X49.1258 Y-28.6786
G01 X49.2087 Y-28.6828
G01 X49.2862 Y-28.6941
G01 X49.3049 Y-28.6978
G01 X49.3808 Y-28.7170
G01 X49.4635 Y-28.7466
G01 X49.5429 Y-28.7842
G01 X49.6182 Y-28.8293
G01 X49.6812 Y-28.8758
G01 X49.6924 Y-28.8847
G01 X49.7469 Y-28.9340
G01 X49.7605 Y-28.9476
G01 X49.8128 Y-29.0057
G01 X49.8597 Y-29.0684
G01 X49.8703 Y-29.0844
G01 X49.9103 Y-29.1516
G01 X49.9479 Y-29.2310
G01 X49.9745 Y-29.3046
G01 X49.9800 Y-29.3229
G01 X49.9988 Y-29.3989
G01 X50.0105 Y-29.4763
G01 X50.0124 Y-29.4953
G01 X50.0160 Y-29.5735
G01 X50.0117 Y-29.6612
G01 X49.9988 Y-29.7481
G01 X49.9775 Y-29.8333
G01 X49.9479 Y-29.9160
G01 X49.9146 Y-29.9869
G01 X49.9056 Y-30.0037
G01 X49.8703 Y-30.0626
G01 X49.8597 Y-30.0786
G01 X49.8128 Y-30.1413
G01 X49.7605 Y-30.1994
G01 X49.7469 Y-30.2130
G01 X49.6888 Y-30.2653
G01 X49.6222 Y-30.3150
G01 X49.6101 Y-30.3228
G01 X49.5429 Y-30.3628
G01 X49.4635 Y-30.4004
G01 X49.3808 Y-30.4300
G01 X49.3049 Y-30.4492
G01 X49.2909 Y-30.4522
G01 X49.2087 Y-30.4642
G01 X49.1306 Y-30.4683
G01 X49.1114 Y-30.4683
G01 X49.0428 Y-30.4649
G01 X49.0238 Y-30.4630
G01 X48.9464 Y-30.4513
G01 X48.8871 Y-30.4367
G01 X48.7978 Y-30.5261
G01 X48.8208 Y-30.5363
G01 X48.8337 Y-30.5427
G01 X48.8461 Y-30.5501
G01 X48.8578 Y-30.5584
G01 X48.8725 Y-30.5707
G01 X48.9260 Y-30.6228
G01 X48.9392 Y-30.6370
G01 X48.9481 Y-30.6485
G01 X48.9536 Y-30.6565
G01 X48.9586 Y-30.6647
G01 X48.9654 Y-30.6776
G01 X48.9694 Y-30.6864
G01 X48.9746 Y-30.7000
G01 X48.9799 Y-30.7186
G01 X48.9975 Y-30.7962
G01 X48.9996 Y-30.8105
G01 X49.0003 Y-30.8202
G01 X49.0006 Y-30.8299
G01 X49.0001 Y-30.8444
G01 X48.9992 Y-30.8540
G01 X48.9969 Y-30.8684
G01 X48.9935 Y-30.8825
G01 X48.9907 Y-30.8918
G01 X48.9638 Y-30.9667
G01 X48.9601 Y-30.9756
G01 X48.9537 Y-30.9886
G01 X48.9437 Y-31.0052
G01 X48.9352 Y-31.0170
G01 X48.9258 Y-31.0280
G01 X48.9156 Y-31.0384
G01 X48.9008 Y-31.0509
G01 X48.8379 Y-31.0990
G01 X48.8222 Y-31.1088
G01 X48.8140 Y-31.1132
G01 X48.8013 Y-31.1190
G01 X48.6709 Y-31.1696
G01 X48.5125 Y-31.2677
G01 X48.3747 Y-31.3932
G01 X48.2624 Y-31.5419
G01 X48.1794 Y-31.7087
G01 X48.1284 Y-31.8880
G01 X48.1112 Y-32.0735
G01 X48.1284 Y-32.2591
G01 X48.1794 Y-32.4383
G01 X48.2624 Y-32.6051
G01 X48.3747 Y-32.7538
G01 X48.5125 Y-32.8793
G01 X48.6797 Y-32.9832
G01 X48.6915 Y-32.9920
G01 X48.7272 Y-33.0225
G01 X48.7407 Y-33.0358
G01 X48.7499 Y-33.0465
G01 X48.7610 Y-33.0619
G01 X48.7705 Y-33.0783
G01 X48.8036 Y-33.1504
G01 X48.8092 Y-33.1638
G01 X48.8150 Y-33.1823
G01 X48.8189 Y-33.2012
G01 X48.8206 Y-33.2156
G01 X48.8212 Y-33.2350
G01 X48.8204 Y-33.2495
G01 X48.8193 Y-33.2591
G01 X48.8077 Y-33.3378
G01 X48.8044 Y-33.3520
G01 X48.8016 Y-33.3612
G01 X48.7984 Y-33.3704
G01 X48.7927 Y-33.3837
G01 X48.7883 Y-33.3924
G01 X48.7810 Y-33.4049
G01 X48.7756 Y-33.4130
G01 X48.7668 Y-33.4245
G01 X48.7147 Y-33.4846
G01 X48.7045 Y-33.4950
G01 X48.6936 Y-33.5046
G01 X48.6820 Y-33.5133
G01 X48.6698 Y-33.5212
G01 X48.6570 Y-33.5281
G01 X48.6438 Y-33.5340
G01 X48.6255 Y-33.5404
G01 X48.5495 Y-33.5625
G01 X48.5313 Y-33.5660
G01 X48.5128 Y-33.5678
G01 X48.3836 Y-33.5680
G01 X48.3587 Y-33.5707
G01 X48.2731 Y-33.6026
G01 X48.2028 Y-33.6553
G01 X48.1501 Y-33.7256
G01 X48.1182 Y-33.8112
G01 X48.1155 Y-33.8361
G01 X48.1155 Y-35.3109
G01 X48.1182 Y-35.3358
G01 X48.1501 Y-35.4214
G01 X48.2028 Y-35.4917
G01 X48.2731 Y-35.5444
G01 X48.3587 Y-35.5763
G01 X48.3836 Y-35.5790
G01 X49.8584 Y-35.5790
G01 X49.8833 Y-35.5763
G01 X49.9689 Y-35.5444
G01 X50.0392 Y-35.4917
G01 X50.0919 Y-35.4214
G01 X50.1238 Y-35.3358
G01 X50.1265 Y-35.3109
G01 X50.1265 Y-33.8361
G01 X50.1238 Y-33.8112
G01 X50.0919 Y-33.7256
G01 X50.0392 Y-33.6553
G01 X49.9689 Y-33.6026
G01 X49.8833 Y-33.5707
G01 X49.8584 Y-33.5680
G01 X49.7385 Y-33.5680
G01 X49.7238 Y-33.5674
G01 X49.7091 Y-33.5658
G01 X49.6722 Y-33.5601
G01 X49.6582 Y-33.5575
G01 X49.6491 Y-33.5552
G01 X49.6400 Y-33.5524
G01 X49.6267 Y-33.5474
G01 X49.6138 Y-33.5415
G01 X49.6014 Y-33.5347
G01 X49.5353 Y-33.4909
G01 X49.5197 Y-33.4793
G01 X49.5088 Y-33.4697
G01 X49.4955 Y-33.4557
G01 X49.4836 Y-33.4404
G01 X49.4758 Y-33.4282
G01 X49.4667 Y-33.4110
G01 X49.4368 Y-33.3426
G01 X49.4331 Y-33.3336
G01 X49.4285 Y-33.3199
G01 X49.4260 Y-33.3105
G01 X49.4231 Y-33.2963
G01 X49.4217 Y-33.2867
G01 X49.4206 Y-33.2722
G01 X49.4206 Y-33.2577
G01 X49.4212 Y-33.2480
G01 X49.4230 Y-33.2336
G01 X49.4349 Y-33.1598
G01 X49.4369 Y-33.1504
G01 X49.4408 Y-33.1364
G01 X49.4476 Y-33.1182
G01 X49.4561 Y-33.1009
G01 X49.4637 Y-33.0884
G01 X49.4692 Y-33.0805
G01 X49.4814 Y-33.0654
G01 X49.5311 Y-33.0100
G01 X49.5410 Y-33.0002
G01 X49.5553 Y-32.9883
G01 X49.5706 Y-32.9778
G01 X49.7295 Y-32.8793
G01 X49.8673 Y-32.7538
G01 X49.9208 Y-32.6830
G01 X49.9359 Y-32.6645
G01 X49.9422 Y-32.6575
G01 X49.9522 Y-32.6474
G01 X49.9630 Y-32.6382
G01 X49.9705 Y-32.6324
G01 X49.9863 Y-32.6221
G01 X50.0466 Y-32.5867
G01 X50.0637 Y-32.5778
G01 X50.0817 Y-32.5705
G01 X50.0956 Y-32.5663
G01 X50.1098 Y-32.5632
G01 X50.1242 Y-32.5610
G01 X50.1386 Y-32.5600
G01 X50.1532 Y-32.5601
G01 X50.2278 Y-32.5632
G01 X50.2470 Y-32.5654
G01 X50.2660 Y-32.5695
G01 X50.2844 Y-32.5755
G01 X50.3021 Y-32.5832
G01 X50.3190 Y-32.5927
G01 X50.3525 Y-32.6159
G01 X50.3655 Y-32.6231
G01 X50.3775 Y-32.6309
G01 X50.3890 Y-32.6396
G01 X50.4031 Y-32.6525
G01 X55.5189 Y-37.7682
G01 X55.5258 Y-37.7754
G01 X55.5323 Y-37.7831
G01 X55.5384 Y-37.7910
G01 X55.5441 Y-37.7992
G01 X55.5767 Y-37.8517
G01 X55.5838 Y-37.8642
G01 X55.5918 Y-37.8817
G01 X55.5981 Y-37.8998
G01 X55.6026 Y-37.9185
G01 X55.6052 Y-37.9375
G01 X55.6085 Y-38.0215
G01 X55.6079 Y-38.0401
G01 X55.6069 Y-38.0493
G01 X55.6046 Y-38.0630
G01 X55.5769 Y-38.1734
G01 X55.5590 Y-38.3890
G01 X55.5769 Y-38.6046
G01 X55.5800 Y-38.6193
G01 X55.5815 Y-38.6292
G01 X55.5824 Y-38.6392
G01 X55.5828 Y-38.6492
G01 X55.5838 Y-38.7108
G01 X55.5827 Y-38.7299
G01 X55.5807 Y-38.7442
G01 X55.5776 Y-38.7582
G01 X55.5734 Y-38.7720
G01 X55.5683 Y-38.7855
G01 X55.5600 Y-38.8027
G01 X55.5218 Y-38.8721
G01 X55.5114 Y-38.8875
G01 X55.5057 Y-38.8947
G01 X55.4965 Y-38.9052
G01 X54.8029 Y-39.5987
G01 X54.7911 Y-39.6090
G01 X54.7667 Y-39.6286
G01 X54.7590 Y-39.6342
G01 X54.7427 Y-39.6443
G01 X54.7342 Y-39.6488
G01 X54.7211 Y-39.6546
G01 X54.7030 Y-39.6609
G01 X54.6270 Y-39.6830
G01 X54.6180 Y-39.6850
G01 X54.6042 Y-39.6871
G01 X54.5950 Y-39.6880
G01 X54.5811 Y-39.6885
G01 X34.0389 Y-39.6885
G01 X34.0294 Y-39.6883
G01 X34.0153 Y-39.6871
G01 X33.9967 Y-39.6839
G01 X33.9353 Y-39.6700
G01 X33.9175 Y-39.6643
G01 X33.9046 Y-39.6588
G01 X33.8921 Y-39.6525
G01 X33.8840 Y-39.6478
G01 X33.8762 Y-39.6427
G01 X33.8649 Y-39.6343
G01 X33.7982 Y-39.5756
G01 X33.7914 Y-39.5687
G01 X33.7819 Y-39.5577
G01 X33.7732 Y-39.5460
G01 X33.7680 Y-39.5379
G01 X33.7631 Y-39.5295
G01 X33.7566 Y-39.5165
G01 X33.7511 Y-39.5031
G01 X33.7479 Y-39.4939
G01 X33.7274 Y-39.4221
G01 X33.7230 Y-39.4032
G01 X33.7209 Y-39.3889
G01 X33.7199 Y-39.3695
G01 X33.7204 Y-39.3550
G01 X33.7219 Y-39.3406
G01 X33.7245 Y-39.3263
G01 X33.7269 Y-39.3169
G01 X33.7484 Y-39.2453
G01 X33.7529 Y-39.2322
G01 X33.7603 Y-39.2152
G01 X33.7646 Y-39.2069
G01 X33.7718 Y-39.1950
G01 X33.8911 Y-39.0125
G01 X33.9780 Y-38.8143
G01 X34.0311 Y-38.6046
G01 X34.0490 Y-38.3890
G01 X34.0311 Y-38.1734
G01 X34.0025 Y-38.0606
G01 X34.0003 Y-38.0508
G01 X33.9986 Y-38.0409
G01 X33.9974 Y-38.0310
G01 X33.9967 Y-38.0210
G01 X33.9957 Y-37.9496
G01 X33.9973 Y-37.9305
G01 X34.0007 Y-37.9116
G01 X34.0060 Y-37.8931
G01 X34.0111 Y-37.8797
G01 X34.0195 Y-37.8624
G01 X34.0529 Y-37.8011
G01 X34.0576 Y-37.7931
G01 X34.0652 Y-37.7815
G01 X34.0737 Y-37.7704
G01 X34.0862 Y-37.7567
G01 X37.2489 Y-34.5941
G01 X37.2636 Y-34.5814
G01 X37.2755 Y-34.5729
G01 X37.3346 Y-34.5359
G01 X37.3476 Y-34.5293
G01 X37.3610 Y-34.5236
G01 X37.4484 Y-34.4930
G01 X37.5639 Y-34.4204
G01 X37.6604 Y-34.3239
G01 X37.7330 Y-34.2084
G01 X37.7781 Y-34.0796
G01 X37.7895 Y-33.9780
G01 X37.7895 Y-24.9960
G01 X37.7900 Y-24.9819
G01 X37.7923 Y-24.9632
G01 X37.8011 Y-24.9129
G01 X37.8060 Y-24.8949
G01 X37.8126 Y-24.8774
G01 X37.8208 Y-24.8607
G01 X37.8306 Y-24.8448
G01 X37.8797 Y-24.7768
G01 X37.8919 Y-24.7629
G01 X37.8985 Y-24.7563
G01 X37.9089 Y-24.7472
G01 X38.0712 Y-24.6208
G01 X38.2178 Y-24.4616
G01 X38.3361 Y-24.2805
G01 X38.4230 Y-24.0823
G01 X38.4761 Y-23.8726
G01 X38.4940 Y-23.6570
G01 X38.4761 Y-23.4414
G01 X38.4230 Y-23.2317
G01 X38.3361 Y-23.0335
G01 X38.2178 Y-22.8524
G01 X38.0712 Y-22.6932
G01 X37.9005 Y-22.5603
G01 X37.7102 Y-22.4574
G01 X37.5056 Y-22.3871
G01 X37.2922 Y-22.3515
G01 X37.0758 Y-22.3515
G01 X36.8624 Y-22.3871
G01 X36.6578 Y-22.4574
G01 X36.4675 Y-22.5603
G01 X36.2968 Y-22.6932
G01 X36.1502 Y-22.8524
G01 X36.0319 Y-23.0335
G01 X35.9450 Y-23.2317
G01 X35.8919 Y-23.4414
G01 X35.8740 Y-23.6570
G01 X35.8919 Y-23.8726
G01 X35.9450 Y-24.0823
G01 X36.0319 Y-24.2805
G01 X36.1502 Y-24.4616
G01 X36.2968 Y-24.6208
G01 X36.4627 Y-24.7502
G01 X36.4697 Y-24.7565
G01 X36.4796 Y-24.7666
G01 X36.5078 Y-24.7974
G01 X36.5168 Y-24.8081
G01 X36.5277 Y-24.8233
G01 X36.5349 Y-24.8353
G01 X36.5430 Y-24.8521
G01 X36.5481 Y-24.8651
G01 X36.5719 Y-24.9455
G01 X36.5758 Y-24.9637
G01 X36.5780 Y-24.9821
G01 X36.5785 Y-24.9960
G01 X36.5785 Y-33.7025
G01 X36.5779 Y-33.7181
G01 X36.5733 Y-33.7592
G01 X36.5694 Y-33.7779
G01 X36.5637 Y-33.7962
G01 X36.5582 Y-33.8094
G01 X36.5541 Y-33.8181
G01 X36.5137 Y-33.8917
G01 X36.5060 Y-33.9033
G01 X36.5005 Y-33.9107
G01 X36.4915 Y-33.9213
G01 X36.4851 Y-33.9280
G01 X33.3752 Y-37.0380
G01 X33.3645 Y-37.0478
G01 X33.3571 Y-37.0539
G01 X33.3413 Y-37.0650
G01 X33.2706 Y-37.1051
G01 X33.2619 Y-37.1094
G01 X33.2486 Y-37.1150
G01 X33.2348 Y-37.1197
G01 X33.2160 Y-37.1243
G01 X33.2017 Y-37.1265
G01 X33.1824 Y-37.1278
G01 X33.1072 Y-37.1256
G01 X33.0877 Y-37.1240
G01 X33.0690 Y-37.1205
G01 X32.8472 Y-37.0835
G01 X32.6308 Y-37.0835
G01 X32.4174 Y-37.1191
G01 X32.2274 Y-37.1843
G01 X32.2180 Y-37.1873
G01 X32.2038 Y-37.1908
G01 X32.1893 Y-37.1933
G01 X32.1307 Y-37.2007
G01 X32.1118 Y-37.2013
G01 X32.0976 Y-37.2005
G01 X32.0881 Y-37.1995
G01 X32.0695 Y-37.1959
G01 X32.0513 Y-37.1906
G01 X31.9814 Y-37.1646
G01 X31.9636 Y-37.1569
G01 X31.9466 Y-37.1476
G01 X31.9346 Y-37.1394
G01 X31.9269 Y-37.1335
G01 X31.9125 Y-37.1206
G01 X31.9025 Y-37.1101
G01 X31.8963 Y-37.1026
G01 X31.8515 Y-37.0428
G01 X31.8433 Y-37.0309
G01 X31.8382 Y-37.0226
G01 X31.8315 Y-37.0097
G01 X31.8258 Y-36.9964
G01 X31.8225 Y-36.9873
G01 X31.8197 Y-36.9780
G01 X31.8163 Y-36.9639
G01 X31.8135 Y-36.9447
G01 X31.8079 Y-36.8654
G01 X31.8077 Y-36.8508
G01 X31.8087 Y-36.8363
G01 X31.8116 Y-36.8172
G01 X31.8150 Y-36.8031
G01 X31.8195 Y-36.7893
G01 X31.8271 Y-36.7714
G01 X31.8696 Y-36.6935
G01 X31.8746 Y-36.6857
G01 X31.8828 Y-36.6744
G01 X31.8950 Y-36.6604
G01 X34.7394 Y-33.8159
G01 X34.7529 Y-33.7946
G01 X34.7600 Y-33.7844
G01 X34.7789 Y-33.7602
G01 X34.7926 Y-33.7326
G01 X34.7986 Y-33.7218
G01 X34.8120 Y-33.7004
G01 X34.8204 Y-33.6766
G01 X34.8251 Y-33.6651
G01 X34.8381 Y-33.6372
G01 X34.8453 Y-33.6073
G01 X34.8488 Y-33.5954
G01 X34.8571 Y-33.5716
G01 X34.8600 Y-33.5465
G01 X34.8620 Y-33.5343
G01 X34.8685 Y-33.5042
G01 X34.8685 Y-21.8809
G01 X34.8691 Y-21.8653
G01 X34.8737 Y-21.8242
G01 X34.8776 Y-21.8055
G01 X34.8833 Y-21.7873
G01 X34.8869 Y-21.7784
G01 X34.8929 Y-21.7654
G01 X34.9333 Y-21.6918
G01 X34.9383 Y-21.6840
G01 X34.9465 Y-21.6727
G01 X34.9555 Y-21.6621
G01 X34.9619 Y-21.6554
G01 X38.3574 Y-18.2599
G01 X38.3689 Y-18.2493
G01 X38.4011 Y-18.2235
G01 X38.4131 Y-18.2155
G01 X38.4255 Y-18.2084
G01 X38.4385 Y-18.2022
G01 X38.4564 Y-18.1955
G01 X38.5280 Y-18.1744
G01 X38.5415 Y-18.1710
G01 X38.5598 Y-18.1679
G01 X38.5690 Y-18.1670
G01 X38.5829 Y-18.1665
G01 X57.4421 Y-18.1666
G01 X57.4603 Y-18.1678
G01 X57.4738 Y-18.1699
G01 X57.5289 Y-18.1816
G01 X57.5430 Y-18.1852
G01 X57.5568 Y-18.1898
G01 X57.5745 Y-18.1975
G01 X57.5914 Y-18.2069
G01 X57.6034 Y-18.2150
G01 X57.6148 Y-18.2240
G01 X57.6679 Y-18.2694
G01 X57.6782 Y-18.2788
G01 X57.6846 Y-18.2854
G01 X57.6937 Y-18.2960
G01 X57.7020 Y-18.3072
G01 X57.7402 Y-18.3656
G01 X57.8868 Y-18.5248
G01 X58.0575 Y-18.6577
G01 X58.2478 Y-18.7606
G01 X58.4524 Y-18.8309
G01 X58.6658 Y-18.8665
G01 X58.8822 Y-18.8665
G01 X59.0956 Y-18.8309
G01 X59.3002 Y-18.7606
G01 X59.4905 Y-18.6577
G01 X59.6612 Y-18.5248
G01 X59.8078 Y-18.3656
G01 X59.9261 Y-18.1845
G01 X60.0130 Y-17.9863
G01 X60.0661 Y-17.7766
G01 X60.0840 Y-17.5610
G01 X60.0661 Y-17.3454
G01 X60.0130 Y-17.1357
G01 X59.9261 Y-16.9375
G01 X59.8078 Y-16.7564
G01 X59.6612 Y-16.5972
G01 X59.4905 Y-16.4643
G01 X59.3002 Y-16.3614
G01 X59.0956 Y-16.2911
G01 X58.8822 Y-16.2555
G01 X58.6658 Y-16.2555
G01 X58.4524 Y-16.2911
G01 X58.2478 Y-16.3614
G01 X58.0575 Y-16.4643
G01 X57.8868 Y-16.5972
G01 X57.7402 Y-16.7564
G01 X57.7020 Y-16.8148
G01 X57.6939 Y-16.8258
G01 X57.6881 Y-16.8328
G01 X57.6787 Y-16.8427
G01 X57.6419 Y-16.8792
G01 X57.6276 Y-16.8921
G01 X57.6120 Y-16.9036
G01 X57.5996 Y-16.9111
G01 X57.5866 Y-16.9177
G01 X57.5687 Y-16.9250
G01 X57.4835 Y-16.9500
G01 X57.4653 Y-16.9535
G01 X57.4468 Y-16.9553
G01 X38.1318 Y-16.9555
G01 X38.1018 Y-16.9620
G01 X38.0895 Y-16.9640
G01 X38.0644 Y-16.9669
G01 X38.0353 Y-16.9768
G01 X38.0233 Y-16.9802
G01 X37.9987 Y-16.9859
G01 X37.9760 Y-16.9968
G01 X37.9645 Y-17.0016
G01 X37.9356 Y-17.0120
G01 X37.9094 Y-17.0281
G01 X37.8985 Y-17.0340
G01 X37.8758 Y-17.0451
G01 X37.8560 Y-17.0608
G01 X37.8459 Y-17.0680
G01 X37.8201 Y-17.0846
G01 X33.7866 Y-21.1181
G01 X33.7731 Y-21.1394
G01 X33.7660 Y-21.1496
G01 X33.7471 Y-21.1738
G01 X33.7334 Y-21.2014
G01 X33.7274 Y-21.2122
G01 X33.7140 Y-21.2336
G01 X33.7036 Y-21.2625
G01 X33.6988 Y-21.2740
G01 X33.6879 Y-21.2968
G01 X33.6822 Y-21.3214
G01 X33.6788 Y-21.3333
G01 X33.6689 Y-21.3624
G01 X33.6660 Y-21.3875
G01 X33.6640 Y-21.3997
G01 X33.6575 Y-21.4298
G01 X33.6575 Y-33.0531
G01 X33.6572 Y-33.0635
G01 X33.6564 Y-33.0739
G01 X33.6530 Y-33.1050
G01 X33.6506 Y-33.1192
G01 X33.6484 Y-33.1285
G01 X33.6443 Y-33.1422
G01 X33.6391 Y-33.1556
G01 X33.6352 Y-33.1644
G01 X33.5927 Y-33.2422
G01 X33.5877 Y-33.2500
G01 X33.5795 Y-33.2613
G01 X33.5736 Y-33.2684
G01 X33.5641 Y-33.2786
G01 X28.6835 Y-38.1592
G01 X28.6734 Y-38.1686
G01 X28.6588 Y-38.1801
G01 X28.6123 Y-38.2116
G01 X28.5953 Y-38.2213
G01 X28.5775 Y-38.2293
G01 X28.5590 Y-38.2354
G01 X28.5400 Y-38.2397
G01 X28.4610 Y-38.2495
G01 X28.4471 Y-38.2507
G01 X28.4378 Y-38.2509
G01 X28.4239 Y-38.2504
G01 X28.4147 Y-38.2496
G01 X28.2752 Y-38.2265
G01 X28.0588 Y-38.2265
G01 X27.8454 Y-38.2621
G01 X27.6408 Y-38.3324
G01 X27.4505 Y-38.4353
G01 X27.2798 Y-38.5682
G01 X27.1332 Y-38.7274
G01 X27.0149 Y-38.9085
G01 X26.9280 Y-39.1067
G01 X26.8749 Y-39.3164
G01 X26.8570 Y-39.5320
G00 Z2.0000
G00 X29.5805 Y-41.3729
G01 F60.00
G01 Z-0.0500
G01 F120.00
G01 X30.3866 Y-41.3729
G01 X31.8371 Y-39.9223
G01 X31.7824 Y-39.8895
G01 X31.7501 Y-39.8690
G01 X31.7188 Y-39.8470
G01 X31.6247 Y-39.7769
G01 X31.5951 Y-39.7526
G01 X31.5081 Y-39.6740
G01 X31.4804 Y-39.6476
G01 X31.4670 Y-39.6339
G01 X31.3880 Y-39.5472
G01 X31.3630 Y-39.5182
G01 X31.3395 Y-39.4880
G01 X31.2810 Y-39.4092
G01 X31.2590 Y-39.3779
G01 X31.2485 Y-39.3619
G01 X31.1881 Y-39.2614
G01 X31.1692 Y-39.2281
G01 X31.1520 Y-39.1939
G01 X31.1020 Y-39.0878
G01 X31.0945 Y-39.0702
G01 X31.0807 Y-39.0345
G01 X31.0477 Y-38.9421
G01 X31.0356 Y-38.9057
G01 X31.0254 Y-38.8688
G01 X30.9972 Y-38.7550
G01 X30.9932 Y-38.7363
G01 X30.9867 Y-38.6985
G01 X30.9697 Y-38.5825
G01 X30.9659 Y-38.5444
G01 X30.9599 Y-38.4273
G01 X30.9590 Y-38.3890
G01 X30.9599 Y-38.3507
G01 X30.9643 Y-38.2623
G01 X29.9303 Y-39.2963
G01 X29.9363 Y-39.3385
G01 X29.9401 Y-39.3766
G01 X29.9468 Y-39.5129
G01 X29.9470 Y-39.5320
G01 X29.9461 Y-39.5703
G01 X29.9401 Y-39.6874
G01 X29.9363 Y-39.7255
G01 X29.9193 Y-39.8415
G01 X29.9128 Y-39.8793
G01 X29.9044 Y-39.9166
G01 X29.8806 Y-40.0118
G01 X29.8704 Y-40.0487
G01 X29.8583 Y-40.0851
G01 X29.8186 Y-40.1954
G01 X29.8040 Y-40.2308
G01 X29.7540 Y-40.3369
G01 X29.7368 Y-40.3711
G01 X29.7179 Y-40.4044
G01 X29.6675 Y-40.4886
G01 X29.6575 Y-40.5049
G01 X29.6362 Y-40.5367
G01 X29.5665 Y-40.6310
G01 X29.5430 Y-40.6612
G01 X29.5180 Y-40.6902
G01 X29.4390 Y-40.7769
G01 X29.4256 Y-40.7906
G01 X29.3979 Y-40.8170
G01 X29.3252 Y-40.8830
G01 X29.2962 Y-40.9080
G01 X29.2660 Y-40.9315
G01 X29.1837 Y-40.9925
G01 X29.2660 Y-41.0535
G01 X29.2962 Y-41.0770
G01 X29.3252 Y-41.1020
G01 X29.4119 Y-41.1810
G01 X29.4390 Y-41.2081
G01 X29.4520 Y-41.2221
G01 X29.5306 Y-41.3091
G01 X29.5549 Y-41.3387
G01 X29.5805 Y-41.3729
G00 Z2.0000
G00 X29.4277 Y-41.6654
G01 F60.00
G01 Z-0.0500
G01 F120.00
G01 X30.5077 Y-41.6654
G01 X32.3495 Y-39.8236
G01 X32.3187 Y-39.8158
G01 X32.2958 Y-39.8088
G01 X32.1809 Y-39.7677
G01 X32.1698 Y-39.7633
G01 X32.1479 Y-39.7536
G01 X32.0592 Y-39.7116
G01 X32.0378 Y-39.7009
G01 X32.0273 Y-39.6951
G01 X31.9328 Y-39.6386
G01 X31.9126 Y-39.6258
G01 X31.8930 Y-39.6120
G01 X31.8142 Y-39.5536
G01 X31.7953 Y-39.5389
G01 X31.7772 Y-39.5232
G01 X31.7045 Y-39.4573
G01 X31.6872 Y-39.4408
G01 X31.6707 Y-39.4235
G01 X31.6048 Y-39.3508
G01 X31.5891 Y-39.3327
G01 X31.5744 Y-39.3138
G01 X31.5160 Y-39.2350
G01 X31.5022 Y-39.2154
G01 X31.4894 Y-39.1952
G01 X31.4389 Y-39.1110
G01 X31.4271 Y-39.0902
G01 X31.4164 Y-39.0688
G01 X31.3744 Y-38.9801
G01 X31.3647 Y-38.9582
G01 X31.3561 Y-38.9359
G01 X31.3231 Y-38.8435
G01 X31.3192 Y-38.8322
G01 X31.3122 Y-38.8093
G01 X31.2826 Y-38.6909
G01 X31.2779 Y-38.6674
G01 X31.2760 Y-38.6556
G01 X31.2616 Y-38.5585
G01 X31.2587 Y-38.5348
G01 X31.2569 Y-38.5109
G01 X31.2521 Y-38.4129
G01 X31.2516 Y-38.4010
G01 X31.2516 Y-38.3770
G01 X31.2576 Y-38.2551
G01 X31.2587 Y-38.2432
G01 X31.2616 Y-38.2195
G01 X31.2779 Y-38.1106
G01 X31.2801 Y-38.0988
G01 X31.2853 Y-38.0755
G01 X31.3092 Y-37.9803
G01 X31.3156 Y-37.9572
G01 X31.3231 Y-37.9345
G01 X31.3561 Y-37.8421
G01 X31.3647 Y-37.8198
G01 X31.3744 Y-37.7979
G01 X31.4164 Y-37.7092
G01 X31.4271 Y-37.6878
G01 X31.4389 Y-37.6670
G01 X31.4894 Y-37.5828
G01 X31.5022 Y-37.5626
G01 X31.5160 Y-37.5430
G01 X31.5744 Y-37.4642
G01 X31.5891 Y-37.4453
G01 X31.6048 Y-37.4272
G01 X31.6788 Y-37.3457
G01 X31.6872 Y-37.3372
G01 X31.7016 Y-37.3234
G01 X31.6821 Y-37.3023
G01 X31.6666 Y-37.2837
G01 X31.6174 Y-37.2181
G01 X31.6079 Y-37.2050
G01 X29.6154 Y-39.1975
G01 X29.6234 Y-39.2301
G01 X29.6281 Y-39.2536
G01 X29.6460 Y-39.3743
G01 X29.6473 Y-39.3862
G01 X29.6491 Y-39.4101
G01 X29.6544 Y-39.5200
G01 X29.6544 Y-39.5440
G01 X29.6539 Y-39.5559
G01 X29.6491 Y-39.6539
G01 X29.6473 Y-39.6778
G01 X29.6444 Y-39.7015
G01 X29.6300 Y-39.7986
G01 X29.6259 Y-39.8222
G01 X29.6234 Y-39.8339
G01 X29.5938 Y-39.9523
G01 X29.5868 Y-39.9752
G01 X29.5829 Y-39.9865
G01 X29.5499 Y-40.0789
G01 X29.5413 Y-40.1012
G01 X29.5316 Y-40.1231
G01 X29.4896 Y-40.2118
G01 X29.4789 Y-40.2332
G01 X29.4671 Y-40.2540
G01 X29.4166 Y-40.3382
G01 X29.4038 Y-40.3584
G01 X29.3900 Y-40.3780
G01 X29.3316 Y-40.4568
G01 X29.3169 Y-40.4757
G01 X29.3012 Y-40.4938
G01 X29.2353 Y-40.5665
G01 X29.2188 Y-40.5838
G01 X29.2015 Y-40.6003
G01 X29.1288 Y-40.6662
G01 X29.1107 Y-40.6819
G01 X29.0918 Y-40.6966
G01 X29.0130 Y-40.7550
G01 X28.9934 Y-40.7688
G01 X28.9732 Y-40.7816
G01 X28.8890 Y-40.8321
G01 X28.8682 Y-40.8439
G01 X28.8576 Y-40.8494
G01 X28.7581 Y-40.8966
G01 X28.7362 Y-40.9063
G01 X28.7139 Y-40.9149
G01 X28.6215 Y-40.9479
G01 X28.5988 Y-40.9554
G01 X28.5757 Y-40.9618
G01 X28.4805 Y-40.9857
G01 X28.4689 Y-40.9884
G01 X28.4487 Y-40.9925
G01 X28.4689 Y-40.9966
G01 X28.4805 Y-40.9993
G01 X28.5757 Y-41.0232
G01 X28.5988 Y-41.0296
G01 X28.6215 Y-41.0371
G01 X28.7139 Y-41.0701
G01 X28.7362 Y-41.0787
G01 X28.7581 Y-41.0884
G01 X28.8468 Y-41.1304
G01 X28.8682 Y-41.1411
G01 X28.8890 Y-41.1529
G01 X28.9732 Y-41.2034
G01 X28.9834 Y-41.2097
G01 X29.0033 Y-41.2230
G01 X29.0918 Y-41.2884
G01 X29.1107 Y-41.3031
G01 X29.1288 Y-41.3188
G01 X29.2015 Y-41.3847
G01 X29.2188 Y-41.4012
G01 X29.2272 Y-41.4097
G01 X29.3012 Y-41.4912
G01 X29.3169 Y-41.5093
G01 X29.3243 Y-41.5187
G01 X29.3970 Y-41.6167
G01 X29.4103 Y-41.6366
G01 X29.4277 Y-41.6654
G00 Z2.0000
G00 X29.2534 Y-41.9579
G01 F60.00
G01 Z-0.0500
G01 F120.00
G01 X29.2252 Y-41.8982
G01 X29.2186 Y-41.8855
G01 X29.1657 Y-41.7972
G01 X29.1579 Y-41.7851
G01 X29.0907 Y-41.6949
G01 X29.0186 Y-41.6149
G01 X29.0086 Y-41.6047
G01 X28.9251 Y-41.5293
G01 X28.8309 Y-41.4594
G01 X28.7303 Y-41.3991
G01 X28.6331 Y-41.3528
G01 X28.6199 Y-41.3472
G01 X28.5139 Y-41.3095
G01 X28.4001 Y-41.2810
G01 X28.2841 Y-41.2638
G01 X28.1670 Y-41.2580
G01 X28.0499 Y-41.2638
G01 X27.9339 Y-41.2810
G01 X27.8201 Y-41.3095
G01 X27.7186 Y-41.3455
G01 X27.7053 Y-41.3508
G01 X27.6037 Y-41.3991
G01 X27.5031 Y-41.4594
G01 X27.4089 Y-41.5293
G01 X27.3220 Y-41.6080
G01 X27.2433 Y-41.6949
G01 X27.1734 Y-41.7891
G01 X27.1131 Y-41.8897
G01 X27.0630 Y-41.9957
G01 X27.0235 Y-42.1061
G01 X26.9950 Y-42.2199
G01 X26.9778 Y-42.3359
G01 X26.9720 Y-42.4530
G01 X26.9778 Y-42.5701
G01 X26.9950 Y-42.6861
G01 X27.0235 Y-42.7999
G01 X27.0595 Y-42.9014
G01 X27.0648 Y-42.9147
G01 X27.1131 Y-43.0163
G01 X27.1683 Y-43.1088
G01 X27.1789 Y-43.1247
G01 X27.2433 Y-43.2111
G01 X27.3154 Y-43.2911
G01 X27.3289 Y-43.3046
G01 X27.4089 Y-43.3767
G01 X27.5031 Y-43.4466
G01 X27.6037 Y-43.5069
G01 X27.7009 Y-43.5532
G01 X27.7186 Y-43.5605
G01 X27.8201 Y-43.5965
G01 X27.9339 Y-43.6250
G01 X28.0404 Y-43.6411
G01 X28.0594 Y-43.6429
G01 X28.1670 Y-43.6480
G01 X28.2746 Y-43.6429
G01 X28.2936 Y-43.6411
G01 X28.4001 Y-43.6250
G01 X28.5139 Y-43.5965
G01 X28.6154 Y-43.5605
G01 X28.6331 Y-43.5532
G01 X28.7303 Y-43.5069
G01 X28.8269 Y-43.4492
G01 X28.8387 Y-43.4411
G01 X28.9176 Y-43.3826
G01 X28.9323 Y-43.3705
G01 X29.0120 Y-43.2980
G01 X29.0877 Y-43.2148
G01 X29.0966 Y-43.2036
G01 X29.1551 Y-43.1247
G01 X29.1632 Y-43.1129
G01 X29.2209 Y-43.0163
G01 X29.2534 Y-42.9482
G01 X30.8388 Y-42.9481
G01 X30.8825 Y-42.9458
G01 X30.9259 Y-42.9395
G01 X30.9399 Y-42.9365
G01 X30.9685 Y-42.9294
G01 X30.9868 Y-42.9238
G01 X31.0190 Y-42.9122
G01 X31.0322 Y-42.9066
G01 X31.0674 Y-42.8897
G01 X31.1010 Y-42.8698
G01 X31.1130 Y-42.8620
G01 X31.1444 Y-42.8387
G01 X31.1554 Y-42.8295
G01 X31.1807 Y-42.8065
G01 X33.1981 Y-40.7891
G01 X54.9640 Y-40.7891
G01 X55.0125 Y-40.7868
G01 X55.0512 Y-40.7813
G01 X55.0699 Y-40.7775
G01 X55.0985 Y-40.7704
G01 X55.1123 Y-40.7664
G01 X55.1535 Y-40.7515
G01 X55.1932 Y-40.7329
G01 X55.2057 Y-40.7260
G01 X55.2310 Y-40.7108
G01 X55.2430 Y-40.7030
G01 X55.2781 Y-40.6768
G01 X55.3072 Y-40.6507
G01 X56.4509 Y-39.5073
G01 X56.5221 Y-39.5325
G01 X56.6312 Y-39.5600
G01 X56.6453 Y-39.5627
G01 X56.7424 Y-39.5771
G01 X56.7566 Y-39.5787
G01 X56.8690 Y-39.5840
G01 X56.9766 Y-39.5789
G01 X56.9956 Y-39.5771
G01 X57.0974 Y-39.5619
G01 X57.1115 Y-39.5589
G01 X57.2159 Y-39.5325
G01 X57.3174 Y-39.4965
G01 X57.3351 Y-39.4892
G01 X57.4323 Y-39.4429
G01 X57.5248 Y-39.3877
G01 X57.5407 Y-39.3771
G01 X57.6271 Y-39.3127
G01 X57.7071 Y-39.2406
G01 X57.7206 Y-39.2271
G01 X57.7927 Y-39.1471
G01 X57.8571 Y-39.0607
G01 X57.8677 Y-39.0448
G01 X57.9229 Y-38.9523
G01 X57.9730 Y-38.8463
G01 X58.0095 Y-38.7450
G01 X58.0151 Y-38.7267
G01 X58.0410 Y-38.6221
G01 X58.0571 Y-38.5156
G01 X58.0589 Y-38.4966
G01 X58.0640 Y-38.3890
G01 X58.0589 Y-38.2814
G01 X58.0577 Y-38.2671
G01 X58.0410 Y-38.1559
G01 X58.0125 Y-38.0421
G01 X57.9730 Y-37.9317
G01 X57.9272 Y-37.8342
G01 X57.9182 Y-37.8174
G01 X57.8626 Y-37.7251
G01 X57.7986 Y-37.6384
G01 X57.7865 Y-37.6237
G01 X57.7206 Y-37.5509
G01 X57.7071 Y-37.5374
G01 X57.6271 Y-37.4653
G01 X57.5407 Y-37.4009
G01 X57.5248 Y-37.3903
G01 X57.4406 Y-37.3398
G01 X57.4238 Y-37.3308
G01 X57.3263 Y-37.2850
G01 X57.2250 Y-37.2485
G01 X57.2067 Y-37.2429
G01 X57.1021 Y-37.2170
G01 X56.9956 Y-37.2009
G01 X56.9766 Y-37.1991
G01 X56.8690 Y-37.1940
G01 X56.7614 Y-37.1991
G01 X56.7424 Y-37.2009
G01 X56.6359 Y-37.2170
G01 X56.5464 Y-37.2391
G01 X51.3951 Y-32.0879
G01 X51.3951 Y-27.3400
G01 X51.3928 Y-27.2915
G01 X51.3856 Y-27.2434
G01 X51.3764 Y-27.2055
G01 X51.3708 Y-27.1872
G01 X51.3575 Y-27.1505
G01 X51.3410 Y-27.1151
G01 X51.3320 Y-27.0983
G01 X51.3117 Y-27.0649
G01 X51.2828 Y-27.0259
G01 X51.2501 Y-26.9899
G01 X50.7161 Y-26.4559
G01 X50.7161 Y-25.1322
G01 X50.7138 Y-25.0885
G01 X50.7075 Y-25.0451
G01 X50.7045 Y-25.0311
G01 X50.6974 Y-25.0025
G01 X50.6918 Y-24.9842
G01 X50.6802 Y-24.9520
G01 X50.6746 Y-24.9388
G01 X50.6577 Y-24.9036
G01 X50.6378 Y-24.8700
G01 X50.6300 Y-24.8580
G01 X50.6067 Y-24.8266
G01 X50.5975 Y-24.8156
G01 X50.5745 Y-24.7903
G01 X48.8433 Y-23.0591
G01 X48.8685 Y-22.9879
G01 X48.8960 Y-22.8788
G01 X48.8987 Y-22.8647
G01 X48.9131 Y-22.7676
G01 X48.9147 Y-22.7534
G01 X48.9198 Y-22.6506
G01 X48.9198 Y-22.6314
G01 X48.9142 Y-22.5239
G01 X48.8979 Y-22.4126
G01 X48.8949 Y-22.3985
G01 X48.8711 Y-22.3033
G01 X48.8655 Y-22.2850
G01 X48.8290 Y-22.1837
G01 X48.7832 Y-22.0862
G01 X48.7742 Y-22.0694
G01 X48.7186 Y-21.9771
G01 X48.6546 Y-21.8904
G01 X48.6457 Y-21.8792
G01 X48.5766 Y-21.8029
G01 X48.5631 Y-21.7894
G01 X48.4831 Y-21.7173
G01 X48.3967 Y-21.6529
G01 X48.3808 Y-21.6423
G01 X48.2883 Y-21.5871
G01 X48.1823 Y-21.5370
G01 X48.0810 Y-21.5005
G01 X48.0627 Y-21.4949
G01 X47.9581 Y-21.4690
G01 X47.8516 Y-21.4529
G01 X47.8326 Y-21.4511
G01 X47.7250 Y-21.4460
G01 X47.6174 Y-21.4511
G01 X47.6031 Y-21.4523
G01 X47.4919 Y-21.4690
G01 X47.3873 Y-21.4949
G01 X47.3690 Y-21.5005
G01 X47.2766 Y-21.5335
G01 X47.2589 Y-21.5408
G01 X47.1617 Y-21.5871
G01 X47.0692 Y-21.6423
G01 X47.0533 Y-21.6529
G01 X46.9669 Y-21.7173
G01 X46.8800 Y-21.7960
G01 X46.8013 Y-21.8829
G01 X46.7314 Y-21.9771
G01 X46.6711 Y-22.0777
G01 X46.6210 Y-22.1837
G01 X46.5815 Y-22.2941
G01 X46.5551 Y-22.3985
G01 X46.5513 Y-22.4173
G01 X46.5358 Y-22.5239
G01 X46.5302 Y-22.6314
G01 X46.5302 Y-22.6506
G01 X46.5351 Y-22.7486
G01 X46.5369 Y-22.7676
G01 X46.5530 Y-22.8741
G01 X46.5789 Y-22.9787
G01 X46.5845 Y-22.9970
G01 X46.6210 Y-23.0983
G01 X46.6711 Y-23.2043
G01 X46.7314 Y-23.3049
G01 X46.8013 Y-23.3991
G01 X46.8800 Y-23.4860
G01 X46.9669 Y-23.5647
G01 X47.0611 Y-23.6346
G01 X47.1534 Y-23.6902
G01 X47.1659 Y-23.6971
G01 X47.2677 Y-23.7450
G01 X47.3781 Y-23.7845
G01 X47.4919 Y-23.8130
G01 X47.5984 Y-23.8291
G01 X47.6126 Y-23.8307
G01 X47.7250 Y-23.8360
G01 X47.8326 Y-23.8309
G01 X47.8469 Y-23.8297
G01 X47.9487 Y-23.8147
G01 X47.9675 Y-23.8109
G01 X48.0719 Y-23.7845
G01 X48.1431 Y-23.7593
G01 X49.7259 Y-25.3421
G01 X49.7259 Y-26.6658
G01 X49.7282 Y-26.7095
G01 X49.7337 Y-26.7482
G01 X49.7375 Y-26.7669
G01 X49.7472 Y-26.8047
G01 X49.7635 Y-26.8505
G01 X49.7843 Y-26.8944
G01 X49.8093 Y-26.9361
G01 X49.8324 Y-26.9676
G01 X49.8445 Y-26.9824
G01 X49.8709 Y-27.0111
G01 X50.4049 Y-27.5451
G01 X50.4049 Y-32.2930
G01 X50.4072 Y-32.3415
G01 X50.4144 Y-32.3896
G01 X50.4262 Y-32.4367
G01 X50.4391 Y-32.4736
G01 X50.4464 Y-32.4912
G01 X50.4633 Y-32.5264
G01 X50.4883 Y-32.5681
G01 X50.5172 Y-32.6071
G01 X50.5499 Y-32.6431
G01 X55.7884 Y-37.8816
G01 X55.7688 Y-37.9229
G01 X55.7632 Y-37.9361
G01 X55.7269 Y-38.0375
G01 X55.7229 Y-38.0513
G01 X55.6980 Y-38.1512
G01 X55.6953 Y-38.1653
G01 X55.6798 Y-38.2719
G01 X55.6742 Y-38.3794
G01 X55.6742 Y-38.3986
G01 X55.6798 Y-38.5061
G01 X55.6961 Y-38.6174
G01 X55.6991 Y-38.6315
G01 X55.7241 Y-38.7313
G01 X55.7285 Y-38.7450
G01 X55.7507 Y-38.8071
G01 X54.7589 Y-39.7989
G01 X32.9930 Y-39.7989
G01 X32.9540 Y-39.8005
G01 X32.9397 Y-39.8018
G01 X32.8964 Y-39.8084
G01 X32.8493 Y-39.8202
G01 X32.8035 Y-39.8365
G01 X32.7681 Y-39.8530
G01 X32.7513 Y-39.8620
G01 X32.7260 Y-39.8772
G01 X32.7140 Y-39.8850
G01 X32.6789 Y-39.9112
G01 X32.6463 Y-39.9405
G01 X30.6289 Y-41.9579
G01 X29.2534 Y-41.9579
G00 Z2.0000
G00 X33.2562 Y-37.3130
G01 F60.00
G01 Z-0.0500
G01 F120.00
G01 X33.2051 Y-37.2888
G01 X33.1919 Y-37.2832
G01 X33.0950 Y-37.2485
G01 X33.0813 Y-37.2441
G01 X32.9721 Y-37.2170
G01 X32.8656 Y-37.2009
G01 X32.8514 Y-37.1993
G01 X32.7390 Y-37.1940
G01 X32.6219 Y-37.1998
G01 X32.5059 Y-37.2170
G01 X32.4013 Y-37.2429
G01 X32.3875 Y-37.2469
G01 X32.2817 Y-37.2850
G01 X32.1757 Y-37.3351
G01 X32.0751 Y-37.3954
G01 X31.9809 Y-37.4653
G01 X31.8940 Y-37.5440
G01 X31.8153 Y-37.6309
G01 X31.7454 Y-37.7251
G01 X31.6898 Y-37.8174
G01 X31.6829 Y-37.8299
G01 X31.6350 Y-37.9317
G01 X31.5955 Y-38.0421
G01 X31.5670 Y-38.1559
G01 X31.5498 Y-38.2719
G01 X31.5440 Y-38.3890
G01 X31.5498 Y-38.5061
G01 X31.5670 Y-38.6221
G01 X31.5955 Y-38.7359
G01 X31.6350 Y-38.8463
G01 X31.6851 Y-38.9523
G01 X31.7454 Y-39.0529
G01 X31.8153 Y-39.1471
G01 X31.8940 Y-39.2340
G01 X31.9809 Y-39.3127
G01 X32.0751 Y-39.3826
G01 X32.1674 Y-39.4382
G01 X32.1799 Y-39.4451
G01 X32.2817 Y-39.4930
G01 X32.3830 Y-39.5295
G01 X32.4013 Y-39.5351
G01 X32.4965 Y-39.5589
G01 X32.5153 Y-39.5627
G01 X32.6219 Y-39.5782
G01 X32.7390 Y-39.5840
G01 X32.8561 Y-39.5782
G01 X32.9627 Y-39.5627
G01 X32.9815 Y-39.5589
G01 X33.0767 Y-39.5351
G01 X33.0950 Y-39.5295
G01 X33.1963 Y-39.4930
G01 X33.3023 Y-39.4429
G01 X33.3948 Y-39.3877
G01 X33.4107 Y-39.3771
G01 X33.4971 Y-39.3127
G01 X33.5840 Y-39.2340
G01 X33.6627 Y-39.1471
G01 X33.7271 Y-39.0607
G01 X33.7377 Y-39.0448
G01 X33.7929 Y-38.9523
G01 X33.8430 Y-38.8463
G01 X33.8795 Y-38.7450
G01 X33.8851 Y-38.7267
G01 X33.9089 Y-38.6315
G01 X33.9119 Y-38.6174
G01 X33.9282 Y-38.5061
G01 X33.9338 Y-38.3986
G01 X33.9338 Y-38.3794
G01 X33.9289 Y-38.2814
G01 X33.9277 Y-38.2671
G01 X33.9110 Y-38.1559
G01 X33.8839 Y-38.0467
G01 X33.8795 Y-38.0330
G01 X33.8448 Y-37.9361
G01 X33.8392 Y-37.9229
G01 X33.8150 Y-37.8718
G01 X37.2528 Y-34.4340
G01 X37.2759 Y-34.4305
G01 X37.2853 Y-34.4286
G01 X37.3185 Y-34.4204
G01 X37.3323 Y-34.4164
G01 X37.3735 Y-34.4015
G01 X37.4132 Y-34.3829
G01 X37.4257 Y-34.3760
G01 X37.4510 Y-34.3608
G01 X37.4669 Y-34.3502
G01 X37.4981 Y-34.3268
G01 X37.5341 Y-34.2941
G01 X37.5605 Y-34.2654
G01 X37.5726 Y-34.2506
G01 X37.5957 Y-34.2191
G01 X37.6160 Y-34.1857
G01 X37.6250 Y-34.1689
G01 X37.6415 Y-34.1335
G01 X37.6548 Y-34.0968
G01 X37.6592 Y-34.0831
G01 X37.6696 Y-34.0406
G01 X37.6756 Y-34.0020
G01 X37.6775 Y-33.9830
G01 X37.6791 Y-33.9440
G01 X37.6791 Y-24.7434
G01 X37.7473 Y-24.7109
G01 X37.8439 Y-24.6532
G01 X37.8557 Y-24.6451
G01 X37.9346 Y-24.5866
G01 X37.9458 Y-24.5777
G01 X38.0290 Y-24.5020
G01 X38.1015 Y-24.4223
G01 X38.1136 Y-24.4076
G01 X38.1721 Y-24.3287
G01 X38.1802 Y-24.3169
G01 X38.2379 Y-24.2203
G01 X38.2842 Y-24.1231
G01 X38.2915 Y-24.1054
G01 X38.3275 Y-24.0039
G01 X38.3560 Y-23.8901
G01 X38.3721 Y-23.7836
G01 X38.3739 Y-23.7646
G01 X38.3790 Y-23.6570
G01 X38.3732 Y-23.5399
G01 X38.3577 Y-23.4333
G01 X38.3539 Y-23.4145
G01 X38.3301 Y-23.3193
G01 X38.3245 Y-23.3010
G01 X38.2880 Y-23.1997
G01 X38.2379 Y-23.0937
G01 X38.1776 Y-22.9931
G01 X38.1136 Y-22.9064
G01 X38.1015 Y-22.8917
G01 X38.0356 Y-22.8189
G01 X38.0221 Y-22.8054
G01 X37.9421 Y-22.7333
G01 X37.8479 Y-22.6634
G01 X37.7473 Y-22.6031
G01 X37.6501 Y-22.5568
G01 X37.6324 Y-22.5495
G01 X37.5400 Y-22.5165
G01 X37.5263 Y-22.5121
G01 X37.4171 Y-22.4850
G01 X37.3106 Y-22.4689
G01 X37.2916 Y-22.4671
G01 X37.1936 Y-22.4622
G01 X37.1744 Y-22.4622
G01 X37.0669 Y-22.4678
G01 X36.9603 Y-22.4833
G01 X36.9415 Y-22.4871
G01 X36.8371 Y-22.5135
G01 X36.7267 Y-22.5530
G01 X36.6207 Y-22.6031
G01 X36.5201 Y-22.6634
G01 X36.4259 Y-22.7333
G01 X36.3459 Y-22.8054
G01 X36.3324 Y-22.8189
G01 X36.2603 Y-22.8989
G01 X36.1959 Y-22.9853
G01 X36.1853 Y-23.0012
G01 X36.1348 Y-23.0854
G01 X36.1258 Y-23.1022
G01 X36.0800 Y-23.1997
G01 X36.0405 Y-23.3101
G01 X36.0120 Y-23.4239
G01 X35.9959 Y-23.5304
G01 X35.9943 Y-23.5446
G01 X35.9890 Y-23.6570
G01 X35.9941 Y-23.7646
G01 X35.9959 Y-23.7836
G01 X36.0120 Y-23.8901
G01 X36.0405 Y-24.0039
G01 X36.0765 Y-24.1054
G01 X36.0838 Y-24.1231
G01 X36.1258 Y-24.2118
G01 X36.1324 Y-24.2245
G01 X36.1904 Y-24.3209
G01 X36.2544 Y-24.4076
G01 X36.2665 Y-24.4223
G01 X36.3324 Y-24.4951
G01 X36.3424 Y-24.5053
G01 X36.4259 Y-24.5807
G01 X36.5161 Y-24.6479
G01 X36.5282 Y-24.6557
G01 X36.6165 Y-24.7086
G01 X36.6292 Y-24.7152
G01 X36.6888 Y-24.7434
G01 X36.6889 Y-33.8804
G01 X33.2562 Y-37.3130
G00 Z2.0000
G00 X45.4874 Y-33.7432
G01 F60.00
G01 Z-0.0500
G01 F120.00
G01 X45.4697 Y-33.7505
G01 X45.3991 Y-33.7842
G01 X45.3238 Y-33.8293
G01 X45.2532 Y-33.8817
G01 X45.1881 Y-33.9406
G01 X45.1292 Y-34.0057
G01 X45.0768 Y-34.0763
G01 X45.0317 Y-34.1516
G01 X44.9941 Y-34.2310
G01 X44.9645 Y-34.3137
G01 X44.9432 Y-34.3989
G01 X44.9303 Y-34.4858
G01 X44.9260 Y-34.5735
G01 X44.9303 Y-34.6612
G01 X44.9432 Y-34.7481
G01 X44.9645 Y-34.8333
G01 X44.9941 Y-34.9160
G01 X45.0317 Y-34.9954
G01 X45.0768 Y-35.0707
G01 X45.1292 Y-35.1413
G01 X45.1881 Y-35.2064
G01 X45.2532 Y-35.2653
G01 X45.3238 Y-35.3177
G01 X45.3991 Y-35.3628
G01 X45.4785 Y-35.4004
G01 X45.5612 Y-35.4300
G01 X45.6464 Y-35.4513
G01 X45.7333 Y-35.4642
G01 X45.8210 Y-35.4685
G01 X45.9087 Y-35.4642
G01 X45.9956 Y-35.4513
G01 X46.0808 Y-35.4300
G01 X46.1635 Y-35.4004
G01 X46.2429 Y-35.3628
G01 X46.3182 Y-35.3177
G01 X46.3888 Y-35.2653
G01 X46.4539 Y-35.2064
G01 X46.5128 Y-35.1413
G01 X46.5652 Y-35.0707
G01 X46.6103 Y-34.9954
G01 X46.6479 Y-34.9160
G01 X46.6775 Y-34.8333
G01 X46.6988 Y-34.7481
G01 X46.7117 Y-34.6612
G01 X46.7160 Y-34.5735
G01 X46.7117 Y-34.4858
G01 X46.6988 Y-34.3989
G01 X46.6775 Y-34.3137
G01 X46.6479 Y-34.2310
G01 X46.6103 Y-34.1516
G01 X46.5652 Y-34.0763
G01 X46.5128 Y-34.0057
G01 X46.4539 Y-33.9406
G01 X46.3888 Y-33.8817
G01 X46.3182 Y-33.8293
G01 X46.2429 Y-33.7842
G01 X46.1635 Y-33.7466
G01 X46.0808 Y-33.7170
G01 X45.9956 Y-33.6957
G01 X45.9087 Y-33.6828
G01 X45.8210 Y-33.6785
G01 X45.7333 Y-33.6828
G01 X45.6464 Y-33.6957
G01 X45.5612 Y-33.7170
G01 X45.4874 Y-33.7432
G00 Z2.0000
G00 X45.4874 Y-31.2432
G01 F60.00
G01 Z-0.0500
G01 F120.00
G01 X45.4697 Y-31.2505
G01 X45.3991 Y-31.2842
G01 X45.3238 Y-31.3293
G01 X45.2532 Y-31.3817
G01 X45.1881 Y-31.4406
G01 X45.1292 Y-31.5057
G01 X45.0768 Y-31.5763
G01 X45.0317 Y-31.6516
G01 X44.9941 Y-31.7310
G01 X44.9645 Y-31.8137
G01 X44.9432 Y-31.8989
G01 X44.9303 Y-31.9858
G01 X44.9260 Y-32.0735
G01 X44.9303 Y-32.1612
G01 X44.9432 Y-32.2481
G01 X44.9645 Y-32.3333
G01 X44.9941 Y-32.4160
G01 X45.0317 Y-32.4954
G01 X45.0768 Y-32.5707
G01 X45.1292 Y-32.6413
G01 X45.1881 Y-32.7064
G01 X45.2532 Y-32.7653
G01 X45.3238 Y-32.8177
G01 X45.3991 Y-32.8628
G01 X45.4785 Y-32.9004
G01 X45.5612 Y-32.9300
G01 X45.6464 Y-32.9513
G01 X45.7333 Y-32.9642
G01 X45.8210 Y-32.9685
G01 X45.9087 Y-32.9642
G01 X45.9956 Y-32.9513
G01 X46.0808 Y-32.9300
G01 X46.1635 Y-32.9004
G01 X46.2429 Y-32.8628
G01 X46.3182 Y-32.8177
G01 X46.3888 Y-32.7653
G01 X46.4539 Y-32.7064
G01 X46.5128 Y-32.6413
G01 X46.5652 Y-32.5707
G01 X46.6103 Y-32.4954
G01 X46.6479 Y-32.4160
G01 X46.6775 Y-32.3333
G01 X46.6988 Y-32.2481
G01 X46.7117 Y-32.1612
G01 X46.7160 Y-32.0735
G01 X46.7117 Y-31.9858
G01 X46.6988 Y-31.8989
G01 X46.6775 Y-31.8137
G01 X46.6479 Y-31.7310
G01 X46.6103 Y-31.6516
G01 X46.5652 Y-31.5763
G01 X46.5128 Y-31.5057
G01 X46.4539 Y-31.4406
G01 X46.3888 Y-31.3817
G01 X46.3182 Y-31.3293
G01 X46.2429 Y-31.2842
G01 X46.1635 Y-31.2466
G01 X46.0808 Y-31.2170
G01 X45.9956 Y-31.1957
G01 X45.9087 Y-31.1828
G01 X45.8210 Y-31.1785
G01 X45.7333 Y-31.1828
G01 X45.6464 Y-31.1957
G01 X45.5612 Y-31.2170
G01 X45.4874 Y-31.2432
G00 Z2.0000
G00 X44.8112 Y-29.5735
G01 F60.00
G01 Z-0.0500
G01 F120.00
G01 X44.8284 Y-29.7591
G01 X44.8794 Y-29.9383
G01 X44.9624 Y-30.1051
G01 X45.0747 Y-30.2538
G01 X45.2125 Y-30.3793
G01 X45.3709 Y-30.4774
G01 X45.5017 Y-30.5282
G01 X45.5245 Y-30.5386
G01 X45.5372 Y-30.5454
G01 X45.5533 Y-30.5558
G01 X45.5683 Y-30.5678
G01 X45.6253 Y-30.6231
G01 X45.6385 Y-30.6373
G01 X45.6474 Y-30.6487
G01 X45.6529 Y-30.6567
G01 X45.6579 Y-30.6650
G01 X45.6647 Y-30.6778
G01 X45.6723 Y-30.6957
G01 X45.6780 Y-30.7142
G01 X45.6959 Y-30.7917
G01 X45.6989 Y-30.8108
G01 X45.6999 Y-30.8301
G01 X45.6997 Y-30.8398
G01 X45.6985 Y-30.8543
G01 X45.6962 Y-30.8686
G01 X45.6928 Y-30.8828
G01 X45.6884 Y-30.8966
G01 X45.6614 Y-30.9714
G01 X45.6574 Y-30.9803
G01 X45.6507 Y-30.9931
G01 X45.6403 Y-31.0095
G01 X45.6314 Y-31.0210
G01 X45.6251 Y-31.0283
G01 X45.6113 Y-31.0419
G01 X45.6001 Y-31.0512
G01 X45.5410 Y-31.0965
G01 X45.5334 Y-31.1018
G01 X45.5215 Y-31.1091
G01 X45.5133 Y-31.1134
G01 X45.5006 Y-31.1192
G01 X45.3709 Y-31.1696
G01 X45.2125 Y-31.2677
G01 X45.0747 Y-31.3932
G01 X44.9624 Y-31.5419
G01 X44.8794 Y-31.7087
G01 X44.8284 Y-31.8880
G01 X44.8112 Y-32.0735
G01 X44.8284 Y-32.2591
G01 X44.8794 Y-32.4383
G01 X44.9624 Y-32.6051
G01 X45.0747 Y-32.7538
G01 X45.2125 Y-32.8793
G01 X45.3709 Y-32.9774
G01 X45.5017 Y-33.0282
G01 X45.5245 Y-33.0386
G01 X45.5372 Y-33.0454
G01 X45.5533 Y-33.0558
G01 X45.5683 Y-33.0678
G01 X45.6253 Y-33.1231
G01 X45.6385 Y-33.1373
G01 X45.6474 Y-33.1487
G01 X45.6529 Y-33.1567
G01 X45.6626 Y-33.1735
G01 X45.6668 Y-33.1822
G01 X45.6723 Y-33.1957
G01 X45.6780 Y-33.2142
G01 X45.6959 Y-33.2917
G01 X45.6989 Y-33.3108
G01 X45.6999 Y-33.3301
G01 X45.6997 Y-33.3398
G01 X45.6985 Y-33.3543
G01 X45.6962 Y-33.3686
G01 X45.6928 Y-33.3828
G01 X45.6884 Y-33.3966
G01 X45.6632 Y-33.4669
G01 X45.6553 Y-33.4846
G01 X45.6457 Y-33.5014
G01 X45.6345 Y-33.5172
G01 X45.6251 Y-33.5283
G01 X45.6184 Y-33.5353
G01 X45.6039 Y-33.5482
G01 X45.5447 Y-33.5937
G01 X45.5334 Y-33.6018
G01 X45.5215 Y-33.6091
G01 X45.5091 Y-33.6155
G01 X45.5006 Y-33.6192
G01 X45.3709 Y-33.6696
G01 X45.2125 Y-33.7677
G01 X45.0747 Y-33.8932
G01 X44.9624 Y-34.0419
G01 X44.8794 Y-34.2087
G01 X44.8284 Y-34.3880
G01 X44.8112 Y-34.5735
G01 X44.8284 Y-34.7591
G01 X44.8794 Y-34.9383
G01 X44.9624 Y-35.1051
G01 X45.0747 Y-35.2538
G01 X45.2125 Y-35.3793
G01 X45.3709 Y-35.4774
G01 X45.5447 Y-35.5448
G01 X45.7278 Y-35.5790
G01 X45.9142 Y-35.5790
G01 X46.0973 Y-35.5448
G01 X46.2711 Y-35.4774
G01 X46.4295 Y-35.3793
G01 X46.5673 Y-35.2538
G01 X46.6796 Y-35.1051
G01 X46.7626 Y-34.9383
G01 X46.8136 Y-34.7590
G01 X46.8308 Y-34.5735
G01 X46.8136 Y-34.3879
G01 X46.7626 Y-34.2087
G01 X46.6796 Y-34.0419
G01 X46.5673 Y-33.8932
G01 X46.4295 Y-33.7677
G01 X46.2711 Y-33.6696
G01 X46.1403 Y-33.6188
G01 X46.1175 Y-33.6084
G01 X46.1048 Y-33.6016
G01 X46.0887 Y-33.5912
G01 X46.0737 Y-33.5792
G01 X46.0133 Y-33.5205
G01 X46.0067 Y-33.5134
G01 X45.9975 Y-33.5021
G01 X45.9891 Y-33.4903
G01 X45.9817 Y-33.4778
G01 X45.9773 Y-33.4692
G01 X45.9714 Y-33.4559
G01 X45.9666 Y-33.4422
G01 X45.9640 Y-33.4328
G01 X45.9461 Y-33.3553
G01 X45.9431 Y-33.3362
G01 X45.9421 Y-33.3169
G01 X45.9426 Y-33.3023
G01 X45.9442 Y-33.2879
G01 X45.9468 Y-33.2736
G01 X45.9505 Y-33.2596
G01 X45.9536 Y-33.2504
G01 X45.9788 Y-33.1801
G01 X45.9867 Y-33.1624
G01 X45.9963 Y-33.1456
G01 X46.0075 Y-33.1298
G01 X46.0169 Y-33.1187
G01 X46.0307 Y-33.1051
G01 X46.0419 Y-33.0958
G01 X46.1010 Y-33.0505
G01 X46.1125 Y-33.0427
G01 X46.1205 Y-33.0379
G01 X46.1329 Y-33.0315
G01 X46.1414 Y-33.0278
G01 X46.2711 Y-32.9774
G01 X46.4295 Y-32.8793
G01 X46.5673 Y-32.7538
G01 X46.6796 Y-32.6051
G01 X46.7626 Y-32.4383
G01 X46.8136 Y-32.2591
G01 X46.8308 Y-32.0735
G01 X46.8136 Y-31.8879
G01 X46.7626 Y-31.7087
G01 X46.6796 Y-31.5419
G01 X46.5673 Y-31.3932
G01 X46.4295 Y-31.2677
G01 X46.2711 Y-31.1696
G01 X46.1403 Y-31.1188
G01 X46.1175 Y-31.1084
G01 X46.1048 Y-31.1016
G01 X46.0887 Y-31.0912
G01 X46.0737 Y-31.0792
G01 X46.0133 Y-31.0205
G01 X46.0004 Y-31.0060
G01 X45.9946 Y-30.9983
G01 X45.9865 Y-30.9862
G01 X45.9817 Y-30.9778
G01 X45.9752 Y-30.9648
G01 X45.9697 Y-30.9513
G01 X45.9666 Y-30.9422
G01 X45.9628 Y-30.9281
G01 X45.9471 Y-30.8601
G01 X45.9444 Y-30.8458
G01 X45.9427 Y-30.8314
G01 X45.9421 Y-30.8169
G01 X45.9426 Y-30.8023
G01 X45.9435 Y-30.7927
G01 X45.9468 Y-30.7736
G01 X45.9520 Y-30.7549
G01 X45.9772 Y-30.6846
G01 X45.9826 Y-30.6711
G01 X45.9913 Y-30.6538
G01 X46.0017 Y-30.6375
G01 X46.0137 Y-30.6223
G01 X46.0271 Y-30.6084
G01 X46.0419 Y-30.5958
G01 X46.0973 Y-30.5533
G01 X46.1086 Y-30.5452
G01 X46.1205 Y-30.5379
G01 X46.1329 Y-30.5315
G01 X46.1414 Y-30.5278
G01 X46.2711 Y-30.4774
G01 X46.4295 Y-30.3793
G01 X46.5672 Y-30.2538
G01 X46.6797 Y-30.1049
G01 X46.7626 Y-29.9383
G01 X46.8136 Y-29.7591
G01 X46.8308 Y-29.5735
G01 X46.8136 Y-29.3879
G01 X46.7626 Y-29.2087
G01 X46.6796 Y-29.0419
G01 X46.5673 Y-28.8932
G01 X46.4295 Y-28.7677
G01 X46.2711 Y-28.6696
G01 X46.0973 Y-28.6022
G01 X45.9142 Y-28.5680
G01 X45.7278 Y-28.5680
G01 X45.5447 Y-28.6022
G01 X45.3709 Y-28.6696
G01 X45.2125 Y-28.7677
G01 X45.0747 Y-28.8932
G01 X44.9624 Y-29.0419
G01 X44.8794 Y-29.2087
G01 X44.8284 Y-29.3880
G01 X44.8112 Y-29.5735
G00 Z2.0000
G00 X45.4874 Y-28.7432
G01 F60.00
G01 Z-0.0500
G01 F120.00
G01 X45.4697 Y-28.7505
G01 X45.3991 Y-28.7842
G01 X45.3238 Y-28.8293
G01 X45.2532 Y-28.8817
G01 X45.1881 Y-28.9406
G01 X45.1292 Y-29.0057
G01 X45.0768 Y-29.0763
G01 X45.0317 Y-29.1516
G01 X44.9941 Y-29.2310
G01 X44.9645 Y-29.3137
G01 X44.9432 Y-29.3989
G01 X44.9303 Y-29.4858
G01 X44.9260 Y-29.5735
G01 X44.9303 Y-29.6612
G01 X44.9432 Y-29.7481
G01 X44.9645 Y-29.8333
G01 X44.9941 Y-29.9160
G01 X45.0317 Y-29.9954
G01 X45.0768 Y-30.0707
G01 X45.1292 Y-30.1413
G01 X45.1881 Y-30.2064
G01 X45.2532 Y-30.2653
G01 X45.3238 Y-30.3177
G01 X45.3991 Y-30.3628
G01 X45.4785 Y-30.4004
G01 X45.5612 Y-30.4300
G01 X45.6464 Y-30.4513
G01 X45.7333 Y-30.4642
G01 X45.8210 Y-30.4685
G01 X45.9087 Y-30.4642
G01 X45.9956 Y-30.4513
G01 X46.0808 Y-30.4300
G01 X46.1635 Y-30.4004
G01 X46.2429 Y-30.3628
G01 X46.3182 Y-30.3177
G01 X46.3888 Y-30.2653
G01 X46.4539 Y-30.2064
G01 X46.5128 Y-30.1413
G01 X46.5652 Y-30.0707
G01 X46.6103 Y-29.9954
G01 X46.6479 Y-29.9160
G01 X46.6775 Y-29.8333
G01 X46.6988 Y-29.7481
G01 X46.7117 Y-29.6612
G01 X46.7160 Y-29.5735
G01 X46.7117 Y-29.4858
G01 X46.6988 Y-29.3989
G01 X46.6775 Y-29.3137
G01 X46.6479 Y-29.2310
G01 X46.6103 Y-29.1516
G01 X46.5652 Y-29.0763
G01 X46.5128 Y-29.0057
G01 X46.4539 Y-28.9406
G01 X46.3888 Y-28.8817
G01 X46.3182 Y-28.8293
G01 X46.2429 Y-28.7842
G01 X46.1635 Y-28.7466
G01 X46.0808 Y-28.7170
G01 X45.9956 Y-28.6957
G01 X45.9087 Y-28.6828
G01 X45.8210 Y-28.6785
G01 X45.7333 Y-28.6828
G01 X45.6464 Y-28.6957
G01 X45.5612 Y-28.7170
G01 X45.4874 Y-28.7432
G00 Z2.0000
G00 X48.1682 Y-29.2500
G01 F60.00
G01 Z-0.0500
G01 F120.00
G01 X48.1289 Y-29.3880
G01 X48.1117 Y-29.5735
G01 X48.1289 Y-29.7590
G01 X48.1682 Y-29.8970
G01 X48.2578 Y-29.8074
G01 X48.2432 Y-29.7481
G01 X48.2315 Y-29.6707
G01 X48.2296 Y-29.6517
G01 X48.2260 Y-29.5735
G01 X48.2296 Y-29.4953
G01 X48.2315 Y-29.4763
G01 X48.2432 Y-29.3989
G01 X48.2578 Y-29.3396
G01 X48.1682 Y-29.2500
G00 Z2.0000
G00 X48.7874 Y-31.2432
G01 F60.00
G01 Z-0.0500
G01 F120.00
G01 X48.7697 Y-31.2505
G01 X48.6991 Y-31.2842
G01 X48.6238 Y-31.3293
G01 X48.5532 Y-31.3817
G01 X48.4881 Y-31.4406
G01 X48.4292 Y-31.5057
G01 X48.3768 Y-31.5763
G01 X48.3317 Y-31.6516
G01 X48.2941 Y-31.7310
G01 X48.2645 Y-31.8137
G01 X48.2432 Y-31.8989
G01 X48.2303 Y-31.9858
G01 X48.2260 Y-32.0735
G01 X48.2303 Y-32.1612
G01 X48.2432 Y-32.2481
G01 X48.2645 Y-32.3333
G01 X48.2941 Y-32.4160
G01 X48.3317 Y-32.4954
G01 X48.3768 Y-32.5707
G01 X48.4292 Y-32.6413
G01 X48.4881 Y-32.7064
G01 X48.5532 Y-32.7653
G01 X48.6238 Y-32.8177
G01 X48.6991 Y-32.8628
G01 X48.7785 Y-32.9004
G01 X48.8612 Y-32.9300
G01 X48.9464 Y-32.9513
G01 X49.0333 Y-32.9642
G01 X49.1210 Y-32.9685
G01 X49.2087 Y-32.9642
G01 X49.2956 Y-32.9513
G01 X49.3808 Y-32.9300
G01 X49.4635 Y-32.9004
G01 X49.5429 Y-32.8628
G01 X49.6182 Y-32.8177
G01 X49.6888 Y-32.7653
G01 X49.7539 Y-32.7064
G01 X49.8128 Y-32.6413
G01 X49.8652 Y-32.5707
G01 X49.9103 Y-32.4954
G01 X49.9479 Y-32.4160
G01 X49.9775 Y-32.3333
G01 X49.9988 Y-32.2481
G01 X50.0117 Y-32.1612
G01 X50.0160 Y-32.0735
G01 X50.0117 Y-31.9858
G01 X49.9988 Y-31.8989
G01 X49.9775 Y-31.8137
G01 X49.9479 Y-31.7310
G01 X49.9103 Y-31.6516
G01 X49.8652 Y-31.5763
G01 X49.8128 Y-31.5057
G01 X49.7539 Y-31.4406
G01 X49.6888 Y-31.3817
G01 X49.6182 Y-31.3293
G01 X49.5429 Y-31.2842
G01 X49.4635 Y-31.2466
G01 X49.3808 Y-31.2170
G01 X49.2956 Y-31.1957
G01 X49.2087 Y-31.1828
G01 X49.1210 Y-31.1785
G01 X49.0333 Y-31.1828
G01 X48.9464 Y-31.1957
G01 X48.8612 Y-31.2170
G01 X48.7874 Y-31.2432
G00 Z2.0000
G00 X50.1124 Y-31.4199
G01 F60.00
G01 Z-0.0500
G01 F120.00
G01 X50.1124 Y-30.2271
G01 X50.0946 Y-30.2528
G01 X50.0537 Y-30.3080
G01 X50.0389 Y-30.3268
G01 X50.0233 Y-30.3450
G01 X49.9772 Y-30.3959
G01 X49.9607 Y-30.4132
G01 X49.9434 Y-30.4297
G01 X49.8925 Y-30.4758
G01 X49.8743 Y-30.4914
G01 X49.8555 Y-30.5062
G01 X49.8003 Y-30.5471
G01 X49.7906 Y-30.5541
G01 X49.7707 Y-30.5674
G01 X49.7016 Y-30.6090
G01 X49.6808 Y-30.6208
G01 X49.6594 Y-30.6315
G01 X49.5973 Y-30.6609
G01 X49.5754 Y-30.6706
G01 X49.5643 Y-30.6750
G01 X49.4884 Y-30.7024
G01 X49.4657 Y-30.7099
G01 X49.4542 Y-30.7132
G01 X49.3760 Y-30.7329
G01 X49.3527 Y-30.7382
G01 X49.3291 Y-30.7423
G01 X49.2861 Y-30.7486
G01 X49.2891 Y-30.7686
G01 X49.2916 Y-30.7926
G01 X49.2929 Y-30.8168
G01 X49.2931 Y-30.8289
G01 X49.2926 Y-30.8531
G01 X49.2918 Y-30.8652
G01 X49.2908 Y-30.8773
G01 X49.2883 Y-30.8987
G01 X49.3291 Y-30.9047
G01 X49.3527 Y-30.9088
G01 X49.3760 Y-30.9141
G01 X49.4542 Y-30.9338
G01 X49.4657 Y-30.9371
G01 X49.4884 Y-30.9446
G01 X49.5643 Y-30.9720
G01 X49.5754 Y-30.9764
G01 X49.5973 Y-30.9861
G01 X49.6594 Y-31.0155
G01 X49.6808 Y-31.0262
G01 X49.7016 Y-31.0380
G01 X49.7707 Y-31.0796
G01 X49.7906 Y-31.0929
G01 X49.8003 Y-31.0999
G01 X49.8555 Y-31.1408
G01 X49.8743 Y-31.1556
G01 X49.8925 Y-31.1712
G01 X49.9434 Y-31.2173
G01 X49.9607 Y-31.2338
G01 X49.9772 Y-31.2511
G01 X50.0233 Y-31.3020
G01 X50.0389 Y-31.3202
G01 X50.0537 Y-31.3390
G01 X50.0946 Y-31.3942
G01 X50.1124 Y-31.4199
G00 Z2.0000
G00 X49.0962 Y-33.3860
G01 F60.00
G01 Z-0.0500
G01 F120.00
G01 X49.1434 Y-33.3860
G01 X49.1366 Y-33.3557
G01 X49.1326 Y-33.3318
G01 X49.1311 Y-33.3198
G01 X49.1290 Y-33.2957
G01 X49.1283 Y-33.2836
G01 X49.1280 Y-33.2609
G01 X49.1128 Y-33.2609
G01 X49.1116 Y-33.2767
G01 X49.1088 Y-33.3007
G01 X49.0962 Y-33.3860
G00 Z2.0000
G00 X48.4210 Y-33.6785
G01 F60.00
G01 Z-0.0500
G01 F120.00
G01 X48.4019 Y-33.6794
G01 X48.3830 Y-33.6822
G01 X48.3644 Y-33.6869
G01 X48.3464 Y-33.6933
G01 X48.3333 Y-33.6993
G01 X48.3167 Y-33.7088
G01 X48.3010 Y-33.7198
G01 X48.2865 Y-33.7323
G01 X48.2733 Y-33.7461
G01 X48.2644 Y-33.7573
G01 X48.2537 Y-33.7733
G01 X48.2447 Y-33.7901
G01 X48.2391 Y-33.8033
G01 X48.2331 Y-33.8215
G01 X48.2289 Y-33.8402
G01 X48.2265 Y-33.8592
G01 X48.2260 Y-33.8735
G01 X48.2261 Y-35.2783
G01 X48.2275 Y-35.2974
G01 X48.2297 Y-35.3115
G01 X48.2344 Y-35.3301
G01 X48.2391 Y-35.3437
G01 X48.2447 Y-35.3569
G01 X48.2537 Y-35.3737
G01 X48.2616 Y-35.3858
G01 X48.2733 Y-35.4009
G01 X48.2865 Y-35.4147
G01 X48.2973 Y-35.4242
G01 X48.3048 Y-35.4301
G01 X48.3127 Y-35.4356
G01 X48.3249 Y-35.4432
G01 X48.3420 Y-35.4518
G01 X48.3598 Y-35.4587
G01 X48.3690 Y-35.4614
G01 X48.3830 Y-35.4648
G01 X48.4019 Y-35.4676
G01 X48.4210 Y-35.4685
G01 X49.8258 Y-35.4684
G01 X49.8401 Y-35.4676
G01 X49.8590 Y-35.4648
G01 X49.8776 Y-35.4601
G01 X49.8912 Y-35.4554
G01 X49.9044 Y-35.4498
G01 X49.9212 Y-35.4408
G01 X49.9372 Y-35.4301
G01 X49.9484 Y-35.4212
G01 X49.9622 Y-35.4080
G01 X49.9747 Y-35.3935
G01 X49.9831 Y-35.3818
G01 X49.9883 Y-35.3737
G01 X49.9973 Y-35.3569
G01 X50.0012 Y-35.3481
G01 X50.0062 Y-35.3347
G01 X50.0113 Y-35.3162
G01 X50.0145 Y-35.2974
G01 X50.0158 Y-35.2831
G01 X50.0160 Y-35.2735
G01 X50.0159 Y-33.8687
G01 X50.0145 Y-33.8496
G01 X50.0123 Y-33.8355
G01 X50.0089 Y-33.8215
G01 X50.0029 Y-33.8033
G01 X49.9973 Y-33.7901
G01 X49.9883 Y-33.7733
G01 X49.9776 Y-33.7573
G01 X49.9687 Y-33.7461
G01 X49.9555 Y-33.7323
G01 X49.9410 Y-33.7198
G01 X49.9253 Y-33.7088
G01 X49.9087 Y-33.6993
G01 X49.8912 Y-33.6916
G01 X49.8730 Y-33.6856
G01 X49.8637 Y-33.6832
G01 X49.8496 Y-33.6806
G01 X49.8306 Y-33.6787
G01 X48.4210 Y-33.6785
G00 Z2.0000
G00 X66.3983 Y-23.3400
G01 F60.00
G01 Z-0.0500
G01 F120.00
G01 X66.4494 Y-23.4496
G01 X66.5603 Y-23.6080
G01 X66.6970 Y-23.7447
G01 X66.8554 Y-23.8556
G01 X66.9650 Y-23.9067
G01 X66.9650 Y-23.7841
G01 X66.9452 Y-23.7747
G01 X66.9368 Y-23.7702
G01 X66.8653 Y-23.7274
G01 X66.8533 Y-23.7196
G01 X66.7788 Y-23.6641
G01 X66.7064 Y-23.5986
G01 X66.6409 Y-23.5262
G01 X66.5854 Y-23.4517
G01 X66.5776 Y-23.4397
G01 X66.5348 Y-23.3682
G01 X66.5303 Y-23.3598
G01 X66.5209 Y-23.3400
G01 X66.3983 Y-23.3400
G00 Z2.0000
G00 X67.8550 Y-23.7841
G01 F60.00
G01 Z-0.0500
G01 F120.00
G01 X67.8550 Y-23.9067
G01 X67.9646 Y-23.8556
G01 X68.1230 Y-23.7447
G01 X68.2597 Y-23.6080
G01 X68.3706 Y-23.4496
G01 X68.4217 Y-23.3400
G01 X68.2991 Y-23.3400
G01 X68.2897 Y-23.3598
G01 X68.2852 Y-23.3682
G01 X68.2424 Y-23.4397
G01 X68.2346 Y-23.4517
G01 X68.1791 Y-23.5262
G01 X68.1136 Y-23.5986
G01 X68.0412 Y-23.6641
G01 X67.9667 Y-23.7196
G01 X67.9547 Y-23.7274
G01 X67.8832 Y-23.7702
G01 X67.8748 Y-23.7747
G01 X67.8550 Y-23.7841
G00 Z2.0000
G00 X67.8550 Y-21.8718
G01 F60.00
G01 Z-0.0500
G01 F120.00
G01 X67.8550 Y-22.0059
G01 X67.8748 Y-22.0153
G01 X67.8832 Y-22.0198
G01 X67.9547 Y-22.0626
G01 X67.9667 Y-22.0704
G01 X68.0412 Y-22.1259
G01 X68.1136 Y-22.1914
G01 X68.1791 Y-22.2638
G01 X68.2346 Y-22.3383
G01 X68.2424 Y-22.3503
G01 X68.2852 Y-22.4218
G01 X68.2897 Y-22.4302
G01 X68.2991 Y-22.4500
G01 X68.4217 Y-22.4500
G01 X68.3706 Y-22.3404
G01 X68.2597 Y-22.1820
G01 X68.1230 Y-22.0453
G01 X67.9646 Y-21.9344
G01 X67.9084 Y-21.9082
G01 X67.8953 Y-21.9014
G01 X67.8868 Y-21.8964
G01 X67.8747 Y-21.8881
G01 X67.8669 Y-21.8820
G01 X67.8550 Y-21.8718
G00 Z2.0000
G00 X67.8296 Y-21.2441
G01 F60.00
G01 Z-0.0500
G01 F120.00
G01 X67.8296 Y-21.3889
G01 X67.8655 Y-21.3573
G01 X67.8803 Y-21.3461
G01 X67.8880 Y-21.3410
G01 X67.9001 Y-21.3341
G01 X67.9392 Y-21.3156
G01 X68.0976 Y-21.2047
G01 X68.2343 Y-21.0680
G01 X68.3452 Y-20.9096
G01 X68.3963 Y-20.8000
G01 X68.2737 Y-20.8000
G01 X68.2643 Y-20.8198
G01 X68.2598 Y-20.8282
G01 X68.2170 Y-20.8997
G01 X68.2092 Y-20.9117
G01 X68.1537 Y-20.9862
G01 X68.0882 Y-21.0586
G01 X68.0158 Y-21.1241
G01 X67.9413 Y-21.1796
G01 X67.9293 Y-21.1874
G01 X67.8578 Y-21.2302
G01 X67.8494 Y-21.2347
G01 X67.8296 Y-21.2441
G00 Z2.0000
G00 X66.9650 Y-21.8611
G01 F60.00
G01 Z-0.0500
G01 F120.00
G01 X66.9291 Y-21.8927
G01 X66.9143 Y-21.9039
G01 X66.9026 Y-21.9114
G01 X66.8945 Y-21.9159
G01 X66.8554 Y-21.9344
G01 X66.6970 Y-22.0453
G01 X66.5603 Y-22.1820
G01 X66.4494 Y-22.3404
G01 X66.3983 Y-22.4500
G01 X66.5209 Y-22.4500
G01 X66.5303 Y-22.4302
G01 X66.5348 Y-22.4218
G01 X66.5776 Y-22.3503
G01 X66.5854 Y-22.3383
G01 X66.6409 Y-22.2638
G01 X66.7064 Y-22.1914
G01 X66.7788 Y-22.1259
G01 X66.8533 Y-22.0704
G01 X66.8653 Y-22.0626
G01 X66.9368 Y-22.0198
G01 X66.9452 Y-22.0153
G01 X66.9650 Y-22.0059
G01 X66.9650 Y-21.8611
G00 Z2.0000
G00 X66.3729 Y-20.8000
G01 F60.00
G01 Z-0.0500
G01 F120.00
G01 X66.4240 Y-20.9096
G01 X66.5349 Y-21.0680
G01 X66.6716 Y-21.2047
G01 X66.8300 Y-21.3156
G01 X66.8862 Y-21.3418
G01 X66.8993 Y-21.3486
G01 X66.9078 Y-21.3536
G01 X66.9199 Y-21.3619
G01 X66.9277 Y-21.3680
G01 X66.9396 Y-21.3782
G01 X66.9396 Y-21.2441
G01 X66.9198 Y-21.2347
G01 X66.9114 Y-21.2302
G01 X66.8399 Y-21.1874
G01 X66.8279 Y-21.1796
G01 X66.7534 Y-21.1241
G01 X66.6810 Y-21.0586
G01 X66.6155 Y-20.9862
G01 X66.5600 Y-20.9117
G01 X66.5522 Y-20.8997
G01 X66.5094 Y-20.8282
G01 X66.5049 Y-20.8198
G01 X66.4955 Y-20.8000
G01 X66.3729 Y-20.8000
G00 Z2.0000
G00 X66.3729 Y-19.9100
G01 F60.00
G01 Z-0.0500
G01 F120.00
G01 X66.4955 Y-19.9100
G01 X66.5049 Y-19.8902
G01 X66.5094 Y-19.8818
G01 X66.5522 Y-19.8103
G01 X66.5600 Y-19.7983
G01 X66.6155 Y-19.7238
G01 X66.6810 Y-19.6514
G01 X66.7534 Y-19.5859
G01 X66.8279 Y-19.5304
G01 X66.8399 Y-19.5226
G01 X66.9114 Y-19.4798
G01 X66.9198 Y-19.4753
G01 X66.9396 Y-19.4659
G01 X66.9396 Y-19.3433
G01 X66.8300 Y-19.3944
G01 X66.6716 Y-19.5053
G01 X66.5349 Y-19.6420
G01 X66.4240 Y-19.8004
G01 X66.3729 Y-19.9100
G00 Z2.0000
G00 X67.8296 Y-19.4659
G01 F60.00
G01 Z-0.0500
G01 F120.00
G01 X67.8494 Y-19.4753
G01 X67.8578 Y-19.4798
G01 X67.9293 Y-19.5226
G01 X67.9413 Y-19.5304
G01 X68.0158 Y-19.5859
G01 X68.0882 Y-19.6514
G01 X68.1537 Y-19.7238
G01 X68.2092 Y-19.7983
G01 X68.2170 Y-19.8103
G01 X68.2598 Y-19.8818
G01 X68.2643 Y-19.8902
G01 X68.2737 Y-19.9100
G01 X68.3963 Y-19.9100
G01 X68.3452 Y-19.8004
G01 X68.2343 Y-19.6420
G01 X68.0976 Y-19.5053
G01 X67.9392 Y-19.3944
G01 X67.8296 Y-19.3433
G01 X67.8296 Y-19.4659
G00 Z2.0000
G00 X66.6100 Y-11.1050
G01 F60.00
G01 Z-0.0500
G01 F120.00
G01 X66.5909 Y-11.1059
G01 X66.5720 Y-11.1087
G01 X66.5580 Y-11.1121
G01 X66.5398 Y-11.1181
G01 X66.5223 Y-11.1258
G01 X66.5057 Y-11.1353
G01 X66.4938 Y-11.1434
G01 X66.4790 Y-11.1555
G01 X66.4655 Y-11.1690
G01 X66.4563 Y-11.1800
G01 X66.4453 Y-11.1957
G01 X66.4358 Y-11.2123
G01 X66.4281 Y-11.2298
G01 X66.4221 Y-11.2480
G01 X66.4179 Y-11.2667
G01 X66.4155 Y-11.2857
G01 X66.4150 Y-11.3000
G01 X66.4151 Y-12.9048
G01 X66.4165 Y-12.9239
G01 X66.4187 Y-12.9380
G01 X66.4221 Y-12.9520
G01 X66.4281 Y-12.9702
G01 X66.4358 Y-12.9877
G01 X66.4453 Y-13.0043
G01 X66.4534 Y-13.0162
G01 X66.4655 Y-13.0310
G01 X66.4790 Y-13.0445
G01 X66.4900 Y-13.0537
G01 X66.4977 Y-13.0594
G01 X66.5139 Y-13.0697
G01 X66.5310 Y-13.0783
G01 X66.5488 Y-13.0852
G01 X66.5673 Y-13.0903
G01 X66.5767 Y-13.0921
G01 X66.5909 Y-13.0941
G01 X66.6100 Y-13.0950
G01 X68.2148 Y-13.0949
G01 X68.2339 Y-13.0935
G01 X68.2527 Y-13.0903
G01 X68.2666 Y-13.0866
G01 X68.2846 Y-13.0802
G01 X68.2977 Y-13.0742
G01 X68.3143 Y-13.0647
G01 X68.3300 Y-13.0537
G01 X68.3410 Y-13.0445
G01 X68.3545 Y-13.0310
G01 X68.3666 Y-13.0162
G01 X68.3747 Y-13.0043
G01 X68.3797 Y-12.9961
G01 X68.3883 Y-12.9790
G01 X68.3936 Y-12.9657
G01 X68.3966 Y-12.9566
G01 X68.4013 Y-12.9380
G01 X68.4041 Y-12.9191
G01 X68.4050 Y-12.9000
G01 X68.4049 Y-11.2952
G01 X68.4041 Y-11.2809
G01 X68.4013 Y-11.2620
G01 X68.3966 Y-11.2434
G01 X68.3902 Y-11.2254
G01 X68.3842 Y-11.2123
G01 X68.3747 Y-11.1957
G01 X68.3666 Y-11.1838
G01 X68.3545 Y-11.1690
G01 X68.3410 Y-11.1555
G01 X68.3262 Y-11.1434
G01 X68.3102 Y-11.1327
G01 X68.2934 Y-11.1237
G01 X68.2757 Y-11.1164
G01 X68.2574 Y-11.1108
G01 X68.2480 Y-11.1087
G01 X68.2339 Y-11.1065
G01 X68.2148 Y-11.1051
G01 X66.6100 Y-11.1050
G00 Z2.0000
G00 X66.3045 Y-8.7226
G01 F60.00
G01 Z-0.0500
G01 F120.00
G01 X66.3045 Y-10.3974
G01 X66.3072 Y-10.4223
G01 X66.3391 Y-10.5079
G01 X66.3920 Y-10.5786
G01 X66.4111 Y-10.5949
G01 X66.4213 Y-10.6044
G01 X66.4308 Y-10.6146
G01 X66.4395 Y-10.6255
G01 X66.4449 Y-10.6330
G01 X66.4523 Y-10.6448
G01 X66.4903 Y-10.7145
G01 X66.4965 Y-10.7276
G01 X66.5000 Y-10.7366
G01 X66.5058 Y-10.7551
G01 X66.5089 Y-10.7693
G01 X66.5103 Y-10.7789
G01 X66.5113 Y-10.7885
G01 X66.5119 Y-10.8030
G01 X66.5114 Y-10.8175
G01 X66.5064 Y-10.8872
G01 X66.5049 Y-10.9017
G01 X66.5022 Y-10.9160
G01 X66.4985 Y-10.9300
G01 X66.4938 Y-10.9437
G01 X66.4901 Y-10.9527
G01 X66.4837 Y-10.9657
G01 X66.4737 Y-10.9823
G01 X66.4262 Y-11.0461
G01 X66.4174 Y-11.0570
G01 X66.4112 Y-11.0638
G01 X66.4012 Y-11.0736
G01 X66.3920 Y-11.0814
G01 X66.3391 Y-11.1521
G01 X66.3072 Y-11.2377
G01 X66.3045 Y-11.2626
G01 X66.3045 Y-12.9374
G01 X66.3072 Y-12.9623
G01 X66.3391 Y-13.0479
G01 X66.3918 Y-13.1182
G01 X66.4621 Y-13.1709
G01 X66.5477 Y-13.2028
G01 X66.5726 Y-13.2055
G01 X68.2474 Y-13.2055
G01 X68.2723 Y-13.2028
G01 X68.3579 Y-13.1709
G01 X68.4282 Y-13.1182
G01 X68.4809 Y-13.0479
G01 X68.5128 Y-12.9623
G01 X68.5155 Y-12.9374
G01 X68.5155 Y-11.2626
G01 X68.5128 Y-11.2377
G01 X68.4809 Y-11.1521
G01 X68.4280 Y-11.0814
G01 X68.4089 Y-11.0651
G01 X68.3987 Y-11.0556
G01 X68.3892 Y-11.0454
G01 X68.3805 Y-11.0345
G01 X68.3725 Y-11.0231
G01 X68.3677 Y-11.0152
G01 X68.3297 Y-10.9455
G01 X68.3217 Y-10.9279
G01 X68.3168 Y-10.9142
G01 X68.3142 Y-10.9049
G01 X68.3120 Y-10.8954
G01 X68.3097 Y-10.8811
G01 X68.3083 Y-10.8666
G01 X68.3081 Y-10.8570
G01 X68.3086 Y-10.8424
G01 X68.3136 Y-10.7728
G01 X68.3151 Y-10.7583
G01 X68.3168 Y-10.7488
G01 X68.3201 Y-10.7346
G01 X68.3245 Y-10.7208
G01 X68.3299 Y-10.7073
G01 X68.3363 Y-10.6943
G01 X68.3463 Y-10.6777
G01 X68.3938 Y-10.6139
G01 X68.3996 Y-10.6066
G01 X68.4088 Y-10.5962
G01 X68.4188 Y-10.5864
G01 X68.4280 Y-10.5786
G01 X68.4809 Y-10.5079
G01 X68.5128 Y-10.4223
G01 X68.5155 Y-10.3974
G01 X68.5155 Y-8.7226
G01 X68.5128 Y-8.6977
G01 X68.4809 Y-8.6121
G01 X68.4282 Y-8.5418
G01 X68.3579 Y-8.4891
G01 X68.2723 Y-8.4572
G01 X68.2474 Y-8.4545
G01 X66.5726 Y-8.4545
G01 X66.5477 Y-8.4572
G01 X66.4621 Y-8.4891
G01 X66.3918 Y-8.5418
G01 X66.3391 Y-8.6121
G01 X66.3072 Y-8.6977
G01 X66.3045 Y-8.7226
G00 Z2.0000
G00 X66.6100 Y-8.5650
G01 F60.00
G01 Z-0.0500
G01 F120.00
G01 X66.5909 Y-8.5659
G01 X66.5720 Y-8.5687
G01 X66.5580 Y-8.5721
G01 X66.5398 Y-8.5781
G01 X66.5223 Y-8.5858
G01 X66.5057 Y-8.5953
G01 X66.4938 Y-8.6034
G01 X66.4790 Y-8.6155
G01 X66.4655 Y-8.6290
G01 X66.4563 Y-8.6400
G01 X66.4453 Y-8.6557
G01 X66.4358 Y-8.6723
G01 X66.4281 Y-8.6898
G01 X66.4221 Y-8.7080
G01 X66.4179 Y-8.7267
G01 X66.4155 Y-8.7457
G01 X66.4150 Y-8.7600
G01 X66.4151 Y-10.3648
G01 X66.4165 Y-10.3839
G01 X66.4187 Y-10.3980
G01 X66.4221 Y-10.4120
G01 X66.4281 Y-10.4302
G01 X66.4358 Y-10.4477
G01 X66.4453 Y-10.4643
G01 X66.4534 Y-10.4762
G01 X66.4655 Y-10.4910
G01 X66.4790 Y-10.5045
G01 X66.4900 Y-10.5137
G01 X66.4977 Y-10.5194
G01 X66.5139 Y-10.5297
G01 X66.5310 Y-10.5383
G01 X66.5488 Y-10.5452
G01 X66.5673 Y-10.5503
G01 X66.5767 Y-10.5521
G01 X66.5909 Y-10.5541
G01 X66.6100 Y-10.5550
G01 X68.2148 Y-10.5549
G01 X68.2339 Y-10.5535
G01 X68.2527 Y-10.5503
G01 X68.2666 Y-10.5466
G01 X68.2846 Y-10.5402
G01 X68.2977 Y-10.5342
G01 X68.3143 Y-10.5247
G01 X68.3300 Y-10.5137
G01 X68.3410 Y-10.5045
G01 X68.3545 Y-10.4910
G01 X68.3666 Y-10.4762
G01 X68.3747 Y-10.4643
G01 X68.3797 Y-10.4561
G01 X68.3883 Y-10.4390
G01 X68.3936 Y-10.4257
G01 X68.3966 Y-10.4166
G01 X68.4013 Y-10.3980
G01 X68.4041 Y-10.3791
G01 X68.4050 Y-10.3600
G01 X68.4049 Y-8.7552
G01 X68.4041 Y-8.7409
G01 X68.4013 Y-8.7220
G01 X68.3966 Y-8.7034
G01 X68.3902 Y-8.6854
G01 X68.3842 Y-8.6723
G01 X68.3747 Y-8.6557
G01 X68.3666 Y-8.6438
G01 X68.3545 Y-8.6290
G01 X68.3410 Y-8.6155
G01 X68.3262 Y-8.6034
G01 X68.3102 Y-8.5927
G01 X68.2934 Y-8.5837
G01 X68.2757 Y-8.5764
G01 X68.2574 Y-8.5708
G01 X68.2480 Y-8.5687
G01 X68.2339 Y-8.5665
G01 X68.2148 Y-8.5651
G01 X66.6100 Y-8.5650
G00 Z2.0000
G00 X85.1005 Y-8.5956
G01 F60.00
G01 Z-0.0500
G01 F120.00
G01 X85.1005 Y-10.2704
G01 X85.1032 Y-10.2953
G01 X85.1351 Y-10.3809
G01 X85.1880 Y-10.4516
G01 X85.2071 Y-10.4679
G01 X85.2173 Y-10.4774
G01 X85.2268 Y-10.4876
G01 X85.2355 Y-10.4985
G01 X85.2409 Y-10.5060
G01 X85.2483 Y-10.5178
G01 X85.2863 Y-10.5875
G01 X85.2925 Y-10.6006
G01 X85.2960 Y-10.6096
G01 X85.3018 Y-10.6281
G01 X85.3049 Y-10.6423
G01 X85.3063 Y-10.6519
G01 X85.3073 Y-10.6615
G01 X85.3079 Y-10.6760
G01 X85.3074 Y-10.6905
G01 X85.3024 Y-10.7602
G01 X85.3009 Y-10.7747
G01 X85.2982 Y-10.7890
G01 X85.2959 Y-10.7984
G01 X85.2915 Y-10.8122
G01 X85.2861 Y-10.8257
G01 X85.2797 Y-10.8387
G01 X85.2697 Y-10.8553
G01 X85.2222 Y-10.9191
G01 X85.2164 Y-10.9264
G01 X85.2072 Y-10.9368
G01 X85.1972 Y-10.9466
G01 X85.1880 Y-10.9544
G01 X85.1351 Y-11.0251
G01 X85.1032 Y-11.1107
G01 X85.1005 Y-11.1356
G01 X85.1005 Y-12.8104
G01 X85.1032 Y-12.8353
G01 X85.1351 Y-12.9209
G01 X85.1878 Y-12.9912
G01 X85.2581 Y-13.0439
G01 X85.3437 Y-13.0758
G01 X85.3686 Y-13.0785
G01 X87.0434 Y-13.0785
G01 X87.0683 Y-13.0758
G01 X87.1539 Y-13.0439
G01 X87.2242 Y-12.9912
G01 X87.2769 Y-12.9209
G01 X87.3088 Y-12.8353
G01 X87.3115 Y-12.8104
G01 X87.3115 Y-11.1356
G01 X87.3088 Y-11.1107
G01 X87.2769 Y-11.0251
G01 X87.2240 Y-10.9544
G01 X87.2049 Y-10.9381
G01 X87.1947 Y-10.9286
G01 X87.1852 Y-10.9184
G01 X87.1765 Y-10.9075
G01 X87.1685 Y-10.8961
G01 X87.1637 Y-10.8882
G01 X87.1257 Y-10.8185
G01 X87.1195 Y-10.8054
G01 X87.1159 Y-10.7964
G01 X87.1102 Y-10.7779
G01 X87.1071 Y-10.7637
G01 X87.1057 Y-10.7541
G01 X87.1043 Y-10.7396
G01 X87.1041 Y-10.7300
G01 X87.1046 Y-10.7154
G01 X87.1096 Y-10.6458
G01 X87.1111 Y-10.6313
G01 X87.1128 Y-10.6218
G01 X87.1161 Y-10.6076
G01 X87.1205 Y-10.5938
G01 X87.1259 Y-10.5803
G01 X87.1323 Y-10.5673
G01 X87.1423 Y-10.5507
G01 X87.1898 Y-10.4869
G01 X87.1956 Y-10.4796
G01 X87.2048 Y-10.4692
G01 X87.2148 Y-10.4594
G01 X87.2240 Y-10.4516
G01 X87.2769 Y-10.3809
G01 X87.3088 Y-10.2953
G01 X87.3115 Y-10.2704
G01 X87.3115 Y-8.5956
G01 X87.3088 Y-8.5707
G01 X87.2769 Y-8.4851
G01 X87.2242 Y-8.4148
G01 X87.1539 Y-8.3621
G01 X87.0683 Y-8.3302
G01 X87.0434 Y-8.3275
G01 X85.3686 Y-8.3275
G01 X85.3437 Y-8.3302
G01 X85.2581 Y-8.3621
G01 X85.1878 Y-8.4148
G01 X85.1351 Y-8.4851
G01 X85.1032 Y-8.5707
G01 X85.1005 Y-8.5956
G00 Z2.0000
G00 X85.4060 Y-8.4380
G01 F60.00
G01 Z-0.0500
G01 F120.00
G01 X85.3869 Y-8.4389
G01 X85.3680 Y-8.4417
G01 X85.3540 Y-8.4451
G01 X85.3358 Y-8.4511
G01 X85.3183 Y-8.4588
G01 X85.3017 Y-8.4683
G01 X85.2898 Y-8.4764
G01 X85.2750 Y-8.4885
G01 X85.2615 Y-8.5020
G01 X85.2523 Y-8.5130
G01 X85.2413 Y-8.5287
G01 X85.2318 Y-8.5453
G01 X85.2241 Y-8.5628
G01 X85.2181 Y-8.5810
G01 X85.2139 Y-8.5997
G01 X85.2115 Y-8.6187
G01 X85.2110 Y-8.6330
G01 X85.2111 Y-10.2378
G01 X85.2125 Y-10.2569
G01 X85.2147 Y-10.2710
G01 X85.2181 Y-10.2850
G01 X85.2241 Y-10.3032
G01 X85.2318 Y-10.3207
G01 X85.2413 Y-10.3373
G01 X85.2494 Y-10.3492
G01 X85.2615 Y-10.3640
G01 X85.2750 Y-10.3775
G01 X85.2860 Y-10.3867
G01 X85.2937 Y-10.3924
G01 X85.3099 Y-10.4027
G01 X85.3270 Y-10.4113
G01 X85.3448 Y-10.4182
G01 X85.3633 Y-10.4233
G01 X85.3727 Y-10.4251
G01 X85.3869 Y-10.4271
G01 X85.4060 Y-10.4280
G01 X87.0108 Y-10.4279
G01 X87.0299 Y-10.4265
G01 X87.0487 Y-10.4233
G01 X87.0626 Y-10.4196
G01 X87.0806 Y-10.4132
G01 X87.0937 Y-10.4072
G01 X87.1103 Y-10.3977
G01 X87.1260 Y-10.3867
G01 X87.1370 Y-10.3775
G01 X87.1505 Y-10.3640
G01 X87.1626 Y-10.3492
G01 X87.1707 Y-10.3373
G01 X87.1757 Y-10.3291
G01 X87.1843 Y-10.3120
G01 X87.1896 Y-10.2987
G01 X87.1926 Y-10.2896
G01 X87.1973 Y-10.2710
G01 X87.2001 Y-10.2521
G01 X87.2010 Y-10.2330
G01 X87.2009 Y-8.6282
G01 X87.2001 Y-8.6139
G01 X87.1973 Y-8.5950
G01 X87.1926 Y-8.5764
G01 X87.1862 Y-8.5584
G01 X87.1802 Y-8.5453
G01 X87.1707 Y-8.5287
G01 X87.1626 Y-8.5168
G01 X87.1505 Y-8.5020
G01 X87.1370 Y-8.4885
G01 X87.1222 Y-8.4764
G01 X87.1062 Y-8.4657
G01 X87.0894 Y-8.4567
G01 X87.0717 Y-8.4494
G01 X87.0534 Y-8.4438
G01 X87.0440 Y-8.4417
G01 X87.0299 Y-8.4395
G01 X87.0108 Y-8.4381
G01 X85.4060 Y-8.4380
G00 Z2.0000
G00 X85.4060 Y-10.9780
G01 F60.00
G01 Z-0.0500
G01 F120.00
G01 X85.3869 Y-10.9789
G01 X85.3680 Y-10.9817
G01 X85.3540 Y-10.9851
G01 X85.3358 Y-10.9911
G01 X85.3183 Y-10.9988
G01 X85.3017 Y-11.0083
G01 X85.2898 Y-11.0164
G01 X85.2750 Y-11.0285
G01 X85.2615 Y-11.0420
G01 X85.2523 Y-11.0530
G01 X85.2413 Y-11.0687
G01 X85.2318 Y-11.0853
G01 X85.2241 Y-11.1028
G01 X85.2181 Y-11.1210
G01 X85.2139 Y-11.1397
G01 X85.2115 Y-11.1587
G01 X85.2110 Y-11.1730
G01 X85.2111 Y-12.7778
G01 X85.2125 Y-12.7969
G01 X85.2147 Y-12.8110
G01 X85.2181 Y-12.8250
G01 X85.2241 Y-12.8432
G01 X85.2318 Y-12.8607
G01 X85.2413 Y-12.8773
G01 X85.2494 Y-12.8892
G01 X85.2615 Y-12.9040
G01 X85.2750 Y-12.9175
G01 X85.2860 Y-12.9267
G01 X85.2937 Y-12.9324
G01 X85.3099 Y-12.9427
G01 X85.3270 Y-12.9513
G01 X85.3448 Y-12.9582
G01 X85.3633 Y-12.9633
G01 X85.3727 Y-12.9651
G01 X85.3869 Y-12.9671
G01 X85.4060 Y-12.9680
G01 X87.0108 Y-12.9679
G01 X87.0299 Y-12.9665
G01 X87.0487 Y-12.9633
G01 X87.0626 Y-12.9596
G01 X87.0806 Y-12.9532
G01 X87.0937 Y-12.9472
G01 X87.1103 Y-12.9377
G01 X87.1260 Y-12.9267
G01 X87.1370 Y-12.9175
G01 X87.1505 Y-12.9040
G01 X87.1626 Y-12.8892
G01 X87.1707 Y-12.8773
G01 X87.1757 Y-12.8691
G01 X87.1843 Y-12.8520
G01 X87.1896 Y-12.8387
G01 X87.1926 Y-12.8296
G01 X87.1973 Y-12.8110
G01 X87.2001 Y-12.7921
G01 X87.2010 Y-12.7730
G01 X87.2009 Y-11.1682
G01 X87.2001 Y-11.1539
G01 X87.1973 Y-11.1350
G01 X87.1926 Y-11.1164
G01 X87.1862 Y-11.0984
G01 X87.1802 Y-11.0853
G01 X87.1707 Y-11.0687
G01 X87.1626 Y-11.0568
G01 X87.1505 Y-11.0420
G01 X87.1370 Y-11.0285
G01 X87.1222 Y-11.0164
G01 X87.1062 Y-11.0057
G01 X87.0894 Y-10.9967
G01 X87.0717 Y-10.9894
G01 X87.0534 Y-10.9838
G01 X87.0440 Y-10.9817
G01 X87.0299 Y-10.9795
G01 X87.0108 Y-10.9781
G01 X85.4060 Y-10.9780
G00 Z2.0000
G00 X86.7526 Y-19.4659
G01 F60.00
G01 Z-0.0500
G01 F120.00
G01 X86.7724 Y-19.4753
G01 X86.7808 Y-19.4798
G01 X86.8523 Y-19.5226
G01 X86.8643 Y-19.5304
G01 X86.9388 Y-19.5859
G01 X87.0112 Y-19.6514
G01 X87.0767 Y-19.7238
G01 X87.1322 Y-19.7983
G01 X87.1400 Y-19.8103
G01 X87.1828 Y-19.8818
G01 X87.1873 Y-19.8902
G01 X87.1967 Y-19.9100
G01 X87.3193 Y-19.9100
G01 X87.2682 Y-19.8004
G01 X87.1573 Y-19.6420
G01 X87.0206 Y-19.5053
G01 X86.8622 Y-19.3944
G01 X86.7526 Y-19.3433
G01 X86.7526 Y-19.4659
G00 Z2.0000
G00 X85.2959 Y-19.9100
G01 F60.00
G01 Z-0.0500
G01 F120.00
G01 X85.4185 Y-19.9100
G01 X85.4279 Y-19.8902
G01 X85.4324 Y-19.8818
G01 X85.4752 Y-19.8103
G01 X85.4830 Y-19.7983
G01 X85.5385 Y-19.7238
G01 X85.6040 Y-19.6514
G01 X85.6764 Y-19.5859
G01 X85.7509 Y-19.5304
G01 X85.7629 Y-19.5226
G01 X85.8344 Y-19.4798
G01 X85.8428 Y-19.4753
G01 X85.8626 Y-19.4659
G01 X85.8626 Y-19.3433
G01 X85.7530 Y-19.3944
G01 X85.5946 Y-19.5053
G01 X85.4579 Y-19.6420
G01 X85.3470 Y-19.8004
G01 X85.2959 Y-19.9100
G00 Z2.0000
G00 X85.2959 Y-20.8000
G01 F60.00
G01 Z-0.0500
G01 F120.00
G01 X85.3470 Y-20.9096
G01 X85.4579 Y-21.0680
G01 X85.5946 Y-21.2047
G01 X85.7530 Y-21.3156
G01 X85.8092 Y-21.3418
G01 X85.8223 Y-21.3486
G01 X85.8308 Y-21.3536
G01 X85.8429 Y-21.3619
G01 X85.8507 Y-21.3680
G01 X85.8626 Y-21.3782
G01 X85.8626 Y-21.2441
G01 X85.8428 Y-21.2347
G01 X85.8344 Y-21.2302
G01 X85.7629 Y-21.1874
G01 X85.7509 Y-21.1796
G01 X85.6764 Y-21.1241
G01 X85.6040 Y-21.0586
G01 X85.5385 Y-20.9862
G01 X85.4830 Y-20.9117
G01 X85.4752 Y-20.8997
G01 X85.4324 Y-20.8282
G01 X85.4279 Y-20.8198
G01 X85.4185 Y-20.8000
G01 X85.2959 Y-20.8000
G00 Z2.0000
G00 X85.8880 Y-21.8611
G01 F60.00
G01 Z-0.0500
G01 F120.00
G01 X85.8521 Y-21.8927
G01 X85.8373 Y-21.9039
G01 X85.8256 Y-21.9114
G01 X85.8175 Y-21.9159
G01 X85.7784 Y-21.9344
G01 X85.6200 Y-22.0453
G01 X85.4833 Y-22.1820
G01 X85.3724 Y-22.3404
G01 X85.3213 Y-22.4500
G01 X85.4439 Y-22.4500
G01 X85.4533 Y-22.4302
G01 X85.4578 Y-22.4218
G01 X85.5006 Y-22.3503
G01 X85.5084 Y-22.3383
G01 X85.5639 Y-22.2638
G01 X85.6294 Y-22.1914
G01 X85.7018 Y-22.1259
G01 X85.7763 Y-22.0704
G01 X85.7883 Y-22.0626
G01 X85.8598 Y-22.0198
G01 X85.8682 Y-22.0153
G01 X85.8880 Y-22.0059
G01 X85.8880 Y-21.8611
G00 Z2.0000
G00 X86.7780 Y-21.8718
G01 F60.00
G01 Z-0.0500
G01 F120.00
G01 X86.7780 Y-22.0059
G01 X86.7978 Y-22.0153
G01 X86.8062 Y-22.0198
G01 X86.8777 Y-22.0626
G01 X86.8897 Y-22.0704
G01 X86.9642 Y-22.1259
G01 X87.0366 Y-22.1914
G01 X87.1021 Y-22.2638
G01 X87.1576 Y-22.3383
G01 X87.1654 Y-22.3503
G01 X87.2082 Y-22.4218
G01 X87.2127 Y-22.4302
G01 X87.2221 Y-22.4500
G01 X87.3447 Y-22.4500
G01 X87.2936 Y-22.3404
G01 X87.1827 Y-22.1820
G01 X87.0460 Y-22.0453
G01 X86.8876 Y-21.9344
G01 X86.8314 Y-21.9082
G01 X86.8183 Y-21.9014
G01 X86.8098 Y-21.8964
G01 X86.7977 Y-21.8881
G01 X86.7899 Y-21.8820
G01 X86.7780 Y-21.8718
G00 Z2.0000
G00 X86.7526 Y-21.2441
G01 F60.00
G01 Z-0.0500
G01 F120.00
G01 X86.7526 Y-21.3889
G01 X86.7885 Y-21.3573
G01 X86.8033 Y-21.3461
G01 X86.8110 Y-21.3410
G01 X86.8231 Y-21.3341
G01 X86.8622 Y-21.3156
G01 X87.0206 Y-21.2047
G01 X87.1573 Y-21.0680
G01 X87.2682 Y-20.9096
G01 X87.3193 Y-20.8000
G01 X87.1967 Y-20.8000
G01 X87.1873 Y-20.8198
G01 X87.1828 Y-20.8282
G01 X87.1400 Y-20.8997
G01 X87.1322 Y-20.9117
G01 X87.0767 Y-20.9862
G01 X87.0112 Y-21.0586
G01 X86.9388 Y-21.1241
G01 X86.8643 Y-21.1796
G01 X86.8523 Y-21.1874
G01 X86.7808 Y-21.2302
G01 X86.7724 Y-21.2347
G01 X86.7526 Y-21.2441
G00 Z2.0000
G00 X85.3213 Y-23.3400
G01 F60.00
G01 Z-0.0500
G01 F120.00
G01 X85.3724 Y-23.4496
G01 X85.4833 Y-23.6080
G01 X85.6200 Y-23.7447
G01 X85.7784 Y-23.8556
G01 X85.8880 Y-23.9067
G01 X85.8880 Y-23.7841
G01 X85.8682 Y-23.7747
G01 X85.8598 Y-23.7702
G01 X85.7883 Y-23.7274
G01 X85.7763 Y-23.7196
G01 X85.7018 Y-23.6641
G01 X85.6294 Y-23.5986
G01 X85.5639 Y-23.5262
G01 X85.5084 Y-23.4517
G01 X85.5006 Y-23.4397
G01 X85.4578 Y-23.3682
G01 X85.4533 Y-23.3598
G01 X85.4439 Y-23.3400
G01 X85.3213 Y-23.3400
G00 Z2.0000
G00 X86.7780 Y-23.7841
G01 F60.00
G01 Z-0.0500
G01 F120.00
G01 X86.7780 Y-23.9067
G01 X86.8876 Y-23.8556
G01 X87.0460 Y-23.7447
G01 X87.1827 Y-23.6080
G01 X87.2936 Y-23.4496
G01 X87.3447 Y-23.3400
G01 X87.2221 Y-23.3400
G01 X87.2127 Y-23.3598
G01 X87.2082 Y-23.3682
G01 X87.1654 Y-23.4397
G01 X87.1576 Y-23.4517
G01 X87.1021 Y-23.5262
G01 X87.0366 Y-23.5986
G01 X86.9642 Y-23.6641
G01 X86.8897 Y-23.7196
G01 X86.8777 Y-23.7274
G01 X86.8062 Y-23.7702
G01 X86.7978 Y-23.7747
G01 X86.7780 Y-23.7841
G00 Z2.0000
G00 X81.5927 Y-36.2611
G01 F60.00
G01 Z-0.0500
G01 F120.00
G01 X81.5750 Y-36.2685
G01 X81.4831 Y-36.3122
G01 X81.3875 Y-36.3694
G01 X81.2981 Y-36.4358
G01 X81.2156 Y-36.5106
G01 X81.1408 Y-36.5931
G01 X81.0744 Y-36.6825
G01 X81.0172 Y-36.7781
G01 X80.9696 Y-36.8787
G01 X80.9321 Y-36.9836
G01 X80.9050 Y-37.0916
G01 X80.8887 Y-37.2018
G01 X80.8832 Y-37.3130
G01 X80.8887 Y-37.4242
G01 X80.9050 Y-37.5344
G01 X80.9321 Y-37.6424
G01 X80.9696 Y-37.7473
G01 X81.0172 Y-37.8479
G01 X81.0744 Y-37.9435
G01 X81.1408 Y-38.0329
G01 X81.2156 Y-38.1154
G01 X81.2981 Y-38.1902
G01 X81.3875 Y-38.2566
G01 X81.4831 Y-38.3138
G01 X81.5837 Y-38.3614
G01 X81.6886 Y-38.3989
G01 X81.7966 Y-38.4260
G01 X81.9068 Y-38.4423
G01 X82.0180 Y-38.4478
G01 X82.1292 Y-38.4423
G01 X82.2394 Y-38.4260
G01 X82.3474 Y-38.3989
G01 X82.4523 Y-38.3614
G01 X82.5529 Y-38.3138
G01 X82.6485 Y-38.2566
G01 X82.7379 Y-38.1902
G01 X82.8204 Y-38.1154
G01 X82.8952 Y-38.0329
G01 X82.9616 Y-37.9435
G01 X83.0188 Y-37.8479
G01 X83.0664 Y-37.7473
G01 X83.1039 Y-37.6424
G01 X83.1310 Y-37.5344
G01 X83.1473 Y-37.4242
G01 X83.1528 Y-37.3130
G01 X83.1473 Y-37.2018
G01 X83.1310 Y-37.0916
G01 X83.1039 Y-36.9836
G01 X83.0664 Y-36.8787
G01 X83.0188 Y-36.7781
G01 X82.9616 Y-36.6825
G01 X82.8952 Y-36.5931
G01 X82.8204 Y-36.5106
G01 X82.7379 Y-36.4358
G01 X82.6485 Y-36.3694
G01 X82.5529 Y-36.3122
G01 X82.4523 Y-36.2646
G01 X82.3474 Y-36.2271
G01 X82.2394 Y-36.2000
G01 X82.1292 Y-36.1837
G01 X82.0180 Y-36.1782
G01 X81.9068 Y-36.1837
G01 X81.7966 Y-36.2000
G01 X81.6886 Y-36.2271
G01 X81.5927 Y-36.2611
G00 Z2.0000
G00 X80.7684 Y-37.3130
G01 F60.00
G01 Z-0.0500
G01 F120.00
G01 X80.7855 Y-37.5187
G01 X80.8361 Y-37.7187
G01 X80.9190 Y-37.9077
G01 X81.0319 Y-38.0805
G01 X81.1717 Y-38.2323
G01 X81.3032 Y-38.3348
G01 X81.3205 Y-38.3498
G01 X81.3273 Y-38.3563
G01 X81.3369 Y-38.3666
G01 X81.3458 Y-38.3776
G01 X81.3563 Y-38.3933
G01 X81.3956 Y-38.4623
G01 X81.4039 Y-38.4797
G01 X81.4090 Y-38.4934
G01 X81.4118 Y-38.5026
G01 X81.4142 Y-38.5120
G01 X81.4168 Y-38.5263
G01 X81.4184 Y-38.5407
G01 X81.4189 Y-38.5504
G01 X81.4186 Y-38.5649
G01 X81.4157 Y-38.6214
G01 X81.5947 Y-38.8004
G01 X81.6886 Y-38.7671
G01 X81.7966 Y-38.7400
G01 X81.9068 Y-38.7237
G01 X82.0180 Y-38.7182
G01 X82.1292 Y-38.7237
G01 X82.2394 Y-38.7400
G01 X82.3474 Y-38.7671
G01 X82.4413 Y-38.8004
G01 X82.6175 Y-38.6242
G01 X82.6171 Y-38.6114
G01 X82.6174 Y-38.6017
G01 X82.6218 Y-38.5223
G01 X82.6238 Y-38.5079
G01 X82.6257 Y-38.4984
G01 X82.6310 Y-38.4798
G01 X82.6381 Y-38.4617
G01 X82.6423 Y-38.4530
G01 X82.6494 Y-38.4404
G01 X82.6575 Y-38.4283
G01 X82.7011 Y-38.3678
G01 X82.7068 Y-38.3606
G01 X82.7161 Y-38.3502
G01 X82.7227 Y-38.3437
G01 X82.7332 Y-38.3345
G01 X82.8643 Y-38.2323
G01 X83.0041 Y-38.0805
G01 X83.1170 Y-37.9077
G01 X83.1999 Y-37.7187
G01 X83.2505 Y-37.5187
G01 X83.2676 Y-37.3130
G01 X83.2505 Y-37.1073
G01 X83.1999 Y-36.9073
G01 X83.1170 Y-36.7183
G01 X83.0041 Y-36.5455
G01 X82.8643 Y-36.3937
G01 X82.7014 Y-36.2669
G01 X82.5199 Y-36.1687
G01 X82.3248 Y-36.1017
G01 X82.1212 Y-36.0677
G01 X81.9148 Y-36.0677
G01 X81.7112 Y-36.1017
G01 X81.5161 Y-36.1687
G01 X81.3346 Y-36.2669
G01 X81.1717 Y-36.3937
G01 X81.0319 Y-36.5455
G01 X80.9190 Y-36.7183
G01 X80.8361 Y-36.9073
G01 X80.7855 Y-37.1073
G01 X80.7684 Y-37.3130
G00 Z2.0000
G00 X80.8813 Y-39.3456
G01 F60.00
G01 Z-0.0500
G01 F120.00
G01 X80.8366 Y-39.4474
G01 X80.7860 Y-39.6474
G01 X80.7689 Y-39.8530
G01 X80.7860 Y-40.0586
G01 X80.8366 Y-40.2586
G01 X80.8813 Y-40.3604
G01 X80.9654 Y-40.2763
G01 X80.9321 Y-40.1824
G01 X80.9050 Y-40.0744
G01 X80.8887 Y-39.9642
G01 X80.8832 Y-39.8530
G01 X80.8887 Y-39.7418
G01 X80.9050 Y-39.6316
G01 X80.9321 Y-39.5236
G01 X80.9654 Y-39.4297
G01 X80.8813 Y-39.3456
G00 Z2.0000
G00 X81.2992 Y-41.3744
G01 F60.00
G01 Z-0.0500
G01 F120.00
G01 X81.1717 Y-41.4737
G01 X81.0319 Y-41.6255
G01 X80.9190 Y-41.7983
G01 X80.8361 Y-41.9873
G01 X80.7855 Y-42.1873
G01 X80.7684 Y-42.3930
G01 X80.7855 Y-42.5987
G01 X80.8361 Y-42.7987
G01 X80.9190 Y-42.9877
G01 X81.0319 Y-43.1605
G01 X81.1717 Y-43.3123
G01 X81.3345 Y-43.4391
G01 X81.5161 Y-43.5373
G01 X81.7112 Y-43.6043
G01 X81.9148 Y-43.6383
G01 X82.1212 Y-43.6383
G01 X82.3248 Y-43.6043
G01 X82.5199 Y-43.5373
G01 X82.7014 Y-43.4391
G01 X82.8643 Y-43.3123
G01 X83.0041 Y-43.1605
G01 X83.1170 Y-42.9877
G01 X83.1999 Y-42.7987
G01 X83.2505 Y-42.5987
G01 X83.2676 Y-42.3930
G01 X83.2505 Y-42.1873
G01 X83.1999 Y-41.9873
G01 X83.1170 Y-41.7983
G01 X83.0041 Y-41.6255
G01 X82.8643 Y-41.4737
G01 X82.7328 Y-41.3712
G01 X82.7155 Y-41.3562
G01 X82.7087 Y-41.3497
G01 X82.7022 Y-41.3429
G01 X82.6931 Y-41.3321
G01 X82.6875 Y-41.3245
G01 X82.6797 Y-41.3127
G01 X82.6404 Y-41.2437
G01 X82.6321 Y-41.2263
G01 X82.6255 Y-41.2080
G01 X82.6229 Y-41.1987
G01 X82.6199 Y-41.1845
G01 X82.6185 Y-41.1749
G01 X82.6173 Y-41.1604
G01 X82.6172 Y-41.1459
G01 X82.6203 Y-41.0846
G01 X82.4413 Y-40.9056
G01 X82.3474 Y-40.9389
G01 X82.2394 Y-40.9660
G01 X82.1292 Y-40.9823
G01 X82.0180 Y-40.9878
G01 X81.9068 Y-40.9823
G01 X81.7966 Y-40.9660
G01 X81.6886 Y-40.9389
G01 X81.5947 Y-40.9056
G01 X81.4185 Y-41.0818
G01 X81.4189 Y-41.0946
G01 X81.4186 Y-41.1043
G01 X81.4142 Y-41.1837
G01 X81.4122 Y-41.1981
G01 X81.4091 Y-41.2123
G01 X81.4050 Y-41.2262
G01 X81.4017 Y-41.2353
G01 X81.3937 Y-41.2530
G01 X81.3840 Y-41.2697
G01 X81.3377 Y-41.3344
G01 X81.3292 Y-41.3454
G01 X81.3199 Y-41.3558
G01 X81.3099 Y-41.3655
G01 X81.2992 Y-41.3744
G00 Z2.0000
G00 X83.0706 Y-40.2763
G01 F60.00
G01 Z-0.0500
G01 F120.00
G01 X83.1547 Y-40.3604
G01 X83.1994 Y-40.2586
G01 X83.2500 Y-40.0586
G01 X83.2671 Y-39.8530
G01 X83.2500 Y-39.6474
G01 X83.1994 Y-39.4474
G01 X83.1547 Y-39.3456
G01 X83.0706 Y-39.4297
G01 X83.1039 Y-39.5236
G01 X83.1310 Y-39.6316
G01 X83.1473 Y-39.7418
G01 X83.1528 Y-39.8530
G01 X83.1473 Y-39.9642
G01 X83.1310 Y-40.0744
G01 X83.1039 Y-40.1824
G01 X83.0706 Y-40.2763
G00 Z2.0000
G00 X83.1526 Y-42.4026
G01 F60.00
G01 Z-0.0500
G01 F120.00
G01 X83.1526 Y-42.3834
G01 X83.1473 Y-42.2818
G01 X83.1310 Y-42.1716
G01 X83.1039 Y-42.0636
G01 X83.0664 Y-41.9587
G01 X83.0188 Y-41.8581
G01 X82.9616 Y-41.7625
G01 X82.8952 Y-41.6731
G01 X82.8204 Y-41.5906
G01 X82.7379 Y-41.5158
G01 X82.6485 Y-41.4494
G01 X82.5529 Y-41.3922
G01 X82.4523 Y-41.3446
G01 X82.3474 Y-41.3071
G01 X82.2394 Y-41.2800
G01 X82.1292 Y-41.2637
G01 X82.0180 Y-41.2582
G01 X81.9068 Y-41.2637
G01 X81.7966 Y-41.2800
G01 X81.6886 Y-41.3071
G01 X81.5837 Y-41.3446
G01 X81.4831 Y-41.3922
G01 X81.3875 Y-41.4494
G01 X81.2981 Y-41.5158
G01 X81.2156 Y-41.5906
G01 X81.1408 Y-41.6731
G01 X81.0744 Y-41.7625
G01 X81.0172 Y-41.8581
G01 X80.9696 Y-41.9587
G01 X80.9321 Y-42.0636
G01 X80.9050 Y-42.1716
G01 X80.8887 Y-42.2818
G01 X80.8832 Y-42.3930
G01 X80.8887 Y-42.5042
G01 X80.9050 Y-42.6144
G01 X80.9321 Y-42.7224
G01 X80.9696 Y-42.8273
G01 X81.0172 Y-42.9279
G01 X81.0744 Y-43.0235
G01 X81.1408 Y-43.1129
G01 X81.2156 Y-43.1954
G01 X81.2981 Y-43.2702
G01 X81.3875 Y-43.3366
G01 X81.4831 Y-43.3938
G01 X81.5837 Y-43.4414
G01 X81.6886 Y-43.4789
G01 X81.7966 Y-43.5060
G01 X81.9068 Y-43.5223
G01 X82.0180 Y-43.5278
G01 X82.1292 Y-43.5223
G01 X82.2394 Y-43.5060
G01 X82.3474 Y-43.4789
G01 X82.4523 Y-43.4414
G01 X82.5529 Y-43.3938
G01 X82.6485 Y-43.3366
G01 X82.7379 Y-43.2702
G01 X82.8204 Y-43.1954
G01 X82.8952 Y-43.1129
G01 X82.9616 Y-43.0235
G01 X83.0188 Y-42.9279
G01 X83.0664 Y-42.8273
G01 X83.1039 Y-42.7224
G01 X83.1310 Y-42.6144
G01 X83.1473 Y-42.5042
G01 X83.1526 Y-42.4026
G00 Z2.0000
G00 X80.6526 Y-50.1526
G01 F60.00
G01 Z-0.0500
G01 F120.00
G01 X80.6526 Y-50.1334
G01 X80.6473 Y-50.0318
G01 X80.6310 Y-49.9216
G01 X80.6039 Y-49.8136
G01 X80.5664 Y-49.7087
G01 X80.5188 Y-49.6081
G01 X80.4616 Y-49.5125
G01 X80.3952 Y-49.4231
G01 X80.3204 Y-49.3406
G01 X80.2379 Y-49.2658
G01 X80.1485 Y-49.1994
G01 X80.0529 Y-49.1422
G01 X79.9523 Y-49.0946
G01 X79.8474 Y-49.0571
G01 X79.7394 Y-49.0300
G01 X79.6292 Y-49.0137
G01 X79.5180 Y-49.0082
G01 X79.4068 Y-49.0137
G01 X79.2966 Y-49.0300
G01 X79.1886 Y-49.0571
G01 X79.0837 Y-49.0946
G01 X78.9831 Y-49.1422
G01 X78.8875 Y-49.1994
G01 X78.7981 Y-49.2658
G01 X78.7156 Y-49.3406
G01 X78.6408 Y-49.4231
G01 X78.5744 Y-49.5125
G01 X78.5172 Y-49.6081
G01 X78.4696 Y-49.7087
G01 X78.4321 Y-49.8136
G01 X78.4050 Y-49.9216
G01 X78.3887 Y-50.0318
G01 X78.3832 Y-50.1430
G01 X78.3887 Y-50.2542
G01 X78.4050 Y-50.3644
G01 X78.4321 Y-50.4724
G01 X78.4696 Y-50.5773
G01 X78.5172 Y-50.6779
G01 X78.5744 Y-50.7735
G01 X78.6408 Y-50.8629
G01 X78.7156 Y-50.9454
G01 X78.7981 Y-51.0202
G01 X78.8875 Y-51.0866
G01 X78.9831 Y-51.1438
G01 X79.0837 Y-51.1914
G01 X79.1886 Y-51.2289
G01 X79.2966 Y-51.2560
G01 X79.4068 Y-51.2723
G01 X79.5180 Y-51.2778
G01 X79.6292 Y-51.2723
G01 X79.7394 Y-51.2560
G01 X79.8474 Y-51.2289
G01 X79.9523 Y-51.1914
G01 X80.0529 Y-51.1438
G01 X80.1485 Y-51.0866
G01 X80.2379 Y-51.0202
G01 X80.3204 Y-50.9454
G01 X80.3952 Y-50.8629
G01 X80.4616 Y-50.7735
G01 X80.5188 Y-50.6779
G01 X80.5664 Y-50.5773
G01 X80.6039 Y-50.4724
G01 X80.6310 Y-50.3644
G01 X80.6473 Y-50.2542
G01 X80.6526 Y-50.1526
G00 Z2.0000
G00 X78.1126 Y-50.1526
G01 F60.00
G01 Z-0.0500
G01 F120.00
G01 X78.1126 Y-50.1334
G01 X78.1073 Y-50.0318
G01 X78.0910 Y-49.9216
G01 X78.0639 Y-49.8136
G01 X78.0264 Y-49.7087
G01 X77.9788 Y-49.6081
G01 X77.9216 Y-49.5125
G01 X77.8552 Y-49.4231
G01 X77.7804 Y-49.3406
G01 X77.6979 Y-49.2658
G01 X77.6085 Y-49.1994
G01 X77.5129 Y-49.1422
G01 X77.4123 Y-49.0946
G01 X77.3074 Y-49.0571
G01 X77.1994 Y-49.0300
G01 X77.0892 Y-49.0137
G01 X76.9780 Y-49.0082
G01 X76.8668 Y-49.0137
G01 X76.7566 Y-49.0300
G01 X76.6486 Y-49.0571
G01 X76.5437 Y-49.0946
G01 X76.4431 Y-49.1422
G01 X76.3475 Y-49.1994
G01 X76.2581 Y-49.2658
G01 X76.1756 Y-49.3406
G01 X76.1008 Y-49.4231
