(G-CODE GENERATED BY FLATCAM v8.994 - www.flatcam.org - Version Date: 2020/11/7)
(Name: bms test circuit-B_Cu.gbr_1_iso_combined_cnc)
(Type: G-code from Geometry)
(Units: MM)
(Created on Wednesday, 10 July 2024 at 13:13)
(This preprocessor is the default preprocessor used by FlatCAM.)
(It is made to work with MACH3 compatible motion controllers.)
(TOOL DIAMETER: 0.39 mm)
(Feedrate_XY: 120.0 mm/min)
(Feedrate_Z: 60.0 mm/min)
(Feedrate rapids 1500.0 mm/min)
(Z_Cut: -0.05 mm)
(Z_Move: 2.0 mm)
(Z Start: None mm)
(Z End: 15.0 mm)
(X,Y End: None mm)
(Steps per circle: 64)
(Preprocessor Geometry: default)
(X range:    2.6325 ...   98.9135  mm)
(Y range:    0.9165 ...   61.1295  mm)
(Spindle Speed: 8000.0 RPM)
G21
G90
G94
G01 F120.00
M5
G00 Z15.0000
G00 X0.0000 Y0.0000
T1
G00 Z15.0000
M03 S8000.0
G01 F120.00
G00 X5.5573 Y4.5928
G01 F60.00
G01 Z-0.0500
G01 F120.00
G01 X5.6681 Y4.3773
G01 X5.8091 Y4.1802
G01 X5.9773 Y4.0057
G01 X6.1691 Y3.8576
G01 X6.3804 Y3.7390
G01 X6.6068 Y3.6524
G01 X6.8433 Y3.5998
G01 X7.0245 Y3.5865
G01 X7.2062 Y3.5865
G01 X7.4459 Y3.6218
G01 X7.6780 Y3.6916
G01 X7.8974 Y3.7945
G01 X8.0995 Y3.9282
G01 X8.2800 Y4.0899
G01 X8.4350 Y4.2762
G01 X8.5612 Y4.4830
G01 X8.6560 Y4.7060
G01 X8.7173 Y4.9405
G01 X8.7438 Y5.1814
G01 X8.7350 Y5.4235
G01 X8.6910 Y5.6619
G01 X8.6127 Y5.8912
G01 X8.5019 Y6.1067
G01 X8.3609 Y6.3038
G01 X8.1927 Y6.4783
G01 X8.0009 Y6.6264
G01 X7.7896 Y6.7450
G01 X7.5632 Y6.8316
G01 X7.3267 Y6.8842
G01 X7.1455 Y6.8975
G01 X6.9638 Y6.8975
G01 X6.7241 Y6.8622
G01 X6.4920 Y6.7924
G01 X6.2726 Y6.6895
G01 X6.0705 Y6.5558
G01 X5.8900 Y6.3941
G01 X5.7350 Y6.2078
G01 X5.6088 Y6.0010
G01 X5.5140 Y5.7780
G01 X5.4527 Y5.5435
G01 X5.4262 Y5.3026
G01 X5.4350 Y5.0605
G01 X5.4790 Y4.8221
G01 X5.5573 Y4.5928
G00 Z2.0000
G00 X5.8812 Y4.7304
G01 F60.00
G01 Z-0.0500
G01 F120.00
G01 X5.9685 Y4.5606
G01 X6.0796 Y4.4053
G01 X6.2122 Y4.2678
G01 X6.3633 Y4.1511
G01 X6.5298 Y4.0577
G01 X6.7082 Y3.9895
G01 X6.8946 Y3.9479
G01 X7.0373 Y3.9375
G01 X7.1805 Y3.9375
G01 X7.3694 Y3.9653
G01 X7.5523 Y4.0203
G01 X7.7252 Y4.1014
G01 X7.8844 Y4.2067
G01 X8.0266 Y4.3342
G01 X8.1488 Y4.4809
G01 X8.2483 Y4.6439
G01 X8.3229 Y4.8197
G01 X8.3712 Y5.0044
G01 X8.3921 Y5.1942
G01 X8.3851 Y5.3851
G01 X8.3505 Y5.5728
G01 X8.2888 Y5.7536
G01 X8.2015 Y5.9234
G01 X8.0904 Y6.0787
G01 X7.9578 Y6.2162
G01 X7.8067 Y6.3329
G01 X7.6402 Y6.4263
G01 X7.4618 Y6.4945
G01 X7.2754 Y6.5361
G01 X7.1327 Y6.5465
G01 X6.9895 Y6.5465
G01 X6.8006 Y6.5187
G01 X6.6177 Y6.4637
G01 X6.4448 Y6.3826
G01 X6.2856 Y6.2773
G01 X6.1434 Y6.1498
G01 X6.0212 Y6.0031
G01 X5.9217 Y5.8401
G01 X5.8471 Y5.6643
G01 X5.7988 Y5.4796
G01 X5.7779 Y5.2898
G01 X5.7849 Y5.0989
G01 X5.8195 Y4.9112
G01 X5.8812 Y4.7304
G00 Z2.0000
G00 X6.2051 Y4.8681
G01 F60.00
G01 Z-0.0500
G01 F120.00
G01 X6.2689 Y4.7440
G01 X6.3501 Y4.6304
G01 X6.4470 Y4.5300
G01 X6.5575 Y4.4447
G01 X6.6792 Y4.3763
G01 X6.8096 Y4.3265
G01 X6.9458 Y4.2961
G01 X7.0502 Y4.2885
G01 X7.1548 Y4.2885
G01 X7.2929 Y4.3088
G01 X7.4265 Y4.3490
G01 X7.5529 Y4.4083
G01 X7.6693 Y4.4853
G01 X7.7733 Y4.5784
G01 X7.8625 Y4.6857
G01 X7.9353 Y4.8049
G01 X7.9898 Y4.9333
G01 X8.0251 Y5.0683
G01 X8.0404 Y5.2071
G01 X8.0353 Y5.3466
G01 X8.0100 Y5.4838
G01 X7.9649 Y5.6159
G01 X7.9011 Y5.7400
G01 X7.8199 Y5.8536
G01 X7.7230 Y5.9540
G01 X7.6125 Y6.0393
G01 X7.4908 Y6.1077
G01 X7.3604 Y6.1575
G01 X7.2242 Y6.1879
G01 X7.1199 Y6.1955
G01 X7.0152 Y6.1955
G01 X6.8771 Y6.1752
G01 X6.7435 Y6.1350
G01 X6.6171 Y6.0757
G01 X6.5007 Y5.9987
G01 X6.3967 Y5.9056
G01 X6.3075 Y5.7983
G01 X6.2347 Y5.6791
G01 X6.1802 Y5.5507
G01 X6.1449 Y5.4157
G01 X6.1296 Y5.2769
G01 X6.1347 Y5.1374
G01 X6.1600 Y5.0002
G01 X6.2051 Y4.8681
G00 Z2.0000
G00 X16.1400 Y8.4380
G01 F60.00
G01 Z-0.0500
G01 F120.00
G01 X16.1591 Y8.4389
G01 X16.1780 Y8.4417
G01 X16.1966 Y8.4464
G01 X16.2146 Y8.4528
G01 X16.2319 Y8.4610
G01 X16.2483 Y8.4709
G01 X16.2637 Y8.4823
G01 X16.2745 Y8.4918
G01 X16.2845 Y8.5020
G01 X16.2966 Y8.5168
G01 X16.3073 Y8.5328
G01 X16.3163 Y8.5496
G01 X16.3236 Y8.5673
G01 X16.3279 Y8.5810
G01 X16.3321 Y8.5997
G01 X16.3345 Y8.6187
G01 X16.3350 Y8.6330
G01 X16.3349 Y10.2378
G01 X16.3335 Y10.2569
G01 X16.3313 Y10.2710
G01 X16.3266 Y10.2896
G01 X16.3202 Y10.3076
G01 X16.3120 Y10.3249
G01 X16.3047 Y10.3373
G01 X16.2937 Y10.3530
G01 X16.2845 Y10.3640
G01 X16.2710 Y10.3775
G01 X16.2562 Y10.3896
G01 X16.2402 Y10.4003
G01 X16.2277 Y10.4072
G01 X16.2190 Y10.4113
G01 X16.2012 Y10.4182
G01 X16.1827 Y10.4233
G01 X16.1639 Y10.4265
G01 X16.1496 Y10.4278
G01 X16.1400 Y10.4280
G01 X14.5352 Y10.4279
G01 X14.5161 Y10.4265
G01 X14.4973 Y10.4233
G01 X14.4788 Y10.4182
G01 X14.4654 Y10.4132
G01 X14.4523 Y10.4072
G01 X14.4357 Y10.3977
G01 X14.4238 Y10.3896
G01 X14.4090 Y10.3775
G01 X14.3955 Y10.3640
G01 X14.3834 Y10.3492
G01 X14.3727 Y10.3332
G01 X14.3658 Y10.3207
G01 X14.3617 Y10.3120
G01 X14.3548 Y10.2942
G01 X14.3521 Y10.2850
G01 X14.3487 Y10.2710
G01 X14.3459 Y10.2521
G01 X14.3450 Y10.2330
G01 X14.3451 Y8.6282
G01 X14.3465 Y8.6091
G01 X14.3487 Y8.5950
G01 X14.3521 Y8.5810
G01 X14.3581 Y8.5628
G01 X14.3658 Y8.5453
G01 X14.3753 Y8.5287
G01 X14.3834 Y8.5168
G01 X14.3955 Y8.5020
G01 X14.4090 Y8.4885
G01 X14.4238 Y8.4764
G01 X14.4398 Y8.4657
G01 X14.4566 Y8.4567
G01 X14.4743 Y8.4494
G01 X14.4880 Y8.4451
G01 X14.4973 Y8.4427
G01 X14.5161 Y8.4395
G01 X14.5352 Y8.4381
G01 X16.1400 Y8.4380
G00 Z2.0000
G00 X16.1400 Y10.9780
G01 F60.00
G01 Z-0.0500
G01 F120.00
G01 X16.1591 Y10.9789
G01 X16.1780 Y10.9817
G01 X16.1966 Y10.9864
G01 X16.2146 Y10.9928
G01 X16.2319 Y11.0010
G01 X16.2483 Y11.0109
G01 X16.2637 Y11.0223
G01 X16.2745 Y11.0318
G01 X16.2845 Y11.0420
G01 X16.2966 Y11.0568
G01 X16.3073 Y11.0728
G01 X16.3163 Y11.0896
G01 X16.3236 Y11.1073
G01 X16.3279 Y11.1210
G01 X16.3321 Y11.1397
G01 X16.3345 Y11.1587
G01 X16.3350 Y11.1730
G01 X16.3349 Y12.7778
G01 X16.3335 Y12.7969
G01 X16.3313 Y12.8110
G01 X16.3266 Y12.8296
G01 X16.3202 Y12.8476
G01 X16.3120 Y12.8649
G01 X16.3047 Y12.8773
G01 X16.2937 Y12.8930
G01 X16.2845 Y12.9040
G01 X16.2710 Y12.9175
G01 X16.2562 Y12.9296
G01 X16.2402 Y12.9403
G01 X16.2277 Y12.9472
G01 X16.2190 Y12.9513
G01 X16.2012 Y12.9582
G01 X16.1827 Y12.9633
G01 X16.1639 Y12.9665
G01 X16.1496 Y12.9678
G01 X16.1400 Y12.9680
G01 X14.5352 Y12.9679
G01 X14.5161 Y12.9665
G01 X14.4973 Y12.9633
G01 X14.4788 Y12.9582
G01 X14.4654 Y12.9532
G01 X14.4523 Y12.9472
G01 X14.4357 Y12.9377
G01 X14.4238 Y12.9296
G01 X14.4090 Y12.9175
G01 X14.3955 Y12.9040
G01 X14.3834 Y12.8892
G01 X14.3727 Y12.8732
G01 X14.3658 Y12.8607
G01 X14.3617 Y12.8520
G01 X14.3548 Y12.8342
G01 X14.3521 Y12.8250
G01 X14.3487 Y12.8110
G01 X14.3459 Y12.7921
G01 X14.3450 Y12.7730
G01 X14.3451 Y11.1682
G01 X14.3465 Y11.1491
G01 X14.3487 Y11.1350
G01 X14.3521 Y11.1210
G01 X14.3581 Y11.1028
G01 X14.3658 Y11.0853
G01 X14.3753 Y11.0687
G01 X14.3834 Y11.0568
G01 X14.3955 Y11.0420
G01 X14.4090 Y11.0285
G01 X14.4238 Y11.0164
G01 X14.4398 Y11.0057
G01 X14.4566 Y10.9967
G01 X14.4743 Y10.9894
G01 X14.4880 Y10.9851
G01 X14.4973 Y10.9827
G01 X14.5161 Y10.9795
G01 X14.5352 Y10.9781
G01 X16.1400 Y10.9780
G00 Z2.0000
G00 X14.2691 Y12.9209
G01 F60.00
G01 Z-0.0500
G01 F120.00
G01 X14.2372 Y12.8353
G01 X14.2345 Y12.8104
G01 X14.2345 Y11.1356
G01 X14.2372 Y11.1107
G01 X14.2691 Y11.0251
G01 X14.3220 Y10.9544
G01 X14.3411 Y10.9381
G01 X14.3513 Y10.9286
G01 X14.3608 Y10.9184
G01 X14.3695 Y10.9075
G01 X14.3749 Y10.9000
G01 X14.3823 Y10.8882
G01 X14.4203 Y10.8185
G01 X14.4283 Y10.8009
G01 X14.4332 Y10.7872
G01 X14.4358 Y10.7779
G01 X14.4389 Y10.7637
G01 X14.4403 Y10.7541
G01 X14.4417 Y10.7396
G01 X14.4419 Y10.7300
G01 X14.4414 Y10.7154
G01 X14.4364 Y10.6458
G01 X14.4349 Y10.6313
G01 X14.4322 Y10.6170
G01 X14.4285 Y10.6030
G01 X14.4255 Y10.5938
G01 X14.4201 Y10.5803
G01 X14.4113 Y10.5630
G01 X14.4037 Y10.5507
G01 X14.3562 Y10.4869
G01 X14.3504 Y10.4796
G01 X14.3412 Y10.4692
G01 X14.3312 Y10.4594
G01 X14.3220 Y10.4516
G01 X14.2691 Y10.3809
G01 X14.2372 Y10.2953
G01 X14.2345 Y10.2704
G01 X14.2345 Y8.5956
G01 X14.2372 Y8.5707
G01 X14.2691 Y8.4851
G01 X14.3218 Y8.4148
G01 X14.3921 Y8.3621
G01 X14.4777 Y8.3302
G01 X14.5026 Y8.3275
G01 X16.1774 Y8.3275
G01 X16.2023 Y8.3302
G01 X16.2879 Y8.3621
G01 X16.3582 Y8.4148
G01 X16.4109 Y8.4851
G01 X16.4428 Y8.5707
G01 X16.4455 Y8.5956
G01 X16.4455 Y10.2704
G01 X16.4428 Y10.2953
G01 X16.4109 Y10.3809
G01 X16.3580 Y10.4516
G01 X16.3389 Y10.4679
G01 X16.3287 Y10.4774
G01 X16.3192 Y10.4876
G01 X16.3105 Y10.4985
G01 X16.3051 Y10.5060
G01 X16.2977 Y10.5178
G01 X16.2597 Y10.5875
G01 X16.2554 Y10.5962
G01 X16.2500 Y10.6096
G01 X16.2442 Y10.6281
G01 X16.2420 Y10.6376
G01 X16.2397 Y10.6519
G01 X16.2387 Y10.6615
G01 X16.2381 Y10.6760
G01 X16.2386 Y10.6905
G01 X16.2436 Y10.7602
G01 X16.2451 Y10.7747
G01 X16.2468 Y10.7842
G01 X16.2501 Y10.7984
G01 X16.2545 Y10.8122
G01 X16.2599 Y10.8257
G01 X16.2687 Y10.8430
G01 X16.2763 Y10.8553
G01 X16.3238 Y10.9191
G01 X16.3326 Y10.9300
G01 X16.3388 Y10.9368
G01 X16.3488 Y10.9466
G01 X16.3580 Y10.9544
G01 X16.4109 Y11.0251
G01 X16.4428 Y11.1107
G01 X16.4455 Y11.1356
G01 X16.4455 Y12.8104
G01 X16.4428 Y12.8353
G01 X16.4109 Y12.9209
G01 X16.3582 Y12.9912
G01 X16.2879 Y13.0439
G01 X16.2023 Y13.0758
G01 X16.1774 Y13.0785
G01 X14.5026 Y13.0785
G01 X14.4777 Y13.0758
G01 X14.3921 Y13.0439
G01 X14.3218 Y12.9912
G01 X14.2691 Y12.9209
G00 Z2.0000
G00 X15.6834 Y19.4659
G01 F60.00
G01 Z-0.0500
G01 F120.00
G01 X15.6834 Y19.3433
G01 X15.7930 Y19.3944
G01 X15.9514 Y19.5053
G01 X16.0881 Y19.6420
G01 X16.1990 Y19.8004
G01 X16.2501 Y19.9100
G01 X16.1275 Y19.9100
G01 X16.1181 Y19.8902
G01 X16.1136 Y19.8818
G01 X16.0708 Y19.8103
G01 X16.0630 Y19.7983
G01 X16.0075 Y19.7238
G01 X15.9420 Y19.6514
G01 X15.8696 Y19.5859
G01 X15.7951 Y19.5304
G01 X15.7831 Y19.5226
G01 X15.7116 Y19.4798
G01 X15.7032 Y19.4753
G01 X15.6834 Y19.4659
G00 Z2.0000
G00 X14.2267 Y19.9100
G01 F60.00
G01 Z-0.0500
G01 F120.00
G01 X14.2778 Y19.8004
G01 X14.3887 Y19.6420
G01 X14.5254 Y19.5053
G01 X14.6838 Y19.3944
G01 X14.7934 Y19.3433
G01 X14.7934 Y19.4659
G01 X14.7736 Y19.4753
G01 X14.7652 Y19.4798
G01 X14.6937 Y19.5226
G01 X14.6817 Y19.5304
G01 X14.6072 Y19.5859
G01 X14.5348 Y19.6514
G01 X14.4693 Y19.7238
G01 X14.4138 Y19.7983
G01 X14.4060 Y19.8103
G01 X14.3632 Y19.8818
G01 X14.3587 Y19.8902
G01 X14.3493 Y19.9100
G01 X14.2267 Y19.9100
G00 Z2.0000
G00 X14.7934 Y21.3889
G01 F60.00
G01 Z-0.0500
G01 F120.00
G01 X14.7575 Y21.3573
G01 X14.7427 Y21.3461
G01 X14.7350 Y21.3410
G01 X14.7229 Y21.3341
G01 X14.6838 Y21.3156
G01 X14.5254 Y21.2047
G01 X14.3887 Y21.0680
G01 X14.2778 Y20.9096
G01 X14.2267 Y20.8000
G01 X14.3493 Y20.8000
G01 X14.3587 Y20.8198
G01 X14.3632 Y20.8282
G01 X14.4060 Y20.8997
G01 X14.4138 Y20.9117
G01 X14.4693 Y20.9862
G01 X14.5348 Y21.0586
G01 X14.6072 Y21.1241
G01 X14.6817 Y21.1796
G01 X14.6937 Y21.1874
G01 X14.7652 Y21.2302
G01 X14.7736 Y21.2347
G01 X14.7934 Y21.2441
G01 X14.7934 Y21.3889
G00 Z2.0000
G00 X15.6834 Y21.3782
G01 F60.00
G01 Z-0.0500
G01 F120.00
G01 X15.6834 Y21.2441
G01 X15.7032 Y21.2347
G01 X15.7116 Y21.2302
G01 X15.7831 Y21.1874
G01 X15.7951 Y21.1796
G01 X15.8696 Y21.1241
G01 X15.9420 Y21.0586
G01 X16.0075 Y20.9862
G01 X16.0630 Y20.9117
G01 X16.0708 Y20.8997
G01 X16.1136 Y20.8282
G01 X16.1181 Y20.8198
G01 X16.1275 Y20.8000
G01 X16.2501 Y20.8000
G01 X16.1990 Y20.9096
G01 X16.0881 Y21.0680
G01 X15.9514 Y21.2047
G01 X15.7930 Y21.3156
G01 X15.7368 Y21.3418
G01 X15.7237 Y21.3486
G01 X15.7111 Y21.3563
G01 X15.7031 Y21.3619
G01 X15.6953 Y21.3680
G01 X15.6834 Y21.3782
G00 Z2.0000
G00 X15.6580 Y22.0059
G01 F60.00
G01 Z-0.0500
G01 F120.00
G01 X15.6580 Y21.8611
G01 X15.6939 Y21.8927
G01 X15.7087 Y21.9039
G01 X15.7164 Y21.9090
G01 X15.7285 Y21.9159
G01 X15.7676 Y21.9344
G01 X15.9260 Y22.0453
G01 X16.0627 Y22.1820
G01 X16.1736 Y22.3404
G01 X16.2247 Y22.4500
G01 X16.1021 Y22.4500
G01 X16.0927 Y22.4302
G01 X16.0882 Y22.4218
G01 X16.0454 Y22.3503
G01 X16.0376 Y22.3383
G01 X15.9821 Y22.2638
G01 X15.9166 Y22.1914
G01 X15.8442 Y22.1259
G01 X15.7697 Y22.0704
G01 X15.7577 Y22.0626
G01 X15.6862 Y22.0198
G01 X15.6778 Y22.0153
G01 X15.6580 Y22.0059
G00 Z2.0000
G00 X14.2013 Y22.4500
G01 F60.00
G01 Z-0.0500
G01 F120.00
G01 X14.2524 Y22.3404
G01 X14.3633 Y22.1820
G01 X14.5000 Y22.0453
G01 X14.6584 Y21.9344
G01 X14.7146 Y21.9082
G01 X14.7277 Y21.9014
G01 X14.7362 Y21.8964
G01 X14.7483 Y21.8881
G01 X14.7561 Y21.8820
G01 X14.7680 Y21.8718
G01 X14.7680 Y22.0059
G01 X14.7482 Y22.0153
G01 X14.7398 Y22.0198
G01 X14.6683 Y22.0626
G01 X14.6563 Y22.0704
G01 X14.5818 Y22.1259
G01 X14.5094 Y22.1914
G01 X14.4439 Y22.2638
G01 X14.3884 Y22.3383
G01 X14.3806 Y22.3503
G01 X14.3378 Y22.4218
G01 X14.3333 Y22.4302
G01 X14.3239 Y22.4500
G01 X14.2013 Y22.4500
G00 Z2.0000
G00 X14.2013 Y23.3400
G01 F60.00
G01 Z-0.0500
G01 F120.00
G01 X14.3239 Y23.3400
G01 X14.3333 Y23.3598
G01 X14.3378 Y23.3682
G01 X14.3806 Y23.4397
G01 X14.3884 Y23.4517
G01 X14.4439 Y23.5262
G01 X14.5094 Y23.5986
G01 X14.5818 Y23.6641
G01 X14.6563 Y23.7196
G01 X14.6683 Y23.7274
G01 X14.7398 Y23.7702
G01 X14.7482 Y23.7747
G01 X14.7680 Y23.7841
G01 X14.7680 Y23.9067
G01 X14.6584 Y23.8556
G01 X14.5000 Y23.7447
G01 X14.3633 Y23.6080
G01 X14.2524 Y23.4496
G01 X14.2013 Y23.3400
G00 Z2.0000
G00 X15.6580 Y23.7841
G01 F60.00
G01 Z-0.0500
G01 F120.00
G01 X15.6778 Y23.7747
G01 X15.6862 Y23.7702
G01 X15.7577 Y23.7274
G01 X15.7697 Y23.7196
G01 X15.8442 Y23.6641
G01 X15.9166 Y23.5986
G01 X15.9821 Y23.5262
G01 X16.0376 Y23.4517
G01 X16.0454 Y23.4397
G01 X16.0882 Y23.3682
G01 X16.0927 Y23.3598
G01 X16.1021 Y23.3400
G01 X16.2247 Y23.3400
G01 X16.1736 Y23.4496
G01 X16.0627 Y23.6080
G01 X15.9260 Y23.7447
G01 X15.7676 Y23.8556
G01 X15.6580 Y23.9067
G01 X15.6580 Y23.7841
G00 Z2.0000
G00 X19.9533 Y36.2611
G01 F60.00
G01 Z-0.0500
G01 F120.00
G01 X19.9710 Y36.2685
G01 X20.0629 Y36.3122
G01 X20.1585 Y36.3694
G01 X20.2479 Y36.4358
G01 X20.3304 Y36.5106
G01 X20.4052 Y36.5931
G01 X20.4716 Y36.6825
G01 X20.5288 Y36.7781
G01 X20.5764 Y36.8787
G01 X20.6139 Y36.9836
G01 X20.6410 Y37.0916
G01 X20.6573 Y37.2018
G01 X20.6628 Y37.3130
G01 X20.6573 Y37.4242
G01 X20.6410 Y37.5344
G01 X20.6139 Y37.6424
G01 X20.5764 Y37.7473
G01 X20.5288 Y37.8479
G01 X20.4716 Y37.9435
G01 X20.4052 Y38.0329
G01 X20.3304 Y38.1154
G01 X20.2479 Y38.1902
G01 X20.1585 Y38.2566
G01 X20.0629 Y38.3138
G01 X19.9623 Y38.3614
G01 X19.8574 Y38.3989
G01 X19.7494 Y38.4260
G01 X19.6392 Y38.4423
G01 X19.5280 Y38.4478
G01 X19.4168 Y38.4423
G01 X19.3066 Y38.4260
G01 X19.1986 Y38.3989
G01 X19.0937 Y38.3614
G01 X18.9931 Y38.3138
G01 X18.8975 Y38.2566
G01 X18.8081 Y38.1902
G01 X18.7256 Y38.1154
G01 X18.6508 Y38.0329
G01 X18.5844 Y37.9435
G01 X18.5272 Y37.8479
G01 X18.4796 Y37.7473
G01 X18.4421 Y37.6424
G01 X18.4150 Y37.5344
G01 X18.3987 Y37.4242
G01 X18.3932 Y37.3130
G01 X18.3987 Y37.2018
G01 X18.4150 Y37.0916
G01 X18.4421 Y36.9836
G01 X18.4796 Y36.8787
G01 X18.5272 Y36.7781
G01 X18.5844 Y36.6825
G01 X18.6508 Y36.5931
G01 X18.7256 Y36.5106
G01 X18.8081 Y36.4358
G01 X18.8975 Y36.3694
G01 X18.9931 Y36.3122
G01 X19.0937 Y36.2646
G01 X19.1986 Y36.2271
G01 X19.3066 Y36.2000
G01 X19.4168 Y36.1837
G01 X19.5280 Y36.1782
G01 X19.6392 Y36.1837
G01 X19.7494 Y36.2000
G01 X19.8574 Y36.2271
G01 X19.9533 Y36.2611
G00 Z2.0000
G00 X18.9285 Y38.6242
G01 F60.00
G01 Z-0.0500
G01 F120.00
G01 X18.9288 Y38.6065
G01 X18.9250 Y38.5319
G01 X18.9237 Y38.5175
G01 X18.9222 Y38.5079
G01 X18.9179 Y38.4890
G01 X18.9117 Y38.4707
G01 X18.9037 Y38.4530
G01 X18.8940 Y38.4363
G01 X18.8449 Y38.3678
G01 X18.8362 Y38.3570
G01 X18.8266 Y38.3469
G01 X18.8199 Y38.3405
G01 X18.8092 Y38.3316
G01 X18.6817 Y38.2323
G01 X18.5419 Y38.0805
G01 X18.4290 Y37.9077
G01 X18.3461 Y37.7187
G01 X18.2955 Y37.5187
G01 X18.2784 Y37.3130
G01 X18.2955 Y37.1073
G01 X18.3461 Y36.9073
G01 X18.4290 Y36.7183
G01 X18.5419 Y36.5455
G01 X18.6817 Y36.3937
G01 X18.8446 Y36.2669
G01 X19.0261 Y36.1687
G01 X19.2212 Y36.1017
G01 X19.4248 Y36.0677
G01 X19.6312 Y36.0677
G01 X19.8348 Y36.1017
G01 X20.0299 Y36.1687
G01 X20.2114 Y36.2669
G01 X20.3743 Y36.3937
G01 X20.5141 Y36.5455
G01 X20.6270 Y36.7183
G01 X20.7099 Y36.9073
G01 X20.7605 Y37.1073
G01 X20.7776 Y37.3130
G01 X20.7605 Y37.5187
G01 X20.7099 Y37.7187
G01 X20.6270 Y37.9077
G01 X20.5141 Y38.0805
G01 X20.3743 Y38.2323
G01 X20.2428 Y38.3348
G01 X20.2255 Y38.3498
G01 X20.2187 Y38.3563
G01 X20.2091 Y38.3666
G01 X20.2002 Y38.3776
G01 X20.1897 Y38.3933
G01 X20.1504 Y38.4623
G01 X20.1421 Y38.4797
G01 X20.1370 Y38.4934
G01 X20.1342 Y38.5026
G01 X20.1318 Y38.5120
G01 X20.1292 Y38.5263
G01 X20.1276 Y38.5407
G01 X20.1271 Y38.5504
G01 X20.1274 Y38.5649
G01 X20.1303 Y38.6214
G01 X19.9513 Y38.8004
G01 X19.8574 Y38.7671
G01 X19.7494 Y38.7400
G01 X19.6392 Y38.7237
G01 X19.5280 Y38.7182
G01 X19.4168 Y38.7237
G01 X19.3066 Y38.7400
G01 X19.1986 Y38.7671
G01 X19.1047 Y38.8004
G01 X18.9285 Y38.6242
G00 Z2.0000
G00 X18.3913 Y40.3604
G01 F60.00
G01 Z-0.0500
G01 F120.00
G01 X18.3466 Y40.2586
G01 X18.2960 Y40.0586
G01 X18.2789 Y39.8530
G01 X18.2960 Y39.6474
G01 X18.3466 Y39.4474
G01 X18.3913 Y39.3456
G01 X18.4754 Y39.4297
G01 X18.4421 Y39.5236
G01 X18.4150 Y39.6316
G01 X18.3987 Y39.7418
G01 X18.3932 Y39.8530
G01 X18.3987 Y39.9642
G01 X18.4150 Y40.0744
G01 X18.4421 Y40.1824
G01 X18.4754 Y40.2763
G01 X18.3913 Y40.3604
G00 Z2.0000
G00 X18.9257 Y41.0846
G01 F60.00
G01 Z-0.0500
G01 F120.00
G01 X19.1047 Y40.9056
G01 X19.1986 Y40.9389
G01 X19.3066 Y40.9660
G01 X19.4168 Y40.9823
G01 X19.5280 Y40.9878
G01 X19.6392 Y40.9823
G01 X19.7494 Y40.9660
G01 X19.8574 Y40.9389
G01 X19.9513 Y40.9056
G01 X20.1275 Y41.0818
G01 X20.1271 Y41.0946
G01 X20.1274 Y41.1043
G01 X20.1318 Y41.1837
G01 X20.1330 Y41.1933
G01 X20.1357 Y41.2076
G01 X20.1410 Y41.2262
G01 X20.1481 Y41.2443
G01 X20.1546 Y41.2573
G01 X20.1594 Y41.2656
G01 X20.1675 Y41.2777
G01 X20.2111 Y41.3382
G01 X20.2168 Y41.3454
G01 X20.2261 Y41.3558
G01 X20.2361 Y41.3655
G01 X20.2432 Y41.3715
G01 X20.3743 Y41.4737
G01 X20.5141 Y41.6255
G01 X20.6270 Y41.7983
G01 X20.7099 Y41.9873
G01 X20.7605 Y42.1873
G01 X20.7776 Y42.3930
G01 X20.7605 Y42.5987
G01 X20.7099 Y42.7987
G01 X20.6270 Y42.9877
G01 X20.5141 Y43.1605
G01 X20.3743 Y43.3123
G01 X20.2115 Y43.4391
G01 X20.0299 Y43.5373
G01 X19.8348 Y43.6043
G01 X19.6312 Y43.6383
G01 X19.4248 Y43.6383
G01 X19.2212 Y43.6043
G01 X19.0261 Y43.5373
G01 X18.8446 Y43.4391
G01 X18.6817 Y43.3123
G01 X18.5419 Y43.1605
G01 X18.4290 Y42.9877
G01 X18.3461 Y42.7987
G01 X18.2955 Y42.5987
G01 X18.2784 Y42.3930
G01 X18.2955 Y42.1873
G01 X18.3461 Y41.9873
G01 X18.4290 Y41.7983
G01 X18.5419 Y41.6255
G01 X18.6817 Y41.4737
G01 X18.8092 Y41.3744
G01 X18.8171 Y41.3679
G01 X18.8339 Y41.3530
G01 X18.8438 Y41.3429
G01 X18.8529 Y41.3321
G01 X18.8638 Y41.3167
G01 X18.9079 Y41.2394
G01 X18.9157 Y41.2218
G01 X18.9218 Y41.2034
G01 X18.9242 Y41.1940
G01 X18.9268 Y41.1797
G01 X18.9280 Y41.1701
G01 X18.9289 Y41.1556
G01 X18.9286 Y41.1411
G01 X18.9257 Y41.0846
G00 Z2.0000
G00 X18.3934 Y42.4026
G01 F60.00
G01 Z-0.0500
G01 F120.00
G01 X18.3934 Y42.3834
G01 X18.3987 Y42.2818
G01 X18.4150 Y42.1716
G01 X18.4421 Y42.0636
G01 X18.4796 Y41.9587
G01 X18.5272 Y41.8581
G01 X18.5844 Y41.7625
G01 X18.6508 Y41.6731
G01 X18.7256 Y41.5906
G01 X18.8081 Y41.5158
G01 X18.8975 Y41.4494
G01 X18.9931 Y41.3922
G01 X19.0937 Y41.3446
G01 X19.1986 Y41.3071
G01 X19.3066 Y41.2800
G01 X19.4168 Y41.2637
G01 X19.5280 Y41.2582
G01 X19.6392 Y41.2637
G01 X19.7494 Y41.2800
G01 X19.8574 Y41.3071
G01 X19.9623 Y41.3446
G01 X20.0629 Y41.3922
G01 X20.1585 Y41.4494
G01 X20.2479 Y41.5158
G01 X20.3304 Y41.5906
G01 X20.4052 Y41.6731
G01 X20.4716 Y41.7625
G01 X20.5288 Y41.8581
G01 X20.5764 Y41.9587
G01 X20.6139 Y42.0636
G01 X20.6410 Y42.1716
G01 X20.6573 Y42.2818
G01 X20.6628 Y42.3930
G01 X20.6573 Y42.5042
G01 X20.6410 Y42.6144
G01 X20.6139 Y42.7224
G01 X20.5764 Y42.8273
G01 X20.5288 Y42.9279
G01 X20.4716 Y43.0235
G01 X20.4052 Y43.1129
G01 X20.3304 Y43.1954
G01 X20.2479 Y43.2702
G01 X20.1585 Y43.3366
G01 X20.0629 Y43.3938
G01 X19.9623 Y43.4414
G01 X19.8574 Y43.4789
G01 X19.7494 Y43.5060
G01 X19.6392 Y43.5223
G01 X19.5280 Y43.5278
G01 X19.4168 Y43.5223
G01 X19.3066 Y43.5060
G01 X19.1986 Y43.4789
G01 X19.0937 Y43.4414
G01 X18.9931 Y43.3938
G01 X18.8975 Y43.3366
G01 X18.8081 Y43.2702
G01 X18.7256 Y43.1954
G01 X18.6508 Y43.1129
G01 X18.5844 Y43.0235
G01 X18.5272 Y42.9279
G01 X18.4796 Y42.8273
G01 X18.4421 Y42.7224
G01 X18.4150 Y42.6144
G01 X18.3987 Y42.5042
G01 X18.3934 Y42.4026
G00 Z2.0000
G00 X20.5806 Y39.4297
G01 F60.00
G01 Z-0.0500
G01 F120.00
G01 X20.6647 Y39.3456
G01 X20.7094 Y39.4474
G01 X20.7600 Y39.6474
G01 X20.7771 Y39.8530
G01 X20.7600 Y40.0586
G01 X20.7094 Y40.2586
G01 X20.6647 Y40.3604
G01 X20.5806 Y40.2763
G01 X20.6139 Y40.1824
G01 X20.6410 Y40.0744
G01 X20.6573 Y39.9642
G01 X20.6628 Y39.8530
G01 X20.6573 Y39.7418
G01 X20.6410 Y39.6316
G01 X20.6139 Y39.5236
G01 X20.5806 Y39.4297
G00 Z2.0000
G00 X20.8934 Y50.1526
G01 F60.00
G01 Z-0.0500
G01 F120.00
G01 X20.8934 Y50.1334
G01 X20.8987 Y50.0318
G01 X20.9150 Y49.9216
G01 X20.9421 Y49.8136
G01 X20.9796 Y49.7087
G01 X21.0272 Y49.6081
G01 X21.0844 Y49.5125
G01 X21.1508 Y49.4231
G01 X21.2256 Y49.3406
G01 X21.3081 Y49.2658
G01 X21.3975 Y49.1994
G01 X21.4931 Y49.1422
G01 X21.5937 Y49.0946
G01 X21.6986 Y49.0571
G01 X21.8066 Y49.0300
G01 X21.9168 Y49.0137
G01 X22.0280 Y49.0082
G01 X22.1392 Y49.0137
G01 X22.2494 Y49.0300
G01 X22.3574 Y49.0571
G01 X22.4623 Y49.0946
G01 X22.5629 Y49.1422
G01 X22.6585 Y49.1994
G01 X22.7479 Y49.2658
G01 X22.8304 Y49.3406
G01 X22.9052 Y49.4231
G01 X22.9716 Y49.5125
G01 X23.0288 Y49.6081
G01 X23.0764 Y49.7087
G01 X23.1139 Y49.8136
G01 X23.1410 Y49.9216
G01 X23.1573 Y50.0318
G01 X23.1628 Y50.1430
G01 X23.1573 Y50.2542
G01 X23.1410 Y50.3644
G01 X23.1139 Y50.4724
G01 X23.0764 Y50.5773
G01 X23.0288 Y50.6779
G01 X22.9716 Y50.7735
G01 X22.9052 Y50.8629
G01 X22.8304 Y50.9454
G01 X22.7479 Y51.0202
G01 X22.6585 Y51.0866
G01 X22.5629 Y51.1438
G01 X22.4623 Y51.1914
G01 X22.3574 Y51.2289
G01 X22.2494 Y51.2560
G01 X22.1392 Y51.2723
G01 X22.0280 Y51.2778
G01 X21.9168 Y51.2723
G01 X21.8066 Y51.2560
G01 X21.6986 Y51.2289
G01 X21.5937 Y51.1914
G01 X21.4931 Y51.1438
G01 X21.3975 Y51.0866
G01 X21.3081 Y51.0202
G01 X21.2256 Y50.9454
G01 X21.1508 Y50.8629
G01 X21.0844 Y50.7735
G01 X21.0272 Y50.6779
G01 X20.9796 Y50.5773
G01 X20.9421 Y50.4724
G01 X20.9150 Y50.3644
G01 X20.8987 Y50.2542
G01 X20.8934 Y50.1526
G00 Z2.0000
G00 X23.4334 Y50.1526
G01 F60.00
G01 Z-0.0500
G01 F120.00
G01 X23.4334 Y50.1334
G01 X23.4387 Y50.0318
G01 X23.4550 Y49.9216
G01 X23.4821 Y49.8136
G01 X23.5196 Y49.7087
G01 X23.5672 Y49.6081
G01 X23.6244 Y49.5125
G01 X23.6908 Y49.4231
G01 X23.7656 Y49.3406
G01 X23.8481 Y49.2658
G01 X23.9375 Y49.1994
G01 X24.0331 Y49.1422
G01 X24.1337 Y49.0946
G01 X24.2386 Y49.0571
G01 X24.3466 Y49.0300
G01 X24.4568 Y49.0137
G01 X24.5680 Y49.0082
G01 X24.6792 Y49.0137
G01 X24.7894 Y49.0300
G01 X24.8974 Y49.0571
G01 X25.0023 Y49.0946
G01 X25.1029 Y49.1422
G01 X25.1985 Y49.1994
G01 X25.2879 Y49.2658
G01 X25.3704 Y49.3406
G01 X25.4452 Y49.4231
G01 X25.5116 Y49.5125
G01 X25.5688 Y49.6081
G01 X25.6164 Y49.7087
G01 X25.6539 Y49.8136
G01 X25.6810 Y49.9216
G01 X25.6973 Y50.0318
G01 X25.7028 Y50.1430
G01 X25.6973 Y50.2542
G01 X25.6810 Y50.3644
G01 X25.6539 Y50.4724
G01 X25.6164 Y50.5773
G01 X25.5688 Y50.6779
G01 X25.5116 Y50.7735
G01 X25.4452 Y50.8629
G01 X25.3704 Y50.9454
G01 X25.2879 Y51.0202
G01 X25.1985 Y51.0866
G01 X25.1029 Y51.1438
G01 X25.0023 Y51.1914
G01 X24.8974 Y51.2289
G01 X24.7894 Y51.2560
G01 X24.6792 Y51.2723
G01 X24.5680 Y51.2778
G01 X24.4568 Y51.2723
G01 X24.3466 Y51.2560
G01 X24.2386 Y51.2289
G01 X24.1337 Y51.1914
G01 X24.0331 Y51.1438
G01 X23.9375 Y51.0866
G01 X23.8481 Y51.0202
G01 X23.7656 Y50.9454
G01 X23.6908 Y50.8629
G01 X23.6244 Y50.7735
G01 X23.5672 Y50.6779
G01 X23.5196 Y50.5773
G01 X23.4821 Y50.4724
G01 X23.4550 Y50.3644
G01 X23.4387 Y50.2542
G01 X23.4334 Y50.1526
G00 Z2.0000
G00 X25.9734 Y50.1526
G01 F60.00
G01 Z-0.0500
G01 F120.00
G01 X25.9734 Y50.1334
G01 X25.9787 Y50.0318
G01 X25.9950 Y49.9216
G01 X26.0221 Y49.8136
G01 X26.0596 Y49.7087
G01 X26.1072 Y49.6081
G01 X26.1644 Y49.5125
G01 X26.2308 Y49.4231
G01 X26.3056 Y49.3406
G01 X26.3881 Y49.2658
G01 X26.4775 Y49.1994
G01 X26.5731 Y49.1422
G01 X26.6737 Y49.0946
G01 X26.7786 Y49.0571
G01 X26.8866 Y49.0300
G01 X26.9968 Y49.0137
G01 X27.1080 Y49.0082
G01 X27.2192 Y49.0137
G01 X27.3294 Y49.0300
G01 X27.4374 Y49.0571
G01 X27.5423 Y49.0946
G01 X27.6429 Y49.1422
G01 X27.7385 Y49.1994
G01 X27.8279 Y49.2658
G01 X27.9104 Y49.3406
G01 X27.9852 Y49.4231
G01 X28.0516 Y49.5125
G01 X28.1088 Y49.6081
G01 X28.1564 Y49.7087
G01 X28.1939 Y49.8136
G01 X28.2210 Y49.9216
G01 X28.2373 Y50.0318
G01 X28.2428 Y50.1430
G01 X28.2373 Y50.2542
G01 X28.2210 Y50.3644
G01 X28.1939 Y50.4724
G01 X28.1564 Y50.5773
G01 X28.1088 Y50.6779
G01 X28.0516 Y50.7735
G01 X27.9852 Y50.8629
G01 X27.9104 Y50.9454
G01 X27.8279 Y51.0202
G01 X27.7385 Y51.0866
G01 X27.6429 Y51.1438
G01 X27.5423 Y51.1914
G01 X27.4374 Y51.2289
G01 X27.3294 Y51.2560
G01 X27.2192 Y51.2723
G01 X27.1080 Y51.2778
G01 X26.9968 Y51.2723
G01 X26.8866 Y51.2560
G01 X26.7786 Y51.2289
G01 X26.6737 Y51.1914
G01 X26.5731 Y51.1438
G01 X26.4775 Y51.0866
G01 X26.3881 Y51.0202
G01 X26.3056 Y50.9454
G01 X26.2308 Y50.8629
G01 X26.1644 Y50.7735
G01 X26.1072 Y50.6779
G01 X26.0596 Y50.5773
G01 X26.0221 Y50.4724
G01 X25.9950 Y50.3644
G01 X25.9787 Y50.2542
G01 X25.9734 Y50.1526
G00 Z2.0000
G00 X28.5134 Y50.1526
G01 F60.00
G01 Z-0.0500
G01 F120.00
G01 X28.5134 Y50.1334
G01 X28.5187 Y50.0318
G01 X28.5350 Y49.9216
G01 X28.5621 Y49.8136
G01 X28.5996 Y49.7087
G01 X28.6472 Y49.6081
G01 X28.7044 Y49.5125
G01 X28.7708 Y49.4231
G01 X28.8456 Y49.3406
G01 X28.9281 Y49.2658
G01 X29.0175 Y49.1994
G01 X29.1131 Y49.1422
G01 X29.2137 Y49.0946
G01 X29.3186 Y49.0571
G01 X29.4266 Y49.0300
G01 X29.5368 Y49.0137
G01 X29.6480 Y49.0082
G01 X29.7592 Y49.0137
G01 X29.8694 Y49.0300
G01 X29.9774 Y49.0571
G01 X30.0823 Y49.0946
G01 X30.1829 Y49.1422
G01 X30.2785 Y49.1994
G01 X30.3679 Y49.2658
G01 X30.4504 Y49.3406
G01 X30.5252 Y49.4231
G01 X30.5916 Y49.5125
G01 X30.6488 Y49.6081
G01 X30.6964 Y49.7087
G01 X30.7339 Y49.8136
G01 X30.7610 Y49.9216
G01 X30.7773 Y50.0318
G01 X30.7828 Y50.1430
G01 X30.7773 Y50.2542
G01 X30.7610 Y50.3644
G01 X30.7339 Y50.4724
G01 X30.6964 Y50.5773
G01 X30.6488 Y50.6779
G01 X30.5916 Y50.7735
G01 X30.5252 Y50.8629
G01 X30.4504 Y50.9454
G01 X30.3679 Y51.0202
G01 X30.2785 Y51.0866
G01 X30.1829 Y51.1438
G01 X30.0823 Y51.1914
G01 X29.9774 Y51.2289
G01 X29.8694 Y51.2560
G01 X29.7592 Y51.2723
G01 X29.6480 Y51.2778
G01 X29.5368 Y51.2723
G01 X29.4266 Y51.2560
G01 X29.3186 Y51.2289
G01 X29.2137 Y51.1914
G01 X29.1131 Y51.1438
G01 X29.0175 Y51.0866
G01 X28.9281 Y51.0202
G01 X28.8456 Y50.9454
G01 X28.7708 Y50.8629
G01 X28.7044 Y50.7735
G01 X28.6472 Y50.6779
G01 X28.5996 Y50.5773
G01 X28.5621 Y50.4724
G01 X28.5350 Y50.3644
G01 X28.5187 Y50.2542
G01 X28.5134 Y50.1526
G00 Z2.0000
G00 X31.0534 Y50.1526
G01 F60.00
G01 Z-0.0500
G01 F120.00
G01 X31.0534 Y50.1334
G01 X31.0587 Y50.0318
G01 X31.0750 Y49.9216
G01 X31.1021 Y49.8136
G01 X31.1396 Y49.7087
G01 X31.1872 Y49.6081
G01 X31.2444 Y49.5125
G01 X31.3108 Y49.4231
G01 X31.3856 Y49.3406
G01 X31.4681 Y49.2658
G01 X31.5575 Y49.1994
G01 X31.6531 Y49.1422
G01 X31.7537 Y49.0946
G01 X31.8586 Y49.0571
G01 X31.9666 Y49.0300
G01 X32.0768 Y49.0137
G01 X32.1880 Y49.0082
G01 X32.2992 Y49.0137
G01 X32.4094 Y49.0300
G01 X32.5174 Y49.0571
G01 X32.6223 Y49.0946
G01 X32.7229 Y49.1422
G01 X32.8185 Y49.1994
G01 X32.9079 Y49.2658
G01 X32.9904 Y49.3406
G01 X33.0652 Y49.4231
G01 X33.1316 Y49.5125
G01 X33.1888 Y49.6081
G01 X33.2364 Y49.7087
G01 X33.2739 Y49.8136
G01 X33.3010 Y49.9216
G01 X33.3173 Y50.0318
G01 X33.3228 Y50.1430
G01 X33.3173 Y50.2542
G01 X33.3010 Y50.3644
G01 X33.2739 Y50.4724
G01 X33.2364 Y50.5773
G01 X33.1888 Y50.6779
G01 X33.1316 Y50.7735
G01 X33.0652 Y50.8629
G01 X32.9904 Y50.9454
G01 X32.9079 Y51.0202
G01 X32.8185 Y51.0866
G01 X32.7229 Y51.1438
G01 X32.6223 Y51.1914
G01 X32.5174 Y51.2289
G01 X32.4094 Y51.2560
G01 X32.2992 Y51.2723
G01 X32.1880 Y51.2778
G01 X32.0768 Y51.2723
G01 X31.9666 Y51.2560
G01 X31.8586 Y51.2289
G01 X31.7537 Y51.1914
G01 X31.6531 Y51.1438
G01 X31.5575 Y51.0866
G01 X31.4681 Y51.0202
G01 X31.3856 Y50.9454
G01 X31.3108 Y50.8629
G01 X31.2444 Y50.7735
G01 X31.1872 Y50.6779
G01 X31.1396 Y50.5773
G01 X31.1021 Y50.4724
G01 X31.0750 Y50.3644
G01 X31.0587 Y50.2542
G01 X31.0534 Y50.1526
G00 Z2.0000
G00 X33.5934 Y50.1526
G01 F60.00
G01 Z-0.0500
G01 F120.00
G01 X33.5934 Y50.1334
G01 X33.5987 Y50.0318
G01 X33.6150 Y49.9216
G01 X33.6421 Y49.8136
G01 X33.6796 Y49.7087
G01 X33.7272 Y49.6081
G01 X33.7844 Y49.5125
G01 X33.8508 Y49.4231
G01 X33.9256 Y49.3406
G01 X34.0081 Y49.2658
G01 X34.0975 Y49.1994
G01 X34.1931 Y49.1422
G01 X34.2937 Y49.0946
G01 X34.3986 Y49.0571
G01 X34.5066 Y49.0300
G01 X34.6168 Y49.0137
G01 X34.7280 Y49.0082
G01 X34.8392 Y49.0137
G01 X34.9494 Y49.0300
G01 X35.0574 Y49.0571
G01 X35.1623 Y49.0946
G01 X35.2629 Y49.1422
G01 X35.3585 Y49.1994
G01 X35.4479 Y49.2658
G01 X35.5304 Y49.3406
G01 X35.6052 Y49.4231
G01 X35.6716 Y49.5125
G01 X35.7288 Y49.6081
G01 X35.7764 Y49.7087
G01 X35.8139 Y49.8136
G01 X35.8410 Y49.9216
G01 X35.8573 Y50.0318
G01 X35.8628 Y50.1430
G01 X35.8573 Y50.2542
G01 X35.8410 Y50.3644
G01 X35.8139 Y50.4724
G01 X35.7764 Y50.5773
G01 X35.7288 Y50.6779
G01 X35.6716 Y50.7735
G01 X35.6052 Y50.8629
G01 X35.5304 Y50.9454
G01 X35.4479 Y51.0202
G01 X35.3585 Y51.0866
G01 X35.2629 Y51.1438
G01 X35.1623 Y51.1914
G01 X35.0574 Y51.2289
G01 X34.9494 Y51.2560
G01 X34.8392 Y51.2723
G01 X34.7280 Y51.2778
G01 X34.6168 Y51.2723
G01 X34.5066 Y51.2560
G01 X34.3986 Y51.2289
G01 X34.2937 Y51.1914
G01 X34.1931 Y51.1438
G01 X34.0975 Y51.0866
G01 X34.0081 Y51.0202
G01 X33.9256 Y50.9454
G01 X33.8508 Y50.8629
G01 X33.7844 Y50.7735
G01 X33.7272 Y50.6779
G01 X33.6796 Y50.5773
G01 X33.6421 Y50.4724
G01 X33.6150 Y50.3644
G01 X33.5987 Y50.2542
G01 X33.5934 Y50.1526
G00 Z2.0000
G00 X35.9776 Y50.1430
G01 F60.00
G01 Z-0.0500
G01 F120.00
G01 X35.9605 Y50.3487
G01 X35.9099 Y50.5487
G01 X35.8270 Y50.7377
G01 X35.7141 Y50.9105
G01 X35.5743 Y51.0623
G01 X35.4115 Y51.1891
G01 X35.2299 Y51.2873
G01 X35.0348 Y51.3543
G01 X34.8312 Y51.3883
G01 X34.6248 Y51.3883
G01 X34.4212 Y51.3543
G01 X34.2261 Y51.2873
G01 X34.0446 Y51.1891
G01 X33.8817 Y51.0623
G01 X33.7419 Y50.9105
G01 X33.7251 Y50.8847
G01 X33.7175 Y50.8739
G01 X33.7092 Y50.8636
G01 X33.6841 Y50.8348
G01 X33.6704 Y50.8212
G01 X33.6554 Y50.8090
G01 X33.6393 Y50.7983
G01 X33.6266 Y50.7914
G01 X33.5589 Y50.7598
G01 X33.5455 Y50.7542
G01 X33.5318 Y50.7495
G01 X33.5129 Y50.7450
G01 X33.4938 Y50.7423
G01 X33.4744 Y50.7416
G01 X33.4599 Y50.7423
G01 X33.4503 Y50.7434
G01 X33.3763 Y50.7535
G01 X33.3573 Y50.7575
G01 X33.3389 Y50.7634
G01 X33.3211 Y50.7711
G01 X33.3083 Y50.7780
G01 X33.2921 Y50.7887
G01 X33.2808 Y50.7977
G01 X33.2276 Y50.8430
G01 X33.2207 Y50.8492
G01 X33.2109 Y50.8591
G01 X33.2018 Y50.8697
G01 X33.1962 Y50.8770
G01 X33.1741 Y50.9105
G01 X33.0343 Y51.0623
G01 X32.8715 Y51.1891
G01 X32.6899 Y51.2873
G01 X32.4948 Y51.3543
G01 X32.2912 Y51.3883
G01 X32.0848 Y51.3883
G01 X31.8812 Y51.3543
G01 X31.6861 Y51.2873
G01 X31.5046 Y51.1891
G01 X31.3417 Y51.0623
G01 X31.2019 Y50.9105
G01 X31.1851 Y50.8847
G01 X31.1775 Y50.8739
G01 X31.1692 Y50.8636
G01 X31.1441 Y50.8348
G01 X31.1304 Y50.8212
G01 X31.1154 Y50.8090
G01 X31.0993 Y50.7983
G01 X31.0866 Y50.7914
G01 X31.0189 Y50.7598
G01 X31.0055 Y50.7542
G01 X30.9871 Y50.7482
G01 X30.9682 Y50.7441
G01 X30.9538 Y50.7423
G01 X30.9344 Y50.7416
G01 X30.9247 Y50.7419
G01 X30.9103 Y50.7434
G01 X30.8363 Y50.7535
G01 X30.8173 Y50.7575
G01 X30.7989 Y50.7634
G01 X30.7811 Y50.7711
G01 X30.7642 Y50.7805
G01 X30.7521 Y50.7887
G01 X30.7408 Y50.7977
G01 X30.6876 Y50.8430
G01 X30.6807 Y50.8492
G01 X30.6709 Y50.8591
G01 X30.6618 Y50.8697
G01 X30.6562 Y50.8770
G01 X30.6341 Y50.9105
G01 X30.4943 Y51.0623
G01 X30.3315 Y51.1891
G01 X30.1499 Y51.2873
G01 X29.9548 Y51.3543
G01 X29.7512 Y51.3883
G01 X29.5448 Y51.3883
G01 X29.3412 Y51.3543
G01 X29.1461 Y51.2873
G01 X28.9646 Y51.1891
G01 X28.8017 Y51.0623
G01 X28.6619 Y50.9105
G01 X28.6451 Y50.8847
G01 X28.6375 Y50.8739
G01 X28.6292 Y50.8636
G01 X28.6041 Y50.8348
G01 X28.5904 Y50.8212
G01 X28.5754 Y50.8090
G01 X28.5593 Y50.7983
G01 X28.5466 Y50.7914
G01 X28.4789 Y50.7598
G01 X28.4655 Y50.7542
G01 X28.4518 Y50.7495
G01 X28.4329 Y50.7450
G01 X28.4138 Y50.7423
G01 X28.3944 Y50.7416
G01 X28.3847 Y50.7419
G01 X28.3703 Y50.7434
G01 X28.2963 Y50.7535
G01 X28.2773 Y50.7575
G01 X28.2589 Y50.7634
G01 X28.2455 Y50.7690
G01 X28.2283 Y50.7780
G01 X28.2121 Y50.7887
G01 X28.2008 Y50.7977
G01 X28.1476 Y50.8430
G01 X28.1373 Y50.8524
G01 X28.1309 Y50.8591
G01 X28.1218 Y50.8697
G01 X28.1162 Y50.8770
G01 X28.0941 Y50.9105
G01 X27.9543 Y51.0623
G01 X27.7915 Y51.1891
G01 X27.6099 Y51.2873
G01 X27.4148 Y51.3543
G01 X27.2112 Y51.3883
G01 X27.0048 Y51.3883
G01 X26.8012 Y51.3543
G01 X26.6061 Y51.2873
G01 X26.4246 Y51.1891
G01 X26.2617 Y51.0623
G01 X26.1219 Y50.9105
G01 X26.1051 Y50.8847
G01 X26.0975 Y50.8739
G01 X26.0892 Y50.8636
G01 X26.0641 Y50.8348
G01 X26.0504 Y50.8212
G01 X26.0354 Y50.8090
G01 X26.0193 Y50.7983
G01 X26.0066 Y50.7914
G01 X25.9389 Y50.7598
G01 X25.9255 Y50.7542
G01 X25.9118 Y50.7495
G01 X25.8929 Y50.7450
G01 X25.8738 Y50.7423
G01 X25.8544 Y50.7416
G01 X25.8447 Y50.7419
G01 X25.8303 Y50.7434
G01 X25.7563 Y50.7535
G01 X25.7373 Y50.7575
G01 X25.7189 Y50.7634
G01 X25.7055 Y50.7690
G01 X25.6883 Y50.7780
G01 X25.6721 Y50.7887
G01 X25.6608 Y50.7977
G01 X25.6076 Y50.8430
G01 X25.5973 Y50.8524
G01 X25.5909 Y50.8591
G01 X25.5818 Y50.8697
G01 X25.5762 Y50.8770
G01 X25.5541 Y50.9105
G01 X25.4143 Y51.0623
G01 X25.2515 Y51.1891
G01 X25.0699 Y51.2873
G01 X24.8748 Y51.3543
G01 X24.6712 Y51.3883
G01 X24.4648 Y51.3883
G01 X24.2612 Y51.3543
G01 X24.0661 Y51.2873
G01 X23.8846 Y51.1891
G01 X23.7217 Y51.0623
G01 X23.5819 Y50.9105
G01 X23.5651 Y50.8847
G01 X23.5575 Y50.8739
G01 X23.5492 Y50.8636
G01 X23.5241 Y50.8348
G01 X23.5104 Y50.8212
G01 X23.4954 Y50.8090
G01 X23.4793 Y50.7983
G01 X23.4666 Y50.7914
G01 X23.3989 Y50.7598
G01 X23.3855 Y50.7542
G01 X23.3718 Y50.7495
G01 X23.3529 Y50.7450
G01 X23.3338 Y50.7423
G01 X23.3144 Y50.7416
G01 X23.3047 Y50.7419
G01 X23.2903 Y50.7434
G01 X23.2210 Y50.7528
G01 X23.2020 Y50.7563
G01 X23.1880 Y50.7602
G01 X23.1699 Y50.7670
G01 X23.1525 Y50.7756
G01 X23.1361 Y50.7858
G01 X23.1208 Y50.7977
G01 X23.0676 Y50.8430
G01 X23.0541 Y50.8557
G01 X23.0448 Y50.8661
G01 X23.0362 Y50.8770
G01 X23.0141 Y50.9105
G01 X22.8743 Y51.0623
G01 X22.7115 Y51.1891
G01 X22.5299 Y51.2873
G01 X22.3348 Y51.3543
G01 X22.1312 Y51.3883
G01 X21.9248 Y51.3883
G01 X21.7212 Y51.3543
G01 X21.5261 Y51.2873
G01 X21.3446 Y51.1891
G01 X21.1817 Y51.0623
G01 X21.0419 Y50.9105
G01 X20.9290 Y50.7377
G01 X20.8461 Y50.5487
G01 X20.7955 Y50.3487
G01 X20.7784 Y50.1430
G01 X20.7955 Y49.9373
G01 X20.8461 Y49.7373
G01 X20.9290 Y49.5483
G01 X21.0419 Y49.3755
G01 X21.1817 Y49.2237
G01 X21.3446 Y49.0969
G01 X21.5261 Y48.9987
G01 X21.7212 Y48.9317
G01 X21.9248 Y48.8977
G01 X22.1312 Y48.8977
G01 X22.3348 Y48.9317
G01 X22.5299 Y48.9987
G01 X22.7114 Y49.0969
G01 X22.8743 Y49.2237
G01 X23.0141 Y49.3755
G01 X23.0309 Y49.4013
G01 X23.0385 Y49.4121
G01 X23.0468 Y49.4223
G01 X23.0719 Y49.4512
G01 X23.0856 Y49.4648
G01 X23.1006 Y49.4770
G01 X23.1167 Y49.4877
G01 X23.1294 Y49.4946
G01 X23.1971 Y49.5262
G01 X23.2105 Y49.5318
G01 X23.2289 Y49.5378
G01 X23.2478 Y49.5419
G01 X23.2671 Y49.5440
G01 X23.2816 Y49.5444
G01 X23.2913 Y49.5441
G01 X23.3057 Y49.5426
G01 X23.3798 Y49.5325
G01 X23.3987 Y49.5285
G01 X23.4126 Y49.5242
G01 X23.4305 Y49.5170
G01 X23.4477 Y49.5080
G01 X23.4639 Y49.4973
G01 X23.4753 Y49.4883
G01 X23.5284 Y49.4430
G01 X23.5387 Y49.4336
G01 X23.5451 Y49.4269
G01 X23.5542 Y49.4163
G01 X23.5598 Y49.4090
G01 X23.5819 Y49.3755
G01 X23.7217 Y49.2237
G01 X23.8846 Y49.0969
G01 X24.0661 Y48.9987
G01 X24.2612 Y48.9317
G01 X24.4648 Y48.8977
G01 X24.6712 Y48.8977
G01 X24.8748 Y48.9317
G01 X25.0699 Y48.9987
G01 X25.2514 Y49.0969
G01 X25.4143 Y49.2237
G01 X25.5541 Y49.3755
G01 X25.5709 Y49.4013
G01 X25.5785 Y49.4121
G01 X25.5868 Y49.4223
G01 X25.6119 Y49.4512
G01 X25.6256 Y49.4648
G01 X25.6406 Y49.4770
G01 X25.6567 Y49.4877
G01 X25.6694 Y49.4946
G01 X25.7371 Y49.5262
G01 X25.7505 Y49.5318
G01 X25.7642 Y49.5365
G01 X25.7831 Y49.5410
G01 X25.8023 Y49.5437
G01 X25.8216 Y49.5444
G01 X25.8313 Y49.5441
G01 X25.8457 Y49.5426
G01 X25.9198 Y49.5325
G01 X25.9387 Y49.5285
G01 X25.9526 Y49.5242
G01 X25.9705 Y49.5170
G01 X25.9877 Y49.5080
G01 X26.0039 Y49.4973
G01 X26.0153 Y49.4883
G01 X26.0684 Y49.4430
G01 X26.0787 Y49.4336
G01 X26.0851 Y49.4269
G01 X26.0912 Y49.4199
G01 X26.0998 Y49.4090
G01 X26.1219 Y49.3755
G01 X26.2617 Y49.2237
G01 X26.4246 Y49.0969
G01 X26.6061 Y48.9987
G01 X26.8012 Y48.9317
G01 X27.0048 Y48.8977
G01 X27.2112 Y48.8977
G01 X27.4148 Y48.9317
G01 X27.6099 Y48.9987
G01 X27.7914 Y49.0969
G01 X27.9543 Y49.2237
G01 X28.0941 Y49.3755
G01 X28.1109 Y49.4013
G01 X28.1185 Y49.4121
G01 X28.1268 Y49.4223
G01 X28.1519 Y49.4512
G01 X28.1656 Y49.4648
G01 X28.1806 Y49.4770
G01 X28.1967 Y49.4877
G01 X28.2094 Y49.4946
G01 X28.2771 Y49.5262
G01 X28.2905 Y49.5318
G01 X28.3042 Y49.5365
G01 X28.3231 Y49.5410
G01 X28.3423 Y49.5437
G01 X28.3616 Y49.5444
G01 X28.3713 Y49.5441
G01 X28.3857 Y49.5426
G01 X28.4598 Y49.5325
G01 X28.4787 Y49.5285
G01 X28.4926 Y49.5242
G01 X28.5105 Y49.5170
G01 X28.5277 Y49.5080
G01 X28.5439 Y49.4973
G01 X28.5553 Y49.4883
G01 X28.6084 Y49.4430
G01 X28.6187 Y49.4336
G01 X28.6251 Y49.4269
G01 X28.6312 Y49.4199
G01 X28.6398 Y49.4090
G01 X28.6619 Y49.3755
G01 X28.8017 Y49.2237
G01 X28.9646 Y49.0969
G01 X29.1461 Y48.9987
G01 X29.3412 Y48.9317
G01 X29.5448 Y48.8977
G01 X29.7512 Y48.8977
G01 X29.9548 Y48.9317
G01 X30.1499 Y48.9987
G01 X30.3314 Y49.0969
G01 X30.4943 Y49.2237
G01 X30.6341 Y49.3755
G01 X30.6509 Y49.4013
G01 X30.6585 Y49.4121
G01 X30.6668 Y49.4223
G01 X30.6919 Y49.4512
G01 X30.7056 Y49.4648
G01 X30.7206 Y49.4770
G01 X30.7367 Y49.4877
G01 X30.7494 Y49.4946
G01 X30.8171 Y49.5262
G01 X30.8305 Y49.5318
G01 X30.8442 Y49.5365
G01 X30.8631 Y49.5410
G01 X30.8823 Y49.5437
G01 X30.9016 Y49.5444
G01 X30.9113 Y49.5441
G01 X30.9257 Y49.5426
G01 X30.9998 Y49.5325
G01 X31.0187 Y49.5285
G01 X31.0326 Y49.5242
G01 X31.0505 Y49.5170
G01 X31.0677 Y49.5080
G01 X31.0839 Y49.4973
G01 X31.0953 Y49.4883
G01 X31.1484 Y49.4430
G01 X31.1587 Y49.4336
G01 X31.1651 Y49.4269
G01 X31.1712 Y49.4199
G01 X31.1798 Y49.4090
G01 X31.2019 Y49.3755
G01 X31.3417 Y49.2237
G01 X31.5046 Y49.0969
G01 X31.6861 Y48.9987
G01 X31.8812 Y48.9317
G01 X32.0848 Y48.8977
G01 X32.2912 Y48.8977
G01 X32.4948 Y48.9317
G01 X32.6899 Y48.9987
G01 X32.8714 Y49.0969
G01 X33.0343 Y49.2237
G01 X33.1741 Y49.3755
G01 X33.1909 Y49.4013
G01 X33.1985 Y49.4121
G01 X33.2068 Y49.4223
G01 X33.2319 Y49.4512
G01 X33.2456 Y49.4648
G01 X33.2606 Y49.4770
G01 X33.2726 Y49.4852
G01 X33.2894 Y49.4946
G01 X33.3571 Y49.5262
G01 X33.3705 Y49.5318
G01 X33.3889 Y49.5378
G01 X33.4078 Y49.5419
G01 X33.4271 Y49.5440
G01 X33.4416 Y49.5444
G01 X33.4513 Y49.5441
G01 X33.4657 Y49.5426
G01 X33.5350 Y49.5332
G01 X33.5540 Y49.5297
G01 X33.5726 Y49.5242
G01 X33.5861 Y49.5190
G01 X33.6035 Y49.5104
G01 X33.6199 Y49.5002
G01 X33.6353 Y49.4883
G01 X33.6884 Y49.4430
G01 X33.7019 Y49.4303
G01 X33.7112 Y49.4199
G01 X33.7198 Y49.4090
G01 X33.7419 Y49.3755
G01 X33.8817 Y49.2237
G01 X34.0446 Y49.0969
G01 X34.2261 Y48.9987
G01 X34.4212 Y48.9317
G01 X34.6248 Y48.8977
G01 X34.8312 Y48.8977
G01 X35.0348 Y48.9317
G01 X35.2299 Y48.9987
G01 X35.4114 Y49.0969
G01 X35.5743 Y49.2237
G01 X35.7141 Y49.3755
G01 X35.8270 Y49.5483
G01 X35.9099 Y49.7373
G01 X35.9605 Y49.9373
G01 X35.9776 Y50.1430
G00 Z2.0000
G00 X37.6228 Y57.3754
G01 F60.00
G01 Z-0.0500
G01 F120.00
G01 X37.6698 Y57.3572
G01 X37.8529 Y57.3230
G01 X38.0391 Y57.3230
G01 X38.2222 Y57.3572
G01 X38.2692 Y57.3754
G01 X38.1799 Y57.4648
G01 X38.1206 Y57.4502
G01 X38.0432 Y57.4385
G01 X38.0242 Y57.4366
G01 X37.9460 Y57.4330
G01 X37.8678 Y57.4366
G01 X37.8488 Y57.4385
G01 X37.7714 Y57.4502
G01 X37.7121 Y57.4648
G01 X37.6228 Y57.3754
G00 Z2.0000
G00 X36.9932 Y58.0045
G01 F60.00
G01 Z-0.0500
G01 F120.00
G01 X37.0828 Y58.0941
G01 X37.0682 Y58.1534
G01 X37.0565 Y58.2308
G01 X37.0546 Y58.2498
G01 X37.0510 Y58.3280
G01 X37.0546 Y58.4062
G01 X37.0565 Y58.4252
G01 X37.0682 Y58.5026
G01 X37.0828 Y58.5619
G01 X36.9932 Y58.6515
G01 X36.9539 Y58.5135
G01 X36.9367 Y58.3280
G01 X36.9539 Y58.1425
G01 X36.9932 Y58.0045
G00 Z2.0000
G00 X37.7121 Y59.1912
G01 F60.00
G01 Z-0.0500
G01 F120.00
G01 X37.7714 Y59.2058
G01 X37.8488 Y59.2175
G01 X37.8678 Y59.2194
G01 X37.9460 Y59.2230
G01 X38.0242 Y59.2194
G01 X38.0432 Y59.2175
G01 X38.1206 Y59.2058
G01 X38.1799 Y59.1912
G01 X38.2692 Y59.2806
G01 X38.2222 Y59.2988
G01 X38.0391 Y59.3330
G01 X37.8529 Y59.3330
G01 X37.6698 Y59.2988
G01 X37.6228 Y59.2806
G01 X37.7121 Y59.1912
G00 Z2.0000
G00 X38.8092 Y58.5619
G01 F60.00
G01 Z-0.0500
G01 F120.00
G01 X38.8238 Y58.5026
G01 X38.8355 Y58.4252
G01 X38.8374 Y58.4062
G01 X38.8410 Y58.3280
G01 X38.8374 Y58.2498
G01 X38.8355 Y58.2308
G01 X38.8238 Y58.1534
G01 X38.8092 Y58.0941
G01 X38.8988 Y58.0045
G01 X38.9381 Y58.1425
G01 X38.9553 Y58.3280
G01 X38.9381 Y58.5135
G01 X38.8988 Y58.6515
G01 X38.8092 Y58.5619
G00 Z2.0000
G00 X30.3164 Y57.4332
G01 F60.00
G01 Z-0.0500
G01 F120.00
G01 X30.3356 Y57.4332
G01 X30.4137 Y57.4373
G01 X30.5006 Y57.4502
G01 X30.5858 Y57.4715
G01 X30.6685 Y57.5011
G01 X30.7479 Y57.5387
G01 X30.8232 Y57.5838
G01 X30.8938 Y57.6362
G01 X30.9589 Y57.6951
G01 X31.0178 Y57.7602
G01 X31.0702 Y57.8308
G01 X31.1153 Y57.9061
G01 X31.1529 Y57.9855
G01 X31.1825 Y58.0682
G01 X31.2038 Y58.1534
G01 X31.2167 Y58.2403
G01 X31.2210 Y58.3280
G01 X31.2167 Y58.4157
G01 X31.2038 Y58.5026
G01 X31.1825 Y58.5878
G01 X31.1529 Y58.6705
G01 X31.1153 Y58.7499
G01 X31.0702 Y58.8252
G01 X31.0178 Y58.8958
G01 X30.9589 Y58.9609
G01 X30.8938 Y59.0198
G01 X30.8232 Y59.0722
G01 X30.7479 Y59.1173
G01 X30.6685 Y59.1549
G01 X30.5858 Y59.1845
G01 X30.5006 Y59.2058
G01 X30.4137 Y59.2187
G01 X30.3260 Y59.2230
G01 X30.2383 Y59.2187
G01 X30.1514 Y59.2058
G01 X30.0662 Y59.1845
G01 X29.9835 Y59.1549
G01 X29.9041 Y59.1173
G01 X29.8288 Y59.0722
G01 X29.7582 Y59.0198
G01 X29.6931 Y58.9609
G01 X29.6342 Y58.8958
G01 X29.5818 Y58.8252
G01 X29.5367 Y58.7499
G01 X29.4991 Y58.6705
G01 X29.4695 Y58.5878
G01 X29.4482 Y58.5026
G01 X29.4353 Y58.4157
G01 X29.4310 Y58.3280
G01 X29.4353 Y58.2403
G01 X29.4482 Y58.1534
G01 X29.4695 Y58.0682
G01 X29.4991 Y57.9855
G01 X29.5367 Y57.9061
G01 X29.5818 Y57.8308
G01 X29.6342 Y57.7602
G01 X29.6931 Y57.6951
G01 X29.7582 Y57.6362
G01 X29.8288 Y57.5838
G01 X29.9041 Y57.5387
G01 X29.9835 Y57.5011
G01 X30.0662 Y57.4715
G01 X30.1514 Y57.4502
G01 X30.2383 Y57.4373
G01 X30.3164 Y57.4332
G00 Z2.0000
G00 X29.8759 Y59.2319
G01 F60.00
G01 Z-0.0500
G01 F120.00
G01 X29.7175 Y59.1338
G01 X29.5798 Y59.0083
G01 X29.4673 Y58.8594
G01 X29.3844 Y58.6928
G01 X29.3334 Y58.5136
G01 X29.3162 Y58.3280
G01 X29.3334 Y58.1424
G01 X29.3844 Y57.9632
G01 X29.4674 Y57.7964
G01 X29.5797 Y57.6477
G01 X29.7175 Y57.5222
G01 X29.8759 Y57.4241
G01 X30.0497 Y57.3567
G01 X30.2328 Y57.3225
G01 X30.4192 Y57.3225
G01 X30.6023 Y57.3567
G01 X30.7761 Y57.4241
G01 X30.9345 Y57.5222
G01 X31.0723 Y57.6477
G01 X31.1846 Y57.7964
G01 X31.2676 Y57.9632
G01 X31.3186 Y58.1425
G01 X31.3358 Y58.3280
G01 X31.3186 Y58.5136
G01 X31.2676 Y58.6928
G01 X31.1846 Y58.8596
G01 X31.0723 Y59.0083
G01 X30.9345 Y59.1338
G01 X30.7761 Y59.2319
G01 X30.6023 Y59.2993
G01 X30.4192 Y59.3335
G01 X30.2328 Y59.3335
G01 X30.0497 Y59.2993
G01 X29.8759 Y59.2319
G00 Z2.0000
G00 X6.2051 Y56.4301
G01 F60.00
G01 Z-0.0500
G01 F120.00
G01 X6.2689 Y56.3060
G01 X6.3501 Y56.1924
G01 X6.4470 Y56.0920
G01 X6.5575 Y56.0067
G01 X6.6792 Y55.9383
G01 X6.8096 Y55.8885
G01 X6.9458 Y55.8581
G01 X7.0502 Y55.8505
G01 X7.1548 Y55.8505
G01 X7.2929 Y55.8708
G01 X7.4265 Y55.9110
G01 X7.5529 Y55.9703
G01 X7.6693 Y56.0473
G01 X7.7733 Y56.1404
G01 X7.8625 Y56.2477
G01 X7.9353 Y56.3669
G01 X7.9898 Y56.4953
G01 X8.0251 Y56.6303
G01 X8.0404 Y56.7691
G01 X8.0353 Y56.9086
G01 X8.0100 Y57.0458
G01 X7.9649 Y57.1779
G01 X7.9011 Y57.3020
G01 X7.8199 Y57.4156
G01 X7.7230 Y57.5160
G01 X7.6125 Y57.6013
G01 X7.4908 Y57.6697
G01 X7.3604 Y57.7195
G01 X7.2242 Y57.7499
G01 X7.1199 Y57.7575
G01 X7.0152 Y57.7575
G01 X6.8771 Y57.7372
G01 X6.7435 Y57.6970
G01 X6.6171 Y57.6377
G01 X6.5007 Y57.5607
G01 X6.3967 Y57.4676
G01 X6.3075 Y57.3603
G01 X6.2347 Y57.2411
G01 X6.1802 Y57.1127
G01 X6.1449 Y56.9777
G01 X6.1296 Y56.8389
G01 X6.1347 Y56.6994
G01 X6.1600 Y56.5622
G01 X6.2051 Y56.4301
G00 Z2.0000
G00 X5.8812 Y56.2924
G01 F60.00
G01 Z-0.0500
G01 F120.00
G01 X5.9685 Y56.1226
G01 X6.0796 Y55.9673
G01 X6.2122 Y55.8298
G01 X6.3633 Y55.7131
G01 X6.5298 Y55.6197
G01 X6.7082 Y55.5515
G01 X6.8946 Y55.5099
G01 X7.0373 Y55.4995
G01 X7.1805 Y55.4995
G01 X7.3694 Y55.5273
G01 X7.5523 Y55.5823
G01 X7.7252 Y55.6634
G01 X7.8844 Y55.7687
G01 X8.0266 Y55.8962
G01 X8.1488 Y56.0429
G01 X8.2483 Y56.2059
G01 X8.3229 Y56.3817
G01 X8.3712 Y56.5664
G01 X8.3921 Y56.7562
G01 X8.3851 Y56.9471
G01 X8.3505 Y57.1348
G01 X8.2888 Y57.3156
G01 X8.2015 Y57.4854
G01 X8.0904 Y57.6407
G01 X7.9578 Y57.7782
G01 X7.8067 Y57.8949
G01 X7.6402 Y57.9883
G01 X7.4618 Y58.0565
G01 X7.2754 Y58.0981
G01 X7.1327 Y58.1085
G01 X6.9895 Y58.1085
G01 X6.8006 Y58.0807
G01 X6.6177 Y58.0257
G01 X6.4448 Y57.9446
G01 X6.2856 Y57.8393
G01 X6.1434 Y57.7118
G01 X6.0212 Y57.5651
G01 X5.9217 Y57.4021
G01 X5.8471 Y57.2263
G01 X5.7988 Y57.0416
G01 X5.7779 Y56.8518
G01 X5.7849 Y56.6609
G01 X5.8195 Y56.4732
G01 X5.8812 Y56.2924
G00 Z2.0000
G00 X5.5573 Y56.1548
G01 F60.00
G01 Z-0.0500
G01 F120.00
G01 X5.6681 Y55.9393
G01 X5.8091 Y55.7422
G01 X5.9773 Y55.5677
G01 X6.1691 Y55.4196
G01 X6.3804 Y55.3010
G01 X6.6068 Y55.2144
G01 X6.8433 Y55.1618
G01 X7.0245 Y55.1485
G01 X7.2062 Y55.1485
G01 X7.4459 Y55.1838
G01 X7.6780 Y55.2536
G01 X7.8974 Y55.3565
G01 X8.0995 Y55.4902
G01 X8.2800 Y55.6519
G01 X8.4350 Y55.8382
G01 X8.5612 Y56.0450
G01 X8.6560 Y56.2680
G01 X8.7173 Y56.5025
G01 X8.7438 Y56.7434
G01 X8.7350 Y56.9855
G01 X8.6910 Y57.2239
G01 X8.6127 Y57.4532
G01 X8.5019 Y57.6687
G01 X8.3609 Y57.8658
G01 X8.1927 Y58.0403
G01 X8.0009 Y58.1884
G01 X7.7896 Y58.3070
G01 X7.5632 Y58.3936
G01 X7.3267 Y58.4462
G01 X7.1455 Y58.4595
G01 X6.9638 Y58.4595
G01 X6.7241 Y58.4242
G01 X6.4920 Y58.3544
G01 X6.2726 Y58.2515
G01 X6.0705 Y58.1178
G01 X5.8900 Y57.9561
G01 X5.7350 Y57.7698
G01 X5.6088 Y57.5630
G01 X5.5140 Y57.3400
G01 X5.4527 Y57.1055
G01 X5.4262 Y56.8646
G01 X5.4350 Y56.6225
G01 X5.4790 Y56.3841
G01 X5.5573 Y56.1548
G00 Z2.0000
G00 X33.1243 Y23.3400
G01 F60.00
G01 Z-0.0500
G01 F120.00
G01 X33.2469 Y23.3400
G01 X33.2563 Y23.3598
G01 X33.2608 Y23.3682
G01 X33.3036 Y23.4397
G01 X33.3114 Y23.4517
G01 X33.3669 Y23.5262
G01 X33.4324 Y23.5986
G01 X33.5048 Y23.6641
G01 X33.5793 Y23.7196
G01 X33.5913 Y23.7274
G01 X33.6628 Y23.7702
G01 X33.6712 Y23.7747
G01 X33.6910 Y23.7841
G01 X33.6910 Y23.9067
G01 X33.5814 Y23.8556
G01 X33.4230 Y23.7447
G01 X33.2863 Y23.6080
G01 X33.1754 Y23.4496
G01 X33.1243 Y23.3400
G00 Z2.0000
G00 X33.1243 Y22.4500
G01 F60.00
G01 Z-0.0500
G01 F120.00
G01 X33.1754 Y22.3404
G01 X33.2863 Y22.1820
G01 X33.4230 Y22.0453
G01 X33.5814 Y21.9344
G01 X33.6376 Y21.9082
G01 X33.6507 Y21.9014
G01 X33.6592 Y21.8964
G01 X33.6713 Y21.8881
G01 X33.6791 Y21.8820
G01 X33.6910 Y21.8718
G01 X33.6910 Y22.0059
G01 X33.6712 Y22.0153
G01 X33.6628 Y22.0198
G01 X33.5913 Y22.0626
G01 X33.5793 Y22.0704
G01 X33.5048 Y22.1259
G01 X33.4324 Y22.1914
G01 X33.3669 Y22.2638
G01 X33.3114 Y22.3383
G01 X33.3036 Y22.3503
G01 X33.2608 Y22.4218
G01 X33.2563 Y22.4302
G01 X33.2469 Y22.4500
G01 X33.1243 Y22.4500
G00 Z2.0000
G00 X33.7164 Y21.3889
G01 F60.00
G01 Z-0.0500
G01 F120.00
G01 X33.6805 Y21.3573
G01 X33.6657 Y21.3461
G01 X33.6580 Y21.3410
G01 X33.6459 Y21.3341
G01 X33.6068 Y21.3156
G01 X33.4484 Y21.2047
G01 X33.3117 Y21.0680
G01 X33.2008 Y20.9096
G01 X33.1497 Y20.8000
G01 X33.2723 Y20.8000
G01 X33.2817 Y20.8198
G01 X33.2862 Y20.8282
G01 X33.3290 Y20.8997
G01 X33.3368 Y20.9117
G01 X33.3923 Y20.9862
G01 X33.4578 Y21.0586
G01 X33.5302 Y21.1241
G01 X33.6047 Y21.1796
G01 X33.6167 Y21.1874
G01 X33.6882 Y21.2302
G01 X33.6966 Y21.2347
G01 X33.7164 Y21.2441
G01 X33.7164 Y21.3889
G00 Z2.0000
G00 X34.6064 Y21.3782
G01 F60.00
G01 Z-0.0500
G01 F120.00
G01 X34.6064 Y21.2441
G01 X34.6262 Y21.2347
G01 X34.6346 Y21.2302
G01 X34.7061 Y21.1874
G01 X34.7181 Y21.1796
G01 X34.7926 Y21.1241
G01 X34.8650 Y21.0586
G01 X34.9305 Y20.9862
G01 X34.9860 Y20.9117
G01 X34.9938 Y20.8997
G01 X35.0366 Y20.8282
G01 X35.0411 Y20.8198
G01 X35.0505 Y20.8000
G01 X35.1731 Y20.8000
G01 X35.1220 Y20.9096
G01 X35.0111 Y21.0680
G01 X34.8744 Y21.2047
G01 X34.7160 Y21.3156
G01 X34.6598 Y21.3418
G01 X34.6467 Y21.3486
G01 X34.6382 Y21.3536
G01 X34.6261 Y21.3619
G01 X34.6183 Y21.3680
G01 X34.6064 Y21.3782
G00 Z2.0000
G00 X34.5810 Y22.0059
G01 F60.00
G01 Z-0.0500
G01 F120.00
G01 X34.5810 Y21.8611
G01 X34.6169 Y21.8927
G01 X34.6317 Y21.9039
G01 X34.6394 Y21.9090
G01 X34.6515 Y21.9159
G01 X34.6906 Y21.9344
G01 X34.8490 Y22.0453
G01 X34.9857 Y22.1820
G01 X35.0966 Y22.3404
G01 X35.1477 Y22.4500
G01 X35.0251 Y22.4500
G01 X35.0157 Y22.4302
G01 X35.0112 Y22.4218
G01 X34.9684 Y22.3503
G01 X34.9606 Y22.3383
G01 X34.9051 Y22.2638
G01 X34.8396 Y22.1914
G01 X34.7672 Y22.1259
G01 X34.6927 Y22.0704
G01 X34.6807 Y22.0626
G01 X34.6092 Y22.0198
G01 X34.6008 Y22.0153
G01 X34.5810 Y22.0059
G00 Z2.0000
G00 X34.5810 Y23.7841
G01 F60.00
G01 Z-0.0500
G01 F120.00
G01 X34.6008 Y23.7747
G01 X34.6092 Y23.7702
G01 X34.6807 Y23.7274
G01 X34.6927 Y23.7196
G01 X34.7672 Y23.6641
G01 X34.8396 Y23.5986
G01 X34.9051 Y23.5262
G01 X34.9606 Y23.4517
G01 X34.9684 Y23.4397
G01 X35.0112 Y23.3682
G01 X35.0157 Y23.3598
G01 X35.0251 Y23.3400
G01 X35.1477 Y23.3400
G01 X35.0966 Y23.4496
G01 X34.9857 Y23.6080
G01 X34.8490 Y23.7447
G01 X34.6906 Y23.8556
G01 X34.5810 Y23.9067
G01 X34.5810 Y23.7841
G00 Z2.0000
G00 X33.1497 Y19.9100
G01 F60.00
G01 Z-0.0500
G01 F120.00
G01 X33.2008 Y19.8004
G01 X33.3117 Y19.6420
G01 X33.4484 Y19.5053
G01 X33.6068 Y19.3944
G01 X33.7164 Y19.3433
G01 X33.7164 Y19.4659
G01 X33.6966 Y19.4753
G01 X33.6882 Y19.4798
G01 X33.6167 Y19.5226
G01 X33.6047 Y19.5304
G01 X33.5302 Y19.5859
G01 X33.4578 Y19.6514
G01 X33.3923 Y19.7238
G01 X33.3368 Y19.7983
G01 X33.3290 Y19.8103
G01 X33.2862 Y19.8818
G01 X33.2817 Y19.8902
G01 X33.2723 Y19.9100
G01 X33.1497 Y19.9100
G00 Z2.0000
G00 X34.6064 Y19.4659
G01 F60.00
G01 Z-0.0500
G01 F120.00
G01 X34.6064 Y19.3433
G01 X34.7160 Y19.3944
G01 X34.8744 Y19.5053
G01 X35.0111 Y19.6420
G01 X35.1220 Y19.8004
G01 X35.1731 Y19.9100
G01 X35.0505 Y19.9100
G01 X35.0411 Y19.8902
G01 X35.0366 Y19.8818
G01 X34.9938 Y19.8103
G01 X34.9860 Y19.7983
G01 X34.9305 Y19.7238
G01 X34.8650 Y19.6514
G01 X34.7926 Y19.5859
G01 X34.7181 Y19.5304
G01 X34.7061 Y19.5226
G01 X34.6346 Y19.4798
G01 X34.6262 Y19.4753
G01 X34.6064 Y19.4659
G00 Z2.0000
G00 X42.0555 Y18.6577
G01 F60.00
G01 Z-0.0500
G01 F120.00
G01 X41.8848 Y18.5248
G01 X41.7382 Y18.3656
G01 X41.6199 Y18.1845
G01 X41.5330 Y17.9863
G01 X41.4799 Y17.7766
G01 X41.4620 Y17.5610
G01 X41.4799 Y17.3454
G01 X41.5330 Y17.1357
G01 X41.6199 Y16.9375
G01 X41.7382 Y16.7564
G01 X41.8848 Y16.5972
G01 X42.0555 Y16.4643
G01 X42.2458 Y16.3614
G01 X42.4504 Y16.2911
G01 X42.6638 Y16.2555
G01 X42.8802 Y16.2555
G01 X43.0936 Y16.2911
G01 X43.2982 Y16.3614
G01 X43.4885 Y16.4643
G01 X43.6592 Y16.5972
G01 X43.8058 Y16.7564
G01 X43.8440 Y16.8148
G01 X43.8521 Y16.8258
G01 X43.8579 Y16.8328
G01 X43.8673 Y16.8427
G01 X43.9075 Y16.8826
G01 X43.9184 Y16.8921
G01 X43.9261 Y16.8981
G01 X43.9381 Y16.9062
G01 X43.9507 Y16.9134
G01 X43.9682 Y16.9216
G01 X43.9819 Y16.9265
G01 X44.0625 Y16.9500
G01 X44.0807 Y16.9535
G01 X44.0992 Y16.9553
G01 X63.4142 Y16.9555
G01 X63.4442 Y16.9620
G01 X63.4565 Y16.9640
G01 X63.4816 Y16.9669
G01 X63.5107 Y16.9768
G01 X63.5227 Y16.9802
G01 X63.5473 Y16.9859
G01 X63.5700 Y16.9968
G01 X63.5815 Y17.0016
G01 X63.6104 Y17.0120
G01 X63.6366 Y17.0281
G01 X63.6475 Y17.0340
G01 X63.6702 Y17.0451
G01 X63.6900 Y17.0608
G01 X63.7001 Y17.0680
G01 X63.7259 Y17.0846
G01 X67.7594 Y21.1181
G01 X67.7729 Y21.1394
G01 X67.7800 Y21.1496
G01 X67.7989 Y21.1738
G01 X67.8126 Y21.2014
G01 X67.8186 Y21.2122
G01 X67.8320 Y21.2336
G01 X67.8424 Y21.2625
G01 X67.8472 Y21.2740
G01 X67.8581 Y21.2968
G01 X67.8638 Y21.3214
G01 X67.8672 Y21.3333
G01 X67.8771 Y21.3624
G01 X67.8800 Y21.3875
G01 X67.8820 Y21.3997
G01 X67.8885 Y21.4298
G01 X67.8885 Y33.0531
G01 X67.8891 Y33.0687
G01 X67.8930 Y33.1050
G01 X67.8954 Y33.1192
G01 X67.8989 Y33.1331
G01 X67.9033 Y33.1467
G01 X67.9108 Y33.1644
G01 X67.9509 Y33.2382
G01 X67.9583 Y33.2500
G01 X67.9637 Y33.2576
G01 X67.9724 Y33.2684
G01 X67.9819 Y33.2786
G01 X72.8625 Y38.1592
G01 X72.8726 Y38.1686
G01 X72.8872 Y38.1801
G01 X72.9297 Y38.2089
G01 X72.9379 Y38.2142
G01 X72.9507 Y38.2213
G01 X72.9640 Y38.2275
G01 X72.9823 Y38.2341
G01 X72.9965 Y38.2378
G01 X73.0108 Y38.2405
G01 X73.0897 Y38.2500
G01 X73.0989 Y38.2507
G01 X73.1128 Y38.2509
G01 X73.1221 Y38.2504
G01 X73.1359 Y38.2490
G01 X73.2708 Y38.2265
G01 X73.4872 Y38.2265
G01 X73.7006 Y38.2621
G01 X73.9052 Y38.3324
G01 X74.0955 Y38.4353
G01 X74.2662 Y38.5682
G01 X74.4128 Y38.7274
G01 X74.5311 Y38.9085
G01 X74.6180 Y39.1067
G01 X74.6711 Y39.3164
G01 X74.6890 Y39.5320
G01 X74.6711 Y39.7476
G01 X74.6180 Y39.9573
G01 X74.5311 Y40.1555
G01 X74.4128 Y40.3366
G01 X74.2662 Y40.4958
G01 X74.0955 Y40.6287
G01 X73.9416 Y40.7119
G01 X73.9294 Y40.7191
G01 X73.9177 Y40.7272
G01 X73.9103 Y40.7330
G01 X73.8662 Y40.7712
G01 X73.8559 Y40.7808
G01 X73.8434 Y40.7946
G01 X73.8322 Y40.8096
G01 X73.8225 Y40.8256
G01 X73.8144 Y40.8424
G01 X73.7868 Y40.9167
G01 X73.7822 Y40.9305
G01 X73.7788 Y40.9446
G01 X73.7770 Y40.9541
G01 X73.7753 Y40.9685
G01 X73.7748 Y40.9782
G01 X73.7752 Y40.9976
G01 X73.7775 Y41.0168
G01 X73.7944 Y41.0945
G01 X73.7981 Y41.1086
G01 X73.8028 Y41.1223
G01 X73.8106 Y41.1400
G01 X73.8202 Y41.1568
G01 X73.8314 Y41.1727
G01 X73.8441 Y41.1873
G01 X73.8970 Y41.2400
G01 X73.9073 Y41.2494
G01 X73.9181 Y41.2581
G01 X73.9296 Y41.2660
G01 X73.9416 Y41.2731
G01 X74.0955 Y41.3563
G01 X74.2662 Y41.4892
G01 X74.4128 Y41.6484
G01 X74.5311 Y41.8295
G01 X74.6180 Y42.0277
G01 X74.6711 Y42.2374
G01 X74.6890 Y42.4530
G01 X74.6711 Y42.6686
G01 X74.6180 Y42.8783
G01 X74.5311 Y43.0765
G01 X74.4128 Y43.2576
G01 X74.2662 Y43.4168
G01 X74.0955 Y43.5497
G01 X73.9052 Y43.6526
G01 X73.7006 Y43.7229
G01 X73.4872 Y43.7585
G01 X73.2708 Y43.7585
G01 X73.0574 Y43.7229
G01 X72.8528 Y43.6526
G01 X72.6625 Y43.5497
G01 X72.4918 Y43.4168
G01 X72.3452 Y43.2576
G01 X72.3070 Y43.1992
G01 X72.3017 Y43.1918
G01 X72.2931 Y43.1812
G01 X72.2837 Y43.1713
G01 X72.2469 Y43.1348
G01 X72.2363 Y43.1250
G01 X72.2249 Y43.1159
G01 X72.2088 Y43.1053
G01 X72.1960 Y43.0984
G01 X72.1828 Y43.0924
G01 X72.1645 Y43.0861
G01 X72.0930 Y43.0651
G01 X72.0840 Y43.0630
G01 X72.0703 Y43.0605
G01 X72.0564 Y43.0590
G01 X72.0425 Y43.0585
G01 X70.6438 Y43.0585
G01 X70.6137 Y43.0520
G01 X70.6015 Y43.0500
G01 X70.5764 Y43.0471
G01 X70.5473 Y43.0372
G01 X70.5354 Y43.0338
G01 X70.5108 Y43.0281
G01 X70.4880 Y43.0172
G01 X70.4765 Y43.0124
G01 X70.4476 Y43.0020
G01 X70.4262 Y42.9886
G01 X70.4154 Y42.9826
G01 X70.3878 Y42.9689
G01 X70.3636 Y42.9500
G01 X70.3534 Y42.9429
G01 X70.3321 Y42.9294
G01 X68.3956 Y40.9929
G01 X68.3880 Y40.9857
G01 X68.3595 Y40.9623
G01 X68.3480 Y40.9538
G01 X68.3317 Y40.9437
G01 X68.3145 Y40.9352
G01 X68.2966 Y40.9285
G01 X68.2250 Y40.9074
G01 X68.2070 Y40.9030
G01 X68.1932 Y40.9009
G01 X68.1793 Y40.8997
G01 X68.1701 Y40.8995
G01 X46.5138 Y40.8995
G01 X46.4837 Y40.8930
G01 X46.4715 Y40.8910
G01 X46.4464 Y40.8881
G01 X46.4173 Y40.8782
G01 X46.4054 Y40.8748
G01 X46.3808 Y40.8691
G01 X46.3580 Y40.8582
G01 X46.3465 Y40.8534
G01 X46.3176 Y40.8430
G01 X46.2962 Y40.8296
G01 X46.2854 Y40.8236
G01 X46.2578 Y40.8099
G01 X46.2336 Y40.7910
G01 X46.2234 Y40.7839
G01 X46.2021 Y40.7704
G01 X45.1935 Y39.7618
G01 X45.1834 Y39.7524
G01 X45.1689 Y39.7409
G01 X45.1223 Y39.7094
G01 X45.1097 Y39.7019
G01 X45.0965 Y39.6955
G01 X45.0830 Y39.6900
G01 X45.0690 Y39.6856
G01 X45.0548 Y39.6822
G01 X45.0403 Y39.6799
G01 X44.9710 Y39.6715
G01 X44.9524 Y39.6702
G01 X44.9385 Y39.6703
G01 X44.9201 Y39.6721
G01 X44.7852 Y39.6945
G01 X44.5688 Y39.6945
G01 X44.3554 Y39.6589
G01 X44.1508 Y39.5886
G01 X43.9605 Y39.4857
G01 X43.7898 Y39.3528
G01 X43.6432 Y39.1936
G01 X43.5249 Y39.0125
G01 X43.4380 Y38.8143
G01 X43.3849 Y38.6046
G01 X43.3670 Y38.3890
G01 X43.3849 Y38.1734
G01 X43.4380 Y37.9637
G01 X43.5249 Y37.7655
G01 X43.6432 Y37.5844
G01 X43.7898 Y37.4252
G01 X43.9605 Y37.2923
G01 X44.1508 Y37.1894
G01 X44.3554 Y37.1191
G01 X44.5688 Y37.0835
G01 X44.7852 Y37.0835
G01 X44.8158 Y37.0884
G01 X44.8296 Y37.0895
G01 X44.8389 Y37.0897
G01 X44.8951 Y37.0884
G01 X44.9097 Y37.0871
G01 X44.9241 Y37.0847
G01 X44.9384 Y37.0813
G01 X44.9523 Y37.0768
G01 X44.9614 Y37.0732
G01 X44.9746 Y37.0670
G01 X45.0483 Y37.0266
G01 X45.0637 Y37.0162
G01 X45.0745 Y37.0075
G01 X45.0847 Y36.9980
G01 X49.9471 Y32.1356
G01 X49.9577 Y32.1241
G01 X49.9806 Y32.0957
G01 X49.9889 Y32.0840
G01 X49.9986 Y32.0675
G01 X50.0066 Y32.0501
G01 X50.0115 Y32.0366
G01 X50.0339 Y31.9605
G01 X50.0370 Y31.9470
G01 X50.0385 Y31.9378
G01 X50.0400 Y31.9240
G01 X50.0405 Y31.9101
G01 X50.0405 Y27.2718
G01 X50.0460 Y27.2471
G01 X50.0482 Y27.2349
G01 X50.0519 Y27.2044
G01 X50.0618 Y27.1753
G01 X50.0652 Y27.1634
G01 X50.0709 Y27.1388
G01 X50.0818 Y27.1160
G01 X50.0866 Y27.1045
G01 X50.0970 Y27.0756
G01 X50.1104 Y27.0542
G01 X50.1165 Y27.0434
G01 X50.1301 Y27.0158
G01 X50.1490 Y26.9916
G01 X50.1561 Y26.9814
G01 X50.1696 Y26.9601
G01 X50.6297 Y26.4999
G01 X50.6400 Y26.4881
G01 X50.6596 Y26.4637
G01 X50.6705 Y26.4479
G01 X50.6776 Y26.4355
G01 X50.6818 Y26.4269
G01 X50.6874 Y26.4137
G01 X50.6919 Y26.4000
G01 X50.7140 Y26.3240
G01 X50.7175 Y26.3058
G01 X50.7190 Y26.2920
G01 X50.7194 Y26.2827
G01 X50.7195 Y25.0688
G01 X50.7250 Y25.0441
G01 X50.7272 Y25.0319
G01 X50.7309 Y25.0014
G01 X50.7408 Y24.9723
G01 X50.7442 Y24.9604
G01 X50.7499 Y24.9358
G01 X50.7608 Y24.9130
G01 X50.7656 Y24.9015
G01 X50.7760 Y24.8726
G01 X50.7894 Y24.8512
G01 X50.7955 Y24.8404
G01 X50.8091 Y24.8128
G01 X50.8280 Y24.7886
G01 X50.8351 Y24.7784
G01 X50.8486 Y24.7571
G01 X51.9551 Y23.6506
G01 X51.9990 Y23.6105
G01 X52.0391 Y23.5666
G01 X52.4452 Y23.1605
G01 X52.4521 Y23.1532
G01 X52.4586 Y23.1456
G01 X52.4647 Y23.1377
G01 X52.4704 Y23.1294
G01 X52.5055 Y23.0728
G01 X52.5123 Y23.0601
G01 X52.5163 Y23.0514
G01 X52.5215 Y23.0380
G01 X52.5269 Y23.0196
G01 X52.5297 Y23.0055
G01 X52.5315 Y22.9912
G01 X52.5347 Y22.9118
G01 X52.5345 Y22.8932
G01 X52.5326 Y22.8748
G01 X52.5289 Y22.8566
G01 X52.5110 Y22.6410
G01 X52.5289 Y22.4254
G01 X52.5820 Y22.2157
G01 X52.6689 Y22.0175
G01 X52.7872 Y21.8364
G01 X52.9338 Y21.6772
G01 X53.1045 Y21.5443
G01 X53.2948 Y21.4414
G01 X53.4994 Y21.3711
G01 X53.7128 Y21.3355
G01 X53.9292 Y21.3355
G01 X54.1426 Y21.3711
G01 X54.3472 Y21.4414
G01 X54.5375 Y21.5443
G01 X54.7082 Y21.6772
G01 X54.8548 Y21.8364
G01 X54.9731 Y22.0175
G01 X55.0600 Y22.2157
G01 X55.1131 Y22.4254
G01 X55.1310 Y22.6410
G01 X55.1131 Y22.8566
G01 X55.0600 Y23.0663
G01 X54.9731 Y23.2645
G01 X54.8548 Y23.4456
G01 X54.7082 Y23.6048
G01 X54.5375 Y23.7377
G01 X54.3472 Y23.8406
G01 X54.1426 Y23.9109
G01 X53.9292 Y23.9465
G01 X53.7128 Y23.9465
G01 X53.5825 Y23.9248
G01 X53.5688 Y23.9230
G01 X53.5503 Y23.9221
G01 X53.4989 Y23.9233
G01 X53.4843 Y23.9242
G01 X53.4746 Y23.9254
G01 X53.4602 Y23.9281
G01 X53.4461 Y23.9319
G01 X53.4323 Y23.9368
G01 X53.4189 Y23.9426
G01 X53.3449 Y23.9829
G01 X53.3331 Y23.9902
G01 X53.3255 Y23.9956
G01 X53.3147 Y24.0044
G01 X53.3045 Y24.0138
G01 X52.0239 Y25.2944
G01 X52.0167 Y25.3020
G01 X52.0100 Y25.3099
G01 X51.9904 Y25.3343
G01 X51.9821 Y25.3460
G01 X51.9724 Y25.3625
G01 X51.9644 Y25.3799
G01 X51.9581 Y25.3980
G01 X51.9371 Y25.4695
G01 X51.9332 Y25.4876
G01 X51.9310 Y25.5060
G01 X51.9305 Y25.5199
G01 X51.9305 Y26.7292
G01 X51.9240 Y26.7593
G01 X51.9220 Y26.7715
G01 X51.9191 Y26.7966
G01 X51.9108 Y26.8204
G01 X51.9073 Y26.8324
G01 X51.9001 Y26.8622
G01 X51.8871 Y26.8901
G01 X51.8824 Y26.9016
G01 X51.8740 Y26.9254
G01 X51.8579 Y26.9516
G01 X51.8520 Y26.9625
G01 X51.8409 Y26.9852
G01 X51.8220 Y27.0094
G01 X51.8149 Y27.0196
G01 X51.8014 Y27.0409
G01 X51.3449 Y27.4974
G01 X51.3343 Y27.5089
G01 X51.3114 Y27.5373
G01 X51.3031 Y27.5490
G01 X51.2934 Y27.5655
G01 X51.2854 Y27.5829
G01 X51.2805 Y27.5964
G01 X51.2570 Y27.6770
G01 X51.2550 Y27.6860
G01 X51.2529 Y27.6998
G01 X51.2516 Y27.7183
G01 X51.2515 Y28.5609
G01 X51.2523 Y28.5810
G01 X51.2541 Y28.5954
G01 X51.2559 Y28.6049
G01 X51.2595 Y28.6190
G01 X51.2838 Y28.6948
G01 X51.2872 Y28.7038
G01 X51.2932 Y28.7171
G01 X51.3001 Y28.7298
G01 X51.3052 Y28.7381
G01 X51.3137 Y28.7499
G01 X51.3198 Y28.7574
G01 X51.3296 Y28.7680
G01 X51.3366 Y28.7747
G01 X51.4017 Y28.8285
G01 X51.4095 Y28.8343
G01 X51.4216 Y28.8422
G01 X51.4301 Y28.8470
G01 X51.4431 Y28.8533
G01 X51.4612 Y28.8603
G01 X51.4799 Y28.8654
G01 X51.4990 Y28.8686
G01 X51.5684 Y28.8768
G01 X51.5877 Y28.8781
G01 X51.6022 Y28.8778
G01 X51.6167 Y28.8765
G01 X51.6310 Y28.8741
G01 X51.6451 Y28.8706
G01 X51.6589 Y28.8660
G01 X51.6723 Y28.8605
G01 X51.7395 Y28.8278
G01 X51.7558 Y28.8189
G01 X51.7674 Y28.8112
G01 X51.7784 Y28.8027
G01 X51.8168 Y28.7681
G01 X51.9751 Y28.6700
G01 X52.1488 Y28.6027
G01 X52.3319 Y28.5685
G01 X52.5181 Y28.5685
G01 X52.7012 Y28.6027
G01 X52.7482 Y28.6209
G01 X52.6589 Y28.7103
G01 X52.5996 Y28.6957
G01 X52.5175 Y28.6833
G01 X52.5032 Y28.6821
G01 X52.4346 Y28.6787
G01 X52.4202 Y28.6786
G01 X52.3373 Y28.6828
G01 X52.2598 Y28.6941
G01 X52.2411 Y28.6978
G01 X52.1652 Y28.7170
G01 X52.0825 Y28.7466
G01 X52.0031 Y28.7842
G01 X51.9278 Y28.8293
G01 X51.8648 Y28.8758
G01 X51.8536 Y28.8847
G01 X51.7991 Y28.9340
G01 X51.7855 Y28.9476
G01 X51.7332 Y29.0057
G01 X51.6863 Y29.0684
G01 X51.6757 Y29.0844
G01 X51.6357 Y29.1516
G01 X51.5981 Y29.2310
G01 X51.5715 Y29.3046
G01 X51.5660 Y29.3229
G01 X51.5472 Y29.3989
G01 X51.5355 Y29.4763
G01 X51.5336 Y29.4953
G01 X51.5300 Y29.5735
G01 X51.5343 Y29.6612
G01 X51.5472 Y29.7481
G01 X51.5685 Y29.8333
G01 X51.5981 Y29.9160
G01 X51.6314 Y29.9869
G01 X51.6404 Y30.0037
G01 X51.6757 Y30.0626
G01 X51.6863 Y30.0786
G01 X51.7332 Y30.1413
G01 X51.7855 Y30.1994
G01 X51.7991 Y30.2130
G01 X51.8572 Y30.2653
G01 X51.9238 Y30.3150
G01 X51.9359 Y30.3228
G01 X52.0031 Y30.3628
G01 X52.0825 Y30.4004
G01 X52.1652 Y30.4300
G01 X52.2411 Y30.4492
G01 X52.2551 Y30.4522
G01 X52.3373 Y30.4642
G01 X52.4154 Y30.4683
G01 X52.4346 Y30.4683
G01 X52.5032 Y30.4649
G01 X52.5222 Y30.4630
G01 X52.5996 Y30.4513
G01 X52.6589 Y30.4367
G01 X52.7482 Y30.5261
G01 X52.7252 Y30.5363
G01 X52.7123 Y30.5427
G01 X52.6999 Y30.5501
G01 X52.6882 Y30.5584
G01 X52.6735 Y30.5707
G01 X52.6200 Y30.6228
G01 X52.6068 Y30.6370
G01 X52.5979 Y30.6485
G01 X52.5924 Y30.6565
G01 X52.5874 Y30.6647
G01 X52.5806 Y30.6776
G01 X52.5766 Y30.6864
G01 X52.5714 Y30.7000
G01 X52.5661 Y30.7186
G01 X52.5485 Y30.7962
G01 X52.5464 Y30.8105
G01 X52.5457 Y30.8202
G01 X52.5454 Y30.8299
G01 X52.5459 Y30.8444
G01 X52.5468 Y30.8540
G01 X52.5491 Y30.8684
G01 X52.5525 Y30.8825
G01 X52.5553 Y30.8918
G01 X52.5822 Y30.9667
G01 X52.5859 Y30.9756
G01 X52.5923 Y30.9886
G01 X52.6023 Y31.0052
G01 X52.6108 Y31.0170
G01 X52.6202 Y31.0280
G01 X52.6304 Y31.0384
G01 X52.6452 Y31.0509
G01 X52.7081 Y31.0990
G01 X52.7238 Y31.1088
G01 X52.7320 Y31.1132
G01 X52.7447 Y31.1190
G01 X52.8751 Y31.1696
G01 X53.0335 Y31.2677
G01 X53.1713 Y31.3932
G01 X53.2836 Y31.5419
G01 X53.3666 Y31.7087
G01 X53.4176 Y31.8880
G01 X53.4348 Y32.0735
G01 X53.4176 Y32.2591
G01 X53.3666 Y32.4383
G01 X53.2836 Y32.6051
G01 X53.1713 Y32.7538
G01 X53.0335 Y32.8793
G01 X52.8663 Y32.9832
G01 X52.8545 Y32.9920
G01 X52.8188 Y33.0225
G01 X52.8053 Y33.0358
G01 X52.7961 Y33.0465
G01 X52.7850 Y33.0619
G01 X52.7755 Y33.0783
G01 X52.7424 Y33.1504
G01 X52.7368 Y33.1638
G01 X52.7310 Y33.1823
G01 X52.7271 Y33.2012
G01 X52.7254 Y33.2156
G01 X52.7248 Y33.2350
G01 X52.7256 Y33.2495
G01 X52.7267 Y33.2591
G01 X52.7383 Y33.3378
G01 X52.7416 Y33.3520
G01 X52.7444 Y33.3612
G01 X52.7476 Y33.3704
G01 X52.7533 Y33.3837
G01 X52.7577 Y33.3924
G01 X52.7650 Y33.4049
G01 X52.7704 Y33.4130
G01 X52.7792 Y33.4245
G01 X52.8313 Y33.4846
G01 X52.8415 Y33.4950
G01 X52.8524 Y33.5046
G01 X52.8640 Y33.5133
G01 X52.8762 Y33.5212
G01 X52.8890 Y33.5281
G01 X52.9022 Y33.5340
G01 X52.9205 Y33.5404
G01 X52.9965 Y33.5625
G01 X53.0147 Y33.5660
G01 X53.0332 Y33.5678
G01 X53.1624 Y33.5680
G01 X53.1873 Y33.5707
G01 X53.2729 Y33.6026
G01 X53.3432 Y33.6553
G01 X53.3959 Y33.7256
G01 X53.4278 Y33.8112
G01 X53.4305 Y33.8361
G01 X53.4305 Y35.3109
G01 X53.4278 Y35.3358
G01 X53.3959 Y35.4214
G01 X53.3432 Y35.4917
G01 X53.2729 Y35.5444
G01 X53.1873 Y35.5763
G01 X53.1624 Y35.5790
G01 X51.6876 Y35.5790
G01 X51.6627 Y35.5763
G01 X51.5771 Y35.5444
G01 X51.5068 Y35.4917
G01 X51.4541 Y35.4214
G01 X51.4222 Y35.3358
G01 X51.4195 Y35.3109
G01 X51.4195 Y33.8361
G01 X51.4222 Y33.8112
G01 X51.4541 Y33.7256
G01 X51.5068 Y33.6553
G01 X51.5771 Y33.6026
G01 X51.6627 Y33.5707
G01 X51.6876 Y33.5680
G01 X51.8075 Y33.5680
G01 X51.8222 Y33.5674
G01 X51.8369 Y33.5658
G01 X51.8738 Y33.5601
G01 X51.8878 Y33.5575
G01 X51.8969 Y33.5552
G01 X51.9060 Y33.5524
G01 X51.9193 Y33.5474
G01 X51.9322 Y33.5415
G01 X51.9446 Y33.5347
G01 X52.0107 Y33.4909
G01 X52.0263 Y33.4793
G01 X52.0372 Y33.4697
G01 X52.0505 Y33.4557
G01 X52.0624 Y33.4404
G01 X52.0702 Y33.4282
G01 X52.0793 Y33.4110
G01 X52.1092 Y33.3426
G01 X52.1129 Y33.3336
G01 X52.1175 Y33.3199
G01 X52.1200 Y33.3105
G01 X52.1229 Y33.2963
G01 X52.1243 Y33.2867
G01 X52.1254 Y33.2722
G01 X52.1254 Y33.2577
G01 X52.1248 Y33.2480
G01 X52.1230 Y33.2336
G01 X52.1111 Y33.1598
G01 X52.1091 Y33.1504
G01 X52.1052 Y33.1364
G01 X52.0984 Y33.1182
G01 X52.0899 Y33.1009
G01 X52.0823 Y33.0884
G01 X52.0768 Y33.0805
G01 X52.0646 Y33.0654
G01 X52.0149 Y33.0100
G01 X52.0050 Y33.0002
G01 X51.9907 Y32.9883
G01 X51.9754 Y32.9778
G01 X51.8165 Y32.8793
G01 X51.6787 Y32.7538
G01 X51.6252 Y32.6830
G01 X51.6101 Y32.6645
G01 X51.6038 Y32.6575
G01 X51.5938 Y32.6474
G01 X51.5830 Y32.6382
G01 X51.5755 Y32.6324
G01 X51.5597 Y32.6221
G01 X51.4994 Y32.5867
G01 X51.4823 Y32.5778
G01 X51.4643 Y32.5705
G01 X51.4504 Y32.5663
G01 X51.4362 Y32.5632
G01 X51.4218 Y32.5610
G01 X51.4074 Y32.5600
G01 X51.3928 Y32.5601
G01 X51.3182 Y32.5632
G01 X51.2990 Y32.5654
G01 X51.2800 Y32.5695
G01 X51.2616 Y32.5755
G01 X51.2439 Y32.5832
G01 X51.2270 Y32.5927
G01 X51.1935 Y32.6159
G01 X51.1805 Y32.6231
G01 X51.1685 Y32.6309
G01 X51.1570 Y32.6396
G01 X51.1429 Y32.6525
G01 X46.0271 Y37.7682
G01 X46.0202 Y37.7754
G01 X46.0137 Y37.7831
G01 X46.0076 Y37.7910
G01 X46.0019 Y37.7992
G01 X45.9693 Y37.8517
G01 X45.9622 Y37.8642
G01 X45.9542 Y37.8817
G01 X45.9479 Y37.8998
G01 X45.9434 Y37.9185
G01 X45.9408 Y37.9375
G01 X45.9375 Y38.0215
G01 X45.9376 Y38.0308
G01 X45.9386 Y38.0447
G01 X45.9414 Y38.0630
G01 X45.9691 Y38.1734
G01 X45.9870 Y38.3890
G01 X45.9691 Y38.6046
G01 X45.9660 Y38.6193
G01 X45.9645 Y38.6292
G01 X45.9636 Y38.6392
G01 X45.9632 Y38.6492
G01 X45.9622 Y38.7108
G01 X45.9633 Y38.7299
G01 X45.9653 Y38.7442
G01 X45.9684 Y38.7582
G01 X45.9726 Y38.7720
G01 X45.9777 Y38.7855
G01 X45.9860 Y38.8027
G01 X46.0242 Y38.8721
G01 X46.0346 Y38.8875
G01 X46.0403 Y38.8947
G01 X46.0495 Y38.9052
G01 X46.7431 Y39.5987
G01 X46.7549 Y39.6090
G01 X46.7793 Y39.6286
G01 X46.7870 Y39.6342
G01 X46.8033 Y39.6443
G01 X46.8118 Y39.6488
G01 X46.8249 Y39.6546
G01 X46.8430 Y39.6609
G01 X46.9190 Y39.6830
G01 X46.9280 Y39.6850
G01 X46.9418 Y39.6871
G01 X46.9510 Y39.6880
G01 X46.9649 Y39.6885
G01 X67.5071 Y39.6885
G01 X67.5166 Y39.6883
G01 X67.5307 Y39.6871
G01 X67.5493 Y39.6839
G01 X67.6107 Y39.6700
G01 X67.6241 Y39.6659
G01 X67.6414 Y39.6588
G01 X67.6539 Y39.6525
G01 X67.6620 Y39.6478
G01 X67.6737 Y39.6400
G01 X67.6811 Y39.6343
G01 X67.7478 Y39.5756
G01 X67.7546 Y39.5687
G01 X67.7641 Y39.5577
G01 X67.7728 Y39.5460
G01 X67.7780 Y39.5379
G01 X67.7852 Y39.5252
G01 X67.7894 Y39.5165
G01 X67.7932 Y39.5076
G01 X67.7981 Y39.4939
G01 X67.8186 Y39.4221
G01 X67.8230 Y39.4032
G01 X67.8251 Y39.3889
G01 X67.8260 Y39.3744
G01 X67.8256 Y39.3550
G01 X67.8241 Y39.3406
G01 X67.8225 Y39.3310
G01 X67.8191 Y39.3169
G01 X67.7976 Y39.2453
G01 X67.7931 Y39.2322
G01 X67.7857 Y39.2152
G01 X67.7814 Y39.2069
G01 X67.7742 Y39.1950
G01 X67.6549 Y39.0125
G01 X67.5680 Y38.8143
G01 X67.5149 Y38.6046
G01 X67.4970 Y38.3890
G01 X67.5149 Y38.1734
G01 X67.5435 Y38.0606
G01 X67.5457 Y38.0508
G01 X67.5474 Y38.0409
G01 X67.5486 Y38.0310
G01 X67.5493 Y38.0210
G01 X67.5503 Y37.9496
G01 X67.5487 Y37.9305
G01 X67.5453 Y37.9116
G01 X67.5400 Y37.8931
G01 X67.5349 Y37.8797
G01 X67.5265 Y37.8624
G01 X67.4931 Y37.8011
G01 X67.4884 Y37.7931
G01 X67.4808 Y37.7815
G01 X67.4693 Y37.7669
G01 X67.4598 Y37.7567
G01 X64.2971 Y34.5941
G01 X64.2862 Y34.5844
G01 X64.2705 Y34.5729
G01 X64.2114 Y34.5359
G01 X64.1984 Y34.5293
G01 X64.1850 Y34.5236
G01 X64.0976 Y34.4930
G01 X63.9821 Y34.4204
G01 X63.8856 Y34.3239
G01 X63.8130 Y34.2084
G01 X63.7679 Y34.0796
G01 X63.7565 Y33.9780
G01 X63.7565 Y24.9960
G01 X63.7560 Y24.9819
G01 X63.7537 Y24.9632
G01 X63.7449 Y24.9129
G01 X63.7400 Y24.8949
G01 X63.7334 Y24.8774
G01 X63.7252 Y24.8607
G01 X63.7154 Y24.8448
G01 X63.6663 Y24.7768
G01 X63.6541 Y24.7629
G01 X63.6475 Y24.7563
G01 X63.6371 Y24.7472
G01 X63.4748 Y24.6208
G01 X63.3282 Y24.4616
G01 X63.2099 Y24.2805
G01 X63.1230 Y24.0823
G01 X63.0699 Y23.8726
G01 X63.0520 Y23.6570
G01 X63.0699 Y23.4414
G01 X63.1230 Y23.2317
G01 X63.2099 Y23.0335
G01 X63.3282 Y22.8524
G01 X63.4748 Y22.6932
G01 X63.6455 Y22.5603
G01 X63.8358 Y22.4574
G01 X64.0404 Y22.3871
G01 X64.2538 Y22.3515
G01 X64.4702 Y22.3515
G01 X64.6836 Y22.3871
G01 X64.8882 Y22.4574
G01 X65.0785 Y22.5603
G01 X65.2492 Y22.6932
G01 X65.3958 Y22.8524
G01 X65.5141 Y23.0335
G01 X65.6010 Y23.2317
G01 X65.6541 Y23.4414
G01 X65.6720 Y23.6570
G01 X65.6541 Y23.8726
G01 X65.6010 Y24.0823
G01 X65.5141 Y24.2805
G01 X65.3958 Y24.4616
G01 X65.2492 Y24.6208
G01 X65.0833 Y24.7502
G01 X65.0729 Y24.7598
G01 X65.0664 Y24.7666
G01 X65.0382 Y24.7974
G01 X65.0292 Y24.8081
G01 X65.0183 Y24.8233
G01 X65.0111 Y24.8353
G01 X65.0030 Y24.8521
G01 X64.9979 Y24.8651
G01 X64.9741 Y24.9455
G01 X64.9702 Y24.9637
G01 X64.9680 Y24.9821
G01 X64.9675 Y24.9960
G01 X64.9675 Y33.7025
G01 X64.9681 Y33.7181
G01 X64.9727 Y33.7592
G01 X64.9766 Y33.7779
G01 X64.9823 Y33.7962
G01 X64.9859 Y33.8051
G01 X64.9919 Y33.8181
G01 X65.0323 Y33.8917
G01 X65.0400 Y33.9033
G01 X65.0455 Y33.9107
G01 X65.0514 Y33.9179
G01 X65.0609 Y33.9280
G01 X68.1708 Y37.0380
G01 X68.1815 Y37.0478
G01 X68.1889 Y37.0539
G01 X68.2047 Y37.0650
G01 X68.2754 Y37.1051
G01 X68.2885 Y37.1114
G01 X68.2974 Y37.1150
G01 X68.3112 Y37.1197
G01 X68.3300 Y37.1243
G01 X68.3443 Y37.1265
G01 X68.3636 Y37.1278
G01 X68.4388 Y37.1256
G01 X68.4583 Y37.1240
G01 X68.4770 Y37.1205
G01 X68.6988 Y37.0835
G01 X68.9152 Y37.0835
G01 X69.1286 Y37.1191
G01 X69.3186 Y37.1843
G01 X69.3327 Y37.1886
G01 X69.3422 Y37.1908
G01 X69.3567 Y37.1933
G01 X69.4153 Y37.2007
G01 X69.4342 Y37.2013
G01 X69.4484 Y37.2005
G01 X69.4579 Y37.1995
G01 X69.4765 Y37.1959
G01 X69.4947 Y37.1906
G01 X69.5646 Y37.1646
G01 X69.5824 Y37.1569
G01 X69.5910 Y37.1525
G01 X69.6035 Y37.1450
G01 X69.6191 Y37.1335
G01 X69.6265 Y37.1273
G01 X69.6369 Y37.1172
G01 X69.6497 Y37.1026
G01 X69.6945 Y37.0428
G01 X69.7027 Y37.0309
G01 X69.7078 Y37.0226
G01 X69.7145 Y37.0097
G01 X69.7184 Y37.0009
G01 X69.7235 Y36.9873
G01 X69.7287 Y36.9686
G01 X69.7313 Y36.9543
G01 X69.7325 Y36.9447
G01 X69.7381 Y36.8654
G01 X69.7383 Y36.8508
G01 X69.7373 Y36.8363
G01 X69.7353 Y36.8219
G01 X69.7310 Y36.8031
G01 X69.7265 Y36.7893
G01 X69.7189 Y36.7714
G01 X69.6764 Y36.6935
G01 X69.6714 Y36.6857
G01 X69.6632 Y36.6744
G01 X69.6510 Y36.6604
G01 X66.8066 Y33.8159
G01 X66.7931 Y33.7946
G01 X66.7860 Y33.7844
G01 X66.7671 Y33.7602
G01 X66.7534 Y33.7326
G01 X66.7474 Y33.7218
G01 X66.7340 Y33.7004
G01 X66.7256 Y33.6766
G01 X66.7209 Y33.6651
G01 X66.7079 Y33.6372
G01 X66.7007 Y33.6073
G01 X66.6972 Y33.5954
G01 X66.6889 Y33.5716
G01 X66.6860 Y33.5465
G01 X66.6840 Y33.5343
G01 X66.6775 Y33.5042
G01 X66.6775 Y21.8809
G01 X66.6769 Y21.8653
G01 X66.6723 Y21.8242
G01 X66.6684 Y21.8055
G01 X66.6627 Y21.7873
G01 X66.6572 Y21.7740
G01 X66.6531 Y21.7654
G01 X66.6127 Y21.6918
G01 X66.6077 Y21.6840
G01 X66.5995 Y21.6727
G01 X66.5936 Y21.6656
G01 X66.5841 Y21.6554
G01 X63.1886 Y18.2599
G01 X63.1810 Y18.2527
G01 X63.1731 Y18.2460
G01 X63.1487 Y18.2264
G01 X63.1370 Y18.2181
G01 X63.1247 Y18.2107
G01 X63.1119 Y18.2042
G01 X63.0987 Y18.1986
G01 X63.0850 Y18.1941
G01 X63.0180 Y18.1744
G01 X63.0045 Y18.1710
G01 X62.9862 Y18.1679
G01 X62.9770 Y18.1670
G01 X62.9631 Y18.1665
G01 X44.1039 Y18.1666
G01 X44.0857 Y18.1678
G01 X44.0722 Y18.1699
G01 X44.0171 Y18.1816
G01 X43.9984 Y18.1866
G01 X43.9803 Y18.1934
G01 X43.9672 Y18.1997
G01 X43.9505 Y18.2095
G01 X43.9349 Y18.2209
G01 X43.8746 Y18.2724
G01 X43.8614 Y18.2854
G01 X43.8523 Y18.2960
G01 X43.8440 Y18.3072
G01 X43.8058 Y18.3656
G01 X43.6592 Y18.5248
G01 X43.4885 Y18.6577
G01 X43.2982 Y18.7606
G01 X43.0936 Y18.8309
G01 X42.8802 Y18.8665
G01 X42.6638 Y18.8665
G01 X42.4504 Y18.8309
G01 X42.2458 Y18.7606
G01 X42.0555 Y18.6577
G00 Z2.0000
G00 X43.8584 Y17.0658
G01 F60.00
G01 Z-0.0500
G01 F120.00
G01 X63.3460 Y17.0659
G01 X63.3945 Y17.0682
G01 X63.4332 Y17.0737
G01 X63.4519 Y17.0775
G01 X63.4851 Y17.0858
G01 X63.4988 Y17.0902
G01 X63.5355 Y17.1035
G01 X63.5794 Y17.1243
G01 X63.6211 Y17.1493
G01 X63.6564 Y17.1753
G01 X63.6674 Y17.1845
G01 X63.6961 Y17.2109
G01 X67.6331 Y21.1479
G01 X67.6595 Y21.1766
G01 X67.6716 Y21.1914
G01 X67.6947 Y21.2229
G01 X67.7150 Y21.2563
G01 X67.7240 Y21.2731
G01 X67.7405 Y21.3085
G01 X67.7538 Y21.3452
G01 X67.7594 Y21.3635
G01 X67.7686 Y21.4014
G01 X67.7746 Y21.4400
G01 X67.7765 Y21.4590
G01 X67.7781 Y21.4980
G01 X67.7781 Y33.2309
G01 X72.9609 Y38.4137
G01 X73.0321 Y38.3885
G01 X73.1412 Y38.3610
G01 X73.1553 Y38.3583
G01 X73.2524 Y38.3439
G01 X73.2666 Y38.3423
G01 X73.3790 Y38.3370
G01 X73.4866 Y38.3421
G01 X73.5056 Y38.3439
G01 X73.6027 Y38.3583
G01 X73.6168 Y38.3610
G01 X73.7259 Y38.3885
G01 X73.8274 Y38.4245
G01 X73.8451 Y38.4318
G01 X73.9423 Y38.4781
G01 X74.0429 Y38.5384
G01 X74.1296 Y38.6024
G01 X74.1443 Y38.6145
G01 X74.2171 Y38.6804
G01 X74.2306 Y38.6939
G01 X74.3027 Y38.7739
G01 X74.3726 Y38.8681
G01 X74.4329 Y38.9687
G01 X74.4830 Y39.0747
G01 X74.5225 Y39.1851
G01 X74.5510 Y39.2989
G01 X74.5682 Y39.4149
G01 X74.5738 Y39.5224
G01 X74.5738 Y39.5416
G01 X74.5689 Y39.6396
G01 X74.5671 Y39.6586
G01 X74.5510 Y39.7651
G01 X74.5251 Y39.8697
G01 X74.5195 Y39.8880
G01 X74.4830 Y39.9893
G01 X74.4329 Y40.0953
G01 X74.3726 Y40.1959
G01 X74.3057 Y40.2864
G01 X74.2965 Y40.2973
G01 X74.2240 Y40.3770
G01 X74.1371 Y40.4557
G01 X74.0429 Y40.5256
G01 X73.9423 Y40.5859
G01 X73.8363 Y40.6360
G01 X73.7259 Y40.6755
G01 X73.6121 Y40.7040
G01 X73.4961 Y40.7212
G01 X73.3790 Y40.7270
G01 X73.2619 Y40.7212
G01 X73.1459 Y40.7040
G01 X73.0321 Y40.6755
G01 X72.9217 Y40.6360
G01 X72.8157 Y40.5859
G01 X72.7151 Y40.5256
G01 X72.6284 Y40.4616
G01 X72.6137 Y40.4495
G01 X72.5340 Y40.3770
G01 X72.4615 Y40.2973
G01 X72.4494 Y40.2826
G01 X72.3854 Y40.1959
G01 X72.3251 Y40.0953
G01 X72.2788 Y39.9981
G01 X72.2715 Y39.9804
G01 X72.2385 Y39.8880
G01 X72.2341 Y39.8743
G01 X72.2070 Y39.7651
G01 X72.1909 Y39.6586
G01 X72.1891 Y39.6396
G01 X72.1842 Y39.5416
G01 X72.1841 Y39.5272
G01 X72.1898 Y39.4149
G01 X72.2061 Y39.3036
G01 X72.2091 Y39.2895
G01 X72.2341 Y39.1897
G01 X72.2385 Y39.1760
G01 X72.2607 Y39.1139
G01 X66.9329 Y33.7861
G01 X66.9002 Y33.7501
G01 X66.8768 Y33.7189
G01 X66.8662 Y33.7030
G01 X66.8510 Y33.6777
G01 X66.8441 Y33.6652
G01 X66.8274 Y33.6299
G01 X66.8221 Y33.6166
G01 X66.8092 Y33.5797
G01 X66.7995 Y33.5419
G01 X66.7957 Y33.5232
G01 X66.7902 Y33.4845
G01 X66.7879 Y33.4360
G01 X66.7879 Y21.7031
G01 X63.1409 Y18.0561
G01 X43.8584 Y18.0561
G01 X43.8259 Y18.1243
G01 X43.7682 Y18.2209
G01 X43.7601 Y18.2327
G01 X43.7016 Y18.3116
G01 X43.6927 Y18.3228
G01 X43.6170 Y18.4060
G01 X43.5373 Y18.4785
G01 X43.5226 Y18.4906
G01 X43.4437 Y18.5491
G01 X43.4319 Y18.5572
G01 X43.3353 Y18.6149
G01 X43.2381 Y18.6612
G01 X43.2204 Y18.6685
G01 X43.1189 Y18.7045
G01 X43.0145 Y18.7309
G01 X42.9957 Y18.7347
G01 X42.8891 Y18.7502
G01 X42.7720 Y18.7560
G01 X42.6549 Y18.7502
G01 X42.5483 Y18.7347
G01 X42.5295 Y18.7309
G01 X42.4251 Y18.7045
G01 X42.3236 Y18.6685
G01 X42.3059 Y18.6612
G01 X42.2087 Y18.6149
G01 X42.1081 Y18.5546
G01 X42.0139 Y18.4847
G01 X41.9339 Y18.4126
G01 X41.9204 Y18.3991
G01 X41.8483 Y18.3191
G01 X41.7839 Y18.2327
G01 X41.7733 Y18.2168
G01 X41.7181 Y18.1243
G01 X41.6698 Y18.0227
G01 X41.6645 Y18.0094
G01 X41.6285 Y17.9079
G01 X41.6000 Y17.7941
G01 X41.5828 Y17.6781
G01 X41.5770 Y17.5610
G01 X41.5828 Y17.4439
G01 X41.6000 Y17.3279
G01 X41.6285 Y17.2141
G01 X41.6680 Y17.1037
G01 X41.7181 Y16.9977
G01 X41.7784 Y16.8971
G01 X41.8483 Y16.8029
G01 X41.9270 Y16.7160
G01 X42.0139 Y16.6373
G01 X42.1081 Y16.5674
G01 X42.2087 Y16.5071
G01 X42.3103 Y16.4588
G01 X42.3236 Y16.4535
G01 X42.4251 Y16.4175
G01 X42.5389 Y16.3890
G01 X42.6549 Y16.3718
G01 X42.7720 Y16.3660
G01 X42.8891 Y16.3718
G01 X43.0051 Y16.3890
G01 X43.1189 Y16.4175
G01 X43.2249 Y16.4552
G01 X43.2381 Y16.4608
G01 X43.3353 Y16.5071
G01 X43.4359 Y16.5674
G01 X43.5301 Y16.6373
G01 X43.6136 Y16.7127
G01 X43.6236 Y16.7229
G01 X43.6957 Y16.8029
G01 X43.7629 Y16.8931
G01 X43.7707 Y16.9052
G01 X43.8236 Y16.9935
G01 X43.8302 Y17.0062
G01 X43.8584 Y17.0658
G00 Z2.0000
G00 X34.9360 Y11.1050
G01 F60.00
G01 Z-0.0500
G01 F120.00
G01 X34.9551 Y11.1059
G01 X34.9693 Y11.1079
G01 X34.9880 Y11.1121
G01 X35.0062 Y11.1181
G01 X35.0237 Y11.1258
G01 X35.0403 Y11.1353
G01 X35.0560 Y11.1463
G01 X35.0705 Y11.1588
G01 X35.0837 Y11.1726
G01 X35.0954 Y11.1877
G01 X35.1057 Y11.2039
G01 X35.1123 Y11.2166
G01 X35.1196 Y11.2343
G01 X35.1252 Y11.2526
G01 X35.1281 Y11.2667
G01 X35.1305 Y11.2857
G01 X35.1310 Y11.3000
G01 X35.1309 Y12.9048
G01 X35.1301 Y12.9191
G01 X35.1273 Y12.9380
G01 X35.1226 Y12.9566
G01 X35.1162 Y12.9746
G01 X35.1102 Y12.9877
G01 X35.1007 Y13.0043
G01 X35.0926 Y13.0162
G01 X35.0805 Y13.0310
G01 X35.0705 Y13.0412
G01 X35.0634 Y13.0477
G01 X35.0483 Y13.0594
G01 X35.0321 Y13.0697
G01 X35.0150 Y13.0783
G01 X34.9972 Y13.0852
G01 X34.9880 Y13.0879
G01 X34.9740 Y13.0913
G01 X34.9551 Y13.0941
G01 X34.9360 Y13.0950
G01 X33.3312 Y13.0949
G01 X33.3121 Y13.0935
G01 X33.2980 Y13.0913
G01 X33.2840 Y13.0879
G01 X33.2658 Y13.0819
G01 X33.2526 Y13.0763
G01 X33.2358 Y13.0673
G01 X33.2198 Y13.0566
G01 X33.2050 Y13.0445
G01 X33.1948 Y13.0345
G01 X33.1883 Y13.0274
G01 X33.1766 Y13.0123
G01 X33.1663 Y12.9961
G01 X33.1577 Y12.9790
G01 X33.1541 Y12.9702
G01 X33.1494 Y12.9566
G01 X33.1447 Y12.9380
G01 X33.1419 Y12.9191
G01 X33.1410 Y12.9000
G01 X33.1411 Y11.2952
G01 X33.1425 Y11.2761
G01 X33.1447 Y11.2620
G01 X33.1481 Y11.2480
G01 X33.1541 Y11.2298
G01 X33.1618 Y11.2123
G01 X33.1713 Y11.1957
G01 X33.1794 Y11.1838
G01 X33.1915 Y11.1690
G01 X33.1981 Y11.1621
G01 X33.2086 Y11.1523
G01 X33.2237 Y11.1406
G01 X33.2399 Y11.1303
G01 X33.2570 Y11.1217
G01 X33.2748 Y11.1148
G01 X33.2933 Y11.1097
G01 X33.3121 Y11.1065
G01 X33.3312 Y11.1051
G01 X34.9360 Y11.1050
G00 Z2.0000
G00 X33.0651 Y10.5079
G01 F60.00
G01 Z-0.0500
G01 F120.00
G01 X33.0332 Y10.4223
G01 X33.0305 Y10.3974
G01 X33.0305 Y8.7226
G01 X33.0332 Y8.6977
G01 X33.0651 Y8.6121
G01 X33.1178 Y8.5418
G01 X33.1881 Y8.4891
G01 X33.2737 Y8.4572
G01 X33.2986 Y8.4545
G01 X34.9734 Y8.4545
G01 X34.9983 Y8.4572
G01 X35.0839 Y8.4891
G01 X35.1542 Y8.5418
G01 X35.2069 Y8.6121
G01 X35.2388 Y8.6977
G01 X35.2415 Y8.7226
G01 X35.2415 Y10.3974
G01 X35.2388 Y10.4223
G01 X35.2069 Y10.5079
G01 X35.1540 Y10.5786
G01 X35.1349 Y10.5949
G01 X35.1247 Y10.6044
G01 X35.1152 Y10.6146
G01 X35.1065 Y10.6255
G01 X35.1011 Y10.6330
G01 X35.0937 Y10.6448
G01 X35.0557 Y10.7145
G01 X35.0514 Y10.7232
G01 X35.0460 Y10.7366
G01 X35.0402 Y10.7551
G01 X35.0371 Y10.7693
G01 X35.0357 Y10.7789
G01 X35.0343 Y10.7934
G01 X35.0341 Y10.8030
G01 X35.0346 Y10.8175
G01 X35.0396 Y10.8872
G01 X35.0411 Y10.9017
G01 X35.0438 Y10.9160
G01 X35.0461 Y10.9254
G01 X35.0505 Y10.9392
G01 X35.0559 Y10.9527
G01 X35.0647 Y10.9700
G01 X35.0723 Y10.9823
G01 X35.1198 Y11.0461
G01 X35.1286 Y11.0570
G01 X35.1348 Y11.0638
G01 X35.1448 Y11.0736
G01 X35.1540 Y11.0814
G01 X35.2069 Y11.1521
G01 X35.2388 Y11.2377
G01 X35.2415 Y11.2626
G01 X35.2415 Y12.9374
G01 X35.2388 Y12.9623
G01 X35.2069 Y13.0479
G01 X35.1542 Y13.1182
G01 X35.0839 Y13.1709
G01 X34.9983 Y13.2028
G01 X34.9734 Y13.2055
G01 X33.2986 Y13.2055
G01 X33.2737 Y13.2028
G01 X33.1881 Y13.1709
G01 X33.1178 Y13.1182
G01 X33.0651 Y13.0479
G01 X33.0332 Y12.9623
G01 X33.0305 Y12.9374
G01 X33.0305 Y11.2626
G01 X33.0332 Y11.2377
G01 X33.0651 Y11.1521
G01 X33.1180 Y11.0814
G01 X33.1371 Y11.0651
G01 X33.1473 Y11.0556
G01 X33.1568 Y11.0454
G01 X33.1655 Y11.0345
G01 X33.1735 Y11.0231
G01 X33.1783 Y11.0152
G01 X33.2163 Y10.9455
G01 X33.2206 Y10.9368
G01 X33.2261 Y10.9234
G01 X33.2305 Y10.9096
G01 X33.2329 Y10.9002
G01 X33.2349 Y10.8907
G01 X33.2369 Y10.8763
G01 X33.2377 Y10.8666
G01 X33.2379 Y10.8521
G01 X33.2324 Y10.7728
G01 X33.2301 Y10.7535
G01 X33.2271 Y10.7393
G01 X33.2231 Y10.7254
G01 X33.2180 Y10.7118
G01 X33.2119 Y10.6986
G01 X33.2049 Y10.6859
G01 X33.1969 Y10.6737
G01 X33.1493 Y10.6102
G01 X33.1404 Y10.5996
G01 X33.1340 Y10.5928
G01 X33.1272 Y10.5864
G01 X33.1180 Y10.5786
G01 X33.0651 Y10.5079
G00 Z2.0000
G00 X34.9360 Y8.5650
G01 F60.00
G01 Z-0.0500
G01 F120.00
G01 X34.9551 Y8.5659
G01 X34.9693 Y8.5679
G01 X34.9880 Y8.5721
G01 X35.0062 Y8.5781
G01 X35.0237 Y8.5858
G01 X35.0403 Y8.5953
G01 X35.0560 Y8.6063
G01 X35.0705 Y8.6188
G01 X35.0837 Y8.6326
G01 X35.0954 Y8.6477
G01 X35.1057 Y8.6639
G01 X35.1123 Y8.6766
G01 X35.1196 Y8.6943
G01 X35.1252 Y8.7126
G01 X35.1281 Y8.7267
G01 X35.1305 Y8.7457
G01 X35.1310 Y8.7600
G01 X35.1309 Y10.3648
G01 X35.1301 Y10.3791
G01 X35.1273 Y10.3980
G01 X35.1226 Y10.4166
G01 X35.1162 Y10.4346
G01 X35.1102 Y10.4477
G01 X35.1007 Y10.4643
G01 X35.0926 Y10.4762
G01 X35.0805 Y10.4910
G01 X35.0705 Y10.5012
G01 X35.0634 Y10.5077
G01 X35.0483 Y10.5194
G01 X35.0321 Y10.5297
G01 X35.0150 Y10.5383
G01 X34.9972 Y10.5452
G01 X34.9880 Y10.5479
G01 X34.9740 Y10.5513
G01 X34.9551 Y10.5541
G01 X34.9360 Y10.5550
G01 X33.3312 Y10.5549
G01 X33.3121 Y10.5535
G01 X33.2980 Y10.5513
G01 X33.2840 Y10.5479
G01 X33.2658 Y10.5419
G01 X33.2526 Y10.5363
G01 X33.2358 Y10.5273
G01 X33.2198 Y10.5166
G01 X33.2050 Y10.5045
G01 X33.1948 Y10.4945
G01 X33.1883 Y10.4874
G01 X33.1766 Y10.4723
G01 X33.1663 Y10.4561
G01 X33.1577 Y10.4390
G01 X33.1541 Y10.4302
G01 X33.1494 Y10.4166
G01 X33.1447 Y10.3980
G01 X33.1419 Y10.3791
G01 X33.1410 Y10.3600
G01 X33.1411 Y8.7552
G01 X33.1425 Y8.7361
G01 X33.1447 Y8.7220
G01 X33.1481 Y8.7080
G01 X33.1541 Y8.6898
G01 X33.1618 Y8.6723
G01 X33.1713 Y8.6557
G01 X33.1794 Y8.6438
G01 X33.1915 Y8.6290
G01 X33.1981 Y8.6221
G01 X33.2086 Y8.6123
G01 X33.2237 Y8.6006
G01 X33.2399 Y8.5903
G01 X33.2570 Y8.5817
G01 X33.2748 Y8.5748
G01 X33.2933 Y8.5697
G01 X33.3121 Y8.5665
G01 X33.3312 Y8.5651
G01 X34.9360 Y8.5650
G00 Z2.0000
G00 X51.4921 Y30.3984
G01 F60.00
G01 Z-0.0500
G01 F120.00
G01 X51.5346 Y30.4450
G01 X51.5535 Y30.4639
G01 X51.6143 Y30.5192
G01 X51.6345 Y30.5367
G01 X51.6557 Y30.5532
G01 X51.7108 Y30.5941
G01 X51.7328 Y30.6095
G01 X51.7554 Y30.6238
G01 X51.8259 Y30.6659
G01 X51.8495 Y30.6785
G01 X51.8616 Y30.6844
G01 X51.9359 Y30.7194
G01 X51.9606 Y30.7296
G01 X52.0379 Y30.7574
G01 X52.0633 Y30.7658
G01 X52.0891 Y30.7730
G01 X52.1688 Y30.7928
G01 X52.1954 Y30.7981
G01 X52.1944 Y30.8287
G01 X52.1948 Y30.8490
G01 X52.1688 Y30.8542
G01 X52.1558 Y30.8573
G01 X52.0891 Y30.8740
G01 X52.0633 Y30.8812
G01 X52.0379 Y30.8896
G01 X51.9732 Y30.9127
G01 X51.9482 Y30.9223
G01 X51.9237 Y30.9332
G01 X51.8616 Y30.9626
G01 X51.8376 Y30.9746
G01 X51.8143 Y30.9878
G01 X51.7440 Y31.0302
G01 X51.7217 Y31.0451
G01 X51.7108 Y31.0529
G01 X51.6450 Y31.1020
G01 X51.6243 Y31.1190
G01 X51.5634 Y31.1740
G01 X51.5439 Y31.1924
G01 X51.5255 Y31.2119
G01 X51.4921 Y31.2486
G01 X51.4921 Y30.3984
G00 Z2.0000
G00 X52.7586 Y31.2432
G01 F60.00
G01 Z-0.0500
G01 F120.00
G01 X52.7763 Y31.2505
G01 X52.8469 Y31.2842
G01 X52.9222 Y31.3293
G01 X52.9928 Y31.3817
G01 X53.0579 Y31.4406
G01 X53.1168 Y31.5057
G01 X53.1692 Y31.5763
G01 X53.2143 Y31.6516
G01 X53.2519 Y31.7310
G01 X53.2815 Y31.8137
G01 X53.3028 Y31.8989
G01 X53.3157 Y31.9858
G01 X53.3200 Y32.0735
G01 X53.3157 Y32.1612
G01 X53.3028 Y32.2481
G01 X53.2815 Y32.3333
G01 X53.2519 Y32.4160
G01 X53.2143 Y32.4954
G01 X53.1692 Y32.5707
G01 X53.1168 Y32.6413
G01 X53.0579 Y32.7064
G01 X52.9928 Y32.7653
G01 X52.9222 Y32.8177
G01 X52.8469 Y32.8628
G01 X52.7675 Y32.9004
G01 X52.6848 Y32.9300
G01 X52.5996 Y32.9513
G01 X52.5127 Y32.9642
G01 X52.4250 Y32.9685
G01 X52.3373 Y32.9642
G01 X52.2504 Y32.9513
G01 X52.1652 Y32.9300
G01 X52.0825 Y32.9004
G01 X52.0031 Y32.8628
G01 X51.9278 Y32.8177
G01 X51.8572 Y32.7653
G01 X51.7921 Y32.7064
G01 X51.7332 Y32.6413
G01 X51.6808 Y32.5707
G01 X51.6357 Y32.4954
G01 X51.5981 Y32.4160
G01 X51.5685 Y32.3333
G01 X51.5472 Y32.2481
G01 X51.5343 Y32.1612
G01 X51.5300 Y32.0735
G01 X51.5343 Y31.9858
G01 X51.5472 Y31.8989
G01 X51.5685 Y31.8137
G01 X51.5981 Y31.7310
G01 X51.6357 Y31.6516
G01 X51.6808 Y31.5763
G01 X51.7332 Y31.5057
G01 X51.7921 Y31.4406
G01 X51.8572 Y31.3817
G01 X51.9278 Y31.3293
G01 X52.0031 Y31.2842
G01 X52.0825 Y31.2466
G01 X52.1652 Y31.2170
G01 X52.2504 Y31.1957
G01 X52.3373 Y31.1828
G01 X52.4250 Y31.1785
G01 X52.5127 Y31.1828
G01 X52.5996 Y31.1957
G01 X52.6848 Y31.2170
G01 X52.7586 Y31.2432
G00 Z2.0000
G00 X53.2882 Y29.8074
G01 F60.00
G01 Z-0.0500
G01 F120.00
G01 X53.3028 Y29.7481
G01 X53.3145 Y29.6707
G01 X53.3164 Y29.6517
G01 X53.3200 Y29.5735
G01 X53.3164 Y29.4953
G01 X53.3145 Y29.4763
G01 X53.3028 Y29.3989
G01 X53.2882 Y29.3396
G01 X53.3778 Y29.2500
G01 X53.4171 Y29.3880
G01 X53.4343 Y29.5735
G01 X53.4171 Y29.7590
G01 X53.3778 Y29.8970
G01 X53.2882 Y29.8074
G00 Z2.0000
G00 X56.0586 Y28.7432
G01 F60.00
G01 Z-0.0500
G01 F120.00
G01 X56.0763 Y28.7505
G01 X56.1469 Y28.7842
G01 X56.2222 Y28.8293
G01 X56.2928 Y28.8817
G01 X56.3579 Y28.9406
G01 X56.4168 Y29.0057
G01 X56.4692 Y29.0763
G01 X56.5143 Y29.1516
G01 X56.5519 Y29.2310
G01 X56.5815 Y29.3137
G01 X56.6028 Y29.3989
G01 X56.6157 Y29.4858
G01 X56.6200 Y29.5735
G01 X56.6157 Y29.6612
G01 X56.6028 Y29.7481
G01 X56.5815 Y29.8333
G01 X56.5519 Y29.9160
G01 X56.5143 Y29.9954
G01 X56.4692 Y30.0707
G01 X56.4168 Y30.1413
G01 X56.3579 Y30.2064
G01 X56.2928 Y30.2653
G01 X56.2222 Y30.3177
G01 X56.1469 Y30.3628
G01 X56.0675 Y30.4004
G01 X55.9848 Y30.4300
G01 X55.8996 Y30.4513
G01 X55.8127 Y30.4642
G01 X55.7250 Y30.4685
G01 X55.6373 Y30.4642
G01 X55.5504 Y30.4513
G01 X55.4652 Y30.4300
G01 X55.3825 Y30.4004
G01 X55.3031 Y30.3628
G01 X55.2278 Y30.3177
G01 X55.1572 Y30.2653
G01 X55.0921 Y30.2064
G01 X55.0332 Y30.1413
G01 X54.9808 Y30.0707
G01 X54.9357 Y29.9954
G01 X54.8981 Y29.9160
G01 X54.8685 Y29.8333
G01 X54.8472 Y29.7481
G01 X54.8343 Y29.6612
G01 X54.8300 Y29.5735
G01 X54.8343 Y29.4858
G01 X54.8472 Y29.3989
G01 X54.8685 Y29.3137
G01 X54.8981 Y29.2310
G01 X54.9357 Y29.1516
G01 X54.9808 Y29.0763
G01 X55.0332 Y29.0057
G01 X55.0921 Y28.9406
G01 X55.1572 Y28.8817
G01 X55.2278 Y28.8293
G01 X55.3031 Y28.7842
G01 X55.3825 Y28.7466
G01 X55.4652 Y28.7170
G01 X55.5504 Y28.6957
G01 X55.6373 Y28.6828
G01 X55.7250 Y28.6785
G01 X55.8127 Y28.6828
G01 X55.8996 Y28.6957
G01 X55.9848 Y28.7170
G01 X56.0586 Y28.7432
G00 Z2.0000
G00 X56.0586 Y31.2432
G01 F60.00
G01 Z-0.0500
G01 F120.00
G01 X56.0763 Y31.2505
G01 X56.1469 Y31.2842
G01 X56.2222 Y31.3293
G01 X56.2928 Y31.3817
G01 X56.3579 Y31.4406
G01 X56.4168 Y31.5057
G01 X56.4692 Y31.5763
G01 X56.5143 Y31.6516
G01 X56.5519 Y31.7310
G01 X56.5815 Y31.8137
G01 X56.6028 Y31.8989
G01 X56.6157 Y31.9858
G01 X56.6200 Y32.0735
G01 X56.6157 Y32.1612
G01 X56.6028 Y32.2481
G01 X56.5815 Y32.3333
G01 X56.5519 Y32.4160
G01 X56.5143 Y32.4954
G01 X56.4692 Y32.5707
G01 X56.4168 Y32.6413
G01 X56.3579 Y32.7064
G01 X56.2928 Y32.7653
G01 X56.2222 Y32.8177
G01 X56.1469 Y32.8628
G01 X56.0675 Y32.9004
G01 X55.9848 Y32.9300
G01 X55.8996 Y32.9513
G01 X55.8127 Y32.9642
G01 X55.7250 Y32.9685
G01 X55.6373 Y32.9642
G01 X55.5504 Y32.9513
G01 X55.4652 Y32.9300
G01 X55.3825 Y32.9004
G01 X55.3031 Y32.8628
G01 X55.2278 Y32.8177
G01 X55.1572 Y32.7653
G01 X55.0921 Y32.7064
G01 X55.0332 Y32.6413
G01 X54.9808 Y32.5707
G01 X54.9357 Y32.4954
G01 X54.8981 Y32.4160
G01 X54.8685 Y32.3333
G01 X54.8472 Y32.2481
G01 X54.8343 Y32.1612
G01 X54.8300 Y32.0735
G01 X54.8343 Y31.9858
G01 X54.8472 Y31.8989
G01 X54.8685 Y31.8137
G01 X54.8981 Y31.7310
G01 X54.9357 Y31.6516
G01 X54.9808 Y31.5763
G01 X55.0332 Y31.5057
G01 X55.0921 Y31.4406
G01 X55.1572 Y31.3817
G01 X55.2278 Y31.3293
G01 X55.3031 Y31.2842
G01 X55.3825 Y31.2466
G01 X55.4652 Y31.2170
G01 X55.5504 Y31.1957
G01 X55.6373 Y31.1828
G01 X55.7250 Y31.1785
G01 X55.8127 Y31.1828
G01 X55.8996 Y31.1957
G01 X55.9848 Y31.2170
G01 X56.0586 Y31.2432
G00 Z2.0000
G00 X56.0586 Y33.7432
G01 F60.00
G01 Z-0.0500
G01 F120.00
G01 X56.0763 Y33.7505
G01 X56.1469 Y33.7842
G01 X56.2222 Y33.8293
G01 X56.2928 Y33.8817
G01 X56.3579 Y33.9406
G01 X56.4168 Y34.0057
G01 X56.4692 Y34.0763
G01 X56.5143 Y34.1516
G01 X56.5519 Y34.2310
G01 X56.5815 Y34.3137
G01 X56.6028 Y34.3989
G01 X56.6157 Y34.4858
G01 X56.6200 Y34.5735
G01 X56.6157 Y34.6612
G01 X56.6028 Y34.7481
G01 X56.5815 Y34.8333
G01 X56.5519 Y34.9160
G01 X56.5143 Y34.9954
G01 X56.4692 Y35.0707
G01 X56.4168 Y35.1413
G01 X56.3579 Y35.2064
G01 X56.2928 Y35.2653
G01 X56.2222 Y35.3177
G01 X56.1469 Y35.3628
G01 X56.0675 Y35.4004
G01 X55.9848 Y35.4300
G01 X55.8996 Y35.4513
G01 X55.8127 Y35.4642
G01 X55.7250 Y35.4685
G01 X55.6373 Y35.4642
G01 X55.5504 Y35.4513
G01 X55.4652 Y35.4300
G01 X55.3825 Y35.4004
G01 X55.3031 Y35.3628
G01 X55.2278 Y35.3177
G01 X55.1572 Y35.2653
G01 X55.0921 Y35.2064
G01 X55.0332 Y35.1413
G01 X54.9808 Y35.0707
G01 X54.9357 Y34.9954
G01 X54.8981 Y34.9160
G01 X54.8685 Y34.8333
G01 X54.8472 Y34.7481
G01 X54.8343 Y34.6612
G01 X54.8300 Y34.5735
G01 X54.8343 Y34.4858
G01 X54.8472 Y34.3989
G01 X54.8685 Y34.3137
G01 X54.8981 Y34.2310
G01 X54.9357 Y34.1516
G01 X54.9808 Y34.0763
G01 X55.0332 Y34.0057
G01 X55.0921 Y33.9406
G01 X55.1572 Y33.8817
G01 X55.2278 Y33.8293
G01 X55.3031 Y33.7842
G01 X55.3825 Y33.7466
G01 X55.4652 Y33.7170
G01 X55.5504 Y33.6957
G01 X55.6373 Y33.6828
G01 X55.7250 Y33.6785
G01 X55.8127 Y33.6828
G01 X55.8996 Y33.6957
G01 X55.9848 Y33.7170
G01 X56.0586 Y33.7432
G00 Z2.0000
G00 X54.7324 Y34.7590
G01 F60.00
G01 Z-0.0500
G01 F120.00
G01 X54.7152 Y34.5735
G01 X54.7324 Y34.3879
G01 X54.7834 Y34.2087
G01 X54.8664 Y34.0419
G01 X54.9787 Y33.8932
G01 X55.1165 Y33.7677
G01 X55.2749 Y33.6696
G01 X55.4057 Y33.6188
G01 X55.4285 Y33.6084
G01 X55.4412 Y33.6016
G01 X55.4573 Y33.5912
G01 X55.4723 Y33.5792
G01 X55.5293 Y33.5239
G01 X55.5361 Y33.5170
G01 X55.5456 Y33.5060
G01 X55.5569 Y33.4903
G01 X55.5643 Y33.4778
G01 X55.5687 Y33.4692
G01 X55.5763 Y33.4513
G01 X55.5820 Y33.4328
G01 X55.5999 Y33.3553
G01 X55.6029 Y33.3362
G01 X55.6039 Y33.3169
G01 X55.6034 Y33.3023
G01 X55.6018 Y33.2879
G01 X55.6002 Y33.2784
G01 X55.5968 Y33.2642
G01 X55.5924 Y33.2504
G01 X55.5654 Y33.1756
G01 X55.5614 Y33.1667
G01 X55.5547 Y33.1538
G01 X55.5443 Y33.1375
G01 X55.5354 Y33.1260
G01 X55.5291 Y33.1187
G01 X55.5153 Y33.1051
G01 X55.5041 Y33.0958
G01 X55.4450 Y33.0505
G01 X55.4335 Y33.0427
G01 X55.4255 Y33.0379
G01 X55.4131 Y33.0315
G01 X55.4046 Y33.0278
G01 X55.2749 Y32.9774
G01 X55.1165 Y32.8793
G01 X54.9787 Y32.7538
G01 X54.8664 Y32.6051
G01 X54.7834 Y32.4383
G01 X54.7324 Y32.2591
G01 X54.7152 Y32.0735
G01 X54.7324 Y31.8879
G01 X54.7834 Y31.7087
G01 X54.8664 Y31.5419
G01 X54.9787 Y31.3932
G01 X55.1165 Y31.2677
G01 X55.2749 Y31.1696
G01 X55.4057 Y31.1188
G01 X55.4285 Y31.1084
G01 X55.4412 Y31.1016
G01 X55.4573 Y31.0912
G01 X55.4723 Y31.0792
G01 X55.5293 Y31.0239
G01 X55.5393 Y31.0134
G01 X55.5456 Y31.0060
G01 X55.5569 Y30.9903
G01 X55.5643 Y30.9778
G01 X55.5687 Y30.9692
G01 X55.5763 Y30.9513
G01 X55.5820 Y30.9328
G01 X55.5999 Y30.8553
G01 X55.6029 Y30.8362
G01 X55.6039 Y30.8169
G01 X55.6034 Y30.8023
G01 X55.6018 Y30.7879
G01 X55.6002 Y30.7784
G01 X55.5968 Y30.7642
G01 X55.5924 Y30.7504
G01 X55.5672 Y30.6801
G01 X55.5634 Y30.6711
G01 X55.5570 Y30.6581
G01 X55.5470 Y30.6415
G01 X55.5354 Y30.6260
G01 X55.5224 Y30.6117
G01 X55.5079 Y30.5988
G01 X55.4487 Y30.5533
G01 X55.4374 Y30.5452
G01 X55.4255 Y30.5379
G01 X55.4131 Y30.5315
G01 X55.4046 Y30.5278
G01 X55.2749 Y30.4774
G01 X55.1165 Y30.3793
G01 X54.9788 Y30.2538
G01 X54.8663 Y30.1049
G01 X54.7834 Y29.9383
G01 X54.7324 Y29.7591
G01 X54.7152 Y29.5735
G01 X54.7324 Y29.3879
G01 X54.7834 Y29.2087
G01 X54.8664 Y29.0419
G01 X54.9787 Y28.8932
G01 X55.1165 Y28.7677
G01 X55.2749 Y28.6696
G01 X55.4487 Y28.6022
G01 X55.6318 Y28.5680
G01 X55.8182 Y28.5680
G01 X56.0013 Y28.6022
G01 X56.1751 Y28.6696
G01 X56.3335 Y28.7677
G01 X56.4713 Y28.8932
G01 X56.5836 Y29.0419
G01 X56.6666 Y29.2087
G01 X56.7176 Y29.3880
G01 X56.7348 Y29.5735
G01 X56.7176 Y29.7591
G01 X56.6666 Y29.9383
G01 X56.5836 Y30.1051
G01 X56.4713 Y30.2538
G01 X56.3335 Y30.3793
G01 X56.1751 Y30.4774
G01 X56.0443 Y30.5282
G01 X56.0215 Y30.5386
G01 X56.0088 Y30.5454
G01 X55.9927 Y30.5558
G01 X55.9777 Y30.5678
G01 X55.9173 Y30.6265
G01 X55.9107 Y30.6336
G01 X55.9015 Y30.6449
G01 X55.8958 Y30.6527
G01 X55.8881 Y30.6650
G01 X55.8813 Y30.6778
G01 X55.8773 Y30.6867
G01 X55.8721 Y30.7002
G01 X55.8680 Y30.7142
G01 X55.8501 Y30.7917
G01 X55.8471 Y30.8108
G01 X55.8462 Y30.8253
G01 X55.8463 Y30.8398
G01 X55.8475 Y30.8543
G01 X55.8508 Y30.8734
G01 X55.8532 Y30.8828
G01 X55.8576 Y30.8966
G01 X55.8828 Y30.9669
G01 X55.8907 Y30.9846
G01 X55.8978 Y30.9973
G01 X55.9086 Y31.0134
G01 X55.9209 Y31.0283
G01 X55.9347 Y31.0419
G01 X55.9459 Y31.0512
G01 X56.0050 Y31.0965
G01 X56.0126 Y31.1018
G01 X56.0245 Y31.1091
G01 X56.0327 Y31.1134
G01 X56.0454 Y31.1192
G01 X56.1751 Y31.1696
G01 X56.3335 Y31.2677
G01 X56.4713 Y31.3932
G01 X56.5836 Y31.5419
G01 X56.6666 Y31.7087
G01 X56.7176 Y31.8880
G01 X56.7348 Y32.0735
G01 X56.7176 Y32.2591
G01 X56.6666 Y32.4383
G01 X56.5836 Y32.6051
G01 X56.4713 Y32.7538
G01 X56.3335 Y32.8793
G01 X56.1751 Y32.9774
G01 X56.0443 Y33.0282
G01 X56.0215 Y33.0386
G01 X56.0088 Y33.0454
G01 X55.9927 Y33.0558
G01 X55.9777 Y33.0678
G01 X55.9173 Y33.1265
G01 X55.9107 Y33.1336
G01 X55.9015 Y33.1449
G01 X55.8905 Y33.1608
G01 X55.8857 Y33.1692
G01 X55.8792 Y33.1822
G01 X55.8737 Y33.1957
G01 X55.8706 Y33.2048
G01 X55.8668 Y33.2189
G01 X55.8511 Y33.2869
G01 X55.8484 Y33.3012
G01 X55.8467 Y33.3156
G01 X55.8462 Y33.3253
G01 X55.8463 Y33.3398
G01 X55.8475 Y33.3543
G01 X55.8508 Y33.3734
G01 X55.8560 Y33.3920
G01 X55.8812 Y33.4624
G01 X55.8866 Y33.4759
G01 X55.8953 Y33.4931
G01 X55.9057 Y33.5095
G01 X55.9177 Y33.5247
G01 X55.9311 Y33.5386
G01 X55.9459 Y33.5512
G01 X56.0013 Y33.5937
G01 X56.0126 Y33.6018
G01 X56.0245 Y33.6091
G01 X56.0369 Y33.6155
G01 X56.0454 Y33.6192
G01 X56.1751 Y33.6696
G01 X56.3335 Y33.7677
G01 X56.4713 Y33.8932
G01 X56.5836 Y34.0419
G01 X56.6666 Y34.2087
G01 X56.7176 Y34.3880
G01 X56.7348 Y34.5735
G01 X56.7176 Y34.7591
G01 X56.6666 Y34.9383
G01 X56.5836 Y35.1051
G01 X56.4713 Y35.2538
G01 X56.3335 Y35.3793
G01 X56.1751 Y35.4774
G01 X56.0013 Y35.5448
G01 X55.8182 Y35.5790
G01 X55.6318 Y35.5790
G01 X55.4487 Y35.5448
G01 X55.2749 Y35.4774
G01 X55.1165 Y35.3793
G01 X54.9787 Y35.2538
G01 X54.8664 Y35.1051
G01 X54.7834 Y34.9383
G01 X54.7324 Y34.7590
G00 Z2.0000
G00 X53.1250 Y33.6785
G01 F60.00
G01 Z-0.0500
G01 F120.00
G01 X53.1441 Y33.6794
G01 X53.1630 Y33.6822
G01 X53.1816 Y33.6869
G01 X53.1996 Y33.6933
G01 X53.2127 Y33.6993
G01 X53.2293 Y33.7088
G01 X53.2450 Y33.7198
G01 X53.2595 Y33.7323
G01 X53.2727 Y33.7461
G01 X53.2816 Y33.7573
G01 X53.2923 Y33.7733
G01 X53.3013 Y33.7901
G01 X53.3069 Y33.8033
G01 X53.3129 Y33.8215
G01 X53.3171 Y33.8402
G01 X53.3195 Y33.8592
G01 X53.3200 Y33.8735
G01 X53.3199 Y35.2783
G01 X53.3191 Y35.2926
G01 X53.3163 Y35.3115
G01 X53.3116 Y35.3301
G01 X53.3069 Y35.3437
G01 X53.3013 Y35.3569
G01 X53.2923 Y35.3737
G01 X53.2844 Y35.3858
G01 X53.2727 Y35.4009
G01 X53.2595 Y35.4147
G01 X53.2487 Y35.4242
G01 X53.2412 Y35.4301
G01 X53.2333 Y35.4356
G01 X53.2211 Y35.4432
G01 X53.2040 Y35.4518
G01 X53.1862 Y35.4587
G01 X53.1770 Y35.4614
G01 X53.1630 Y35.4648
G01 X53.1441 Y35.4676
G01 X53.1250 Y35.4685
G01 X51.7202 Y35.4684
G01 X51.7059 Y35.4676
G01 X51.6870 Y35.4648
G01 X51.6684 Y35.4601
G01 X51.6548 Y35.4554
G01 X51.6416 Y35.4498
G01 X51.6248 Y35.4408
G01 X51.6088 Y35.4301
G01 X51.5976 Y35.4212
G01 X51.5838 Y35.4080
G01 X51.5713 Y35.3935
G01 X51.5629 Y35.3818
G01 X51.5577 Y35.3737
G01 X51.5487 Y35.3569
G01 X51.5448 Y35.3481
G01 X51.5398 Y35.3347
G01 X51.5347 Y35.3162
G01 X51.5315 Y35.2974
G01 X51.5302 Y35.2831
G01 X51.5300 Y35.2735
G01 X51.5301 Y33.8687
G01 X51.5315 Y33.8496
G01 X51.5337 Y33.8355
G01 X51.5371 Y33.8215
G01 X51.5431 Y33.8033
G01 X51.5487 Y33.7901
G01 X51.5577 Y33.7733
G01 X51.5684 Y33.7573
G01 X51.5773 Y33.7461
G01 X51.5905 Y33.7323
G01 X51.6050 Y33.7198
G01 X51.6207 Y33.7088
G01 X51.6373 Y33.6993
G01 X51.6548 Y33.6916
G01 X51.6730 Y33.6856
G01 X51.6917 Y33.6814
G01 X51.7011 Y33.6800
G01 X51.7154 Y33.6787
G01 X53.1250 Y33.6785
G00 Z2.0000
G00 X44.9996 Y37.2391
G01 F60.00
G01 Z-0.0500
G01 F120.00
G01 X50.1509 Y32.0879
G01 X50.1509 Y27.3400
G01 X50.1532 Y27.2915
G01 X50.1604 Y27.2434
G01 X50.1696 Y27.2055
G01 X50.1752 Y27.1872
G01 X50.1885 Y27.1505
G01 X50.2050 Y27.1151
G01 X50.2140 Y27.0983
G01 X50.2343 Y27.0649
G01 X50.2632 Y27.0259
G01 X50.2959 Y26.9899
G01 X50.8299 Y26.4559
G01 X50.8299 Y25.1322
G01 X50.8322 Y25.0885
G01 X50.8394 Y25.0404
G01 X50.8512 Y24.9933
G01 X50.8641 Y24.9564
G01 X50.8694 Y24.9431
G01 X50.8861 Y24.9078
G01 X50.8930 Y24.8953
G01 X50.9107 Y24.8659
G01 X50.9188 Y24.8541
G01 X50.9422 Y24.8229
G01 X50.9715 Y24.7903
G01 X52.7027 Y23.0591
G01 X52.6775 Y22.9879
G01 X52.6500 Y22.8788
G01 X52.6473 Y22.8647
G01 X52.6329 Y22.7676
G01 X52.6313 Y22.7534
G01 X52.6260 Y22.6410
G01 X52.6311 Y22.5334
G01 X52.6329 Y22.5144
G01 X52.6473 Y22.4173
G01 X52.6500 Y22.4032
G01 X52.6775 Y22.2941
G01 X52.7135 Y22.1926
G01 X52.7208 Y22.1749
G01 X52.7671 Y22.0777
G01 X52.8223 Y21.9852
G01 X52.8329 Y21.9693
G01 X52.8973 Y21.8829
G01 X52.9694 Y21.8029
G01 X52.9829 Y21.7894
G01 X53.0629 Y21.7173
G01 X53.1493 Y21.6529
G01 X53.1652 Y21.6423
G01 X53.2577 Y21.5871
G01 X53.3549 Y21.5408
G01 X53.3726 Y21.5335
G01 X53.4741 Y21.4975
G01 X53.5879 Y21.4690
G01 X53.6944 Y21.4529
G01 X53.7134 Y21.4511
G01 X53.8210 Y21.4460
G01 X53.9286 Y21.4511
G01 X53.9476 Y21.4529
G01 X54.0494 Y21.4681
G01 X54.0635 Y21.4711
G01 X54.1679 Y21.4975
G01 X54.2783 Y21.5370
G01 X54.3843 Y21.5871
G01 X54.4849 Y21.6474
G01 X54.5791 Y21.7173
G01 X54.6660 Y21.7960
G01 X54.7447 Y21.8829
G01 X54.8091 Y21.9693
G01 X54.8197 Y21.9852
G01 X54.8749 Y22.0777
G01 X54.9212 Y22.1749
G01 X54.9285 Y22.1926
G01 X54.9615 Y22.2850
G01 X54.9671 Y22.3033
G01 X54.9930 Y22.4079
G01 X55.0091 Y22.5144
G01 X55.0109 Y22.5334
G01 X55.0160 Y22.6410
G01 X55.0102 Y22.7581
G01 X54.9930 Y22.8741
G01 X54.9659 Y22.9833
G01 X54.9615 Y22.9970
G01 X54.9250 Y23.0983
G01 X54.8749 Y23.2043
G01 X54.8146 Y23.3049
G01 X54.7447 Y23.3991
G01 X54.6660 Y23.4860
G01 X54.5791 Y23.5647
G01 X54.4849 Y23.6346
G01 X54.3926 Y23.6902
G01 X54.3801 Y23.6971
G01 X54.2783 Y23.7450
G01 X54.1679 Y23.7845
G01 X54.0541 Y23.8130
G01 X53.9476 Y23.8291
G01 X53.9334 Y23.8307
G01 X53.8210 Y23.8360
G01 X53.7134 Y23.8309
G01 X53.6991 Y23.8297
G01 X53.5973 Y23.8147
G01 X53.5785 Y23.8109
G01 X53.4741 Y23.7845
G01 X53.4029 Y23.7593
G01 X51.8201 Y25.3421
G01 X51.8201 Y26.6658
G01 X51.8178 Y26.7095
G01 X51.8123 Y26.7482
G01 X51.8085 Y26.7669
G01 X51.7988 Y26.8047
G01 X51.7825 Y26.8505
G01 X51.7617 Y26.8944
G01 X51.7367 Y26.9361
G01 X51.7136 Y26.9676
G01 X51.7015 Y26.9824
G01 X51.6751 Y27.0111
G01 X51.1411 Y27.5451
G01 X51.1411 Y32.2930
G01 X51.1388 Y32.3415
G01 X51.1333 Y32.3802
G01 X51.1295 Y32.3989
G01 X51.1198 Y32.4367
G01 X51.1069 Y32.4736
G01 X51.1016 Y32.4869
G01 X51.0870 Y32.5179
G01 X51.0804 Y32.5306
G01 X51.0628 Y32.5600
G01 X51.0522 Y32.5759
G01 X51.0288 Y32.6071
G01 X50.9961 Y32.6431
G01 X45.7576 Y37.8816
G01 X45.7772 Y37.9229
G01 X45.7828 Y37.9361
G01 X45.8191 Y38.0375
G01 X45.8231 Y38.0513
G01 X45.8480 Y38.1512
G01 X45.8507 Y38.1653
G01 X45.8662 Y38.2719
G01 X45.8718 Y38.3794
G01 X45.8718 Y38.3986
G01 X45.8662 Y38.5061
G01 X45.8499 Y38.6174
G01 X45.8469 Y38.6315
G01 X45.8219 Y38.7313
G01 X45.8175 Y38.7450
G01 X45.7953 Y38.8071
G01 X46.7871 Y39.7989
G01 X68.5530 Y39.7989
G01 X68.5920 Y39.8005
G01 X68.6063 Y39.8018
G01 X68.6496 Y39.8084
G01 X68.6967 Y39.8202
G01 X68.7425 Y39.8365
G01 X68.7779 Y39.8530
G01 X68.7947 Y39.8620
G01 X68.8200 Y39.8772
G01 X68.8320 Y39.8850
G01 X68.8671 Y39.9112
G01 X68.8997 Y39.9405
G01 X70.9171 Y41.9579
G01 X72.2926 Y41.9579
G01 X72.3208 Y41.8982
G01 X72.3274 Y41.8855
