(G-CODE GENERATED BY FLATCAM v8.994 - www.flatcam.org - Version Date: 2020/11/7)
(Name: bms test circuit-Edge_Cuts.gbr_cutout_cnc)
(Type: G-code from Geometry)
(Units: MM)
(Created on Wednesday, 03 July 2024 at 01:26)
(This preprocessor is the default preprocessor used by FlatCAM.)
(It is made to work with MACH3 compatible motion controllers.)
(TOOL DIAMETER: 2.0 mm)
(Feedrate_XY: 120.0 mm/min)
(Feedrate_Z: 60.0 mm/min)
(Feedrate rapids 1500.0 mm/min)
(Z_Cut: -2.0 mm)
(DepthPerCut: 0.4 mm <=>5 passes)
(Z_Move: 2.0 mm)
(Z Start: None mm)
(Z End: 10.0 mm)
(X,Y End: None mm)
(Steps per circle: 64)
(Preprocessor Geometry: default)
(X range:    2.3790 ...   99.1670  mm)
(Y range:    0.6630 ...   61.3830  mm)
(Spindle Speed: 0.0 RPM)
G21
G90
G94
G01 F120.00
M5
G00 Z15.0000
G00 X0.0000 Y0.0000
T1
G00 Z15.0000
M03 S10000
G01 F120.00
G00 X2.3790 Y28.1230
G01 F60.00
G01 Z-0.4000
G01 F120.00
G01 X2.3790 Y1.7630
G01 X2.3843 Y1.6552
G01 X2.4001 Y1.5484
G01 X2.4263 Y1.4437
G01 X2.4627 Y1.3420
G01 X2.5089 Y1.2444
G01 X2.5644 Y1.1518
G01 X2.6287 Y1.0651
G01 X2.7012 Y0.9852
G01 X2.7811 Y0.9127
G01 X2.8678 Y0.8484
G01 X2.9604 Y0.7929
G01 X3.0580 Y0.7467
G01 X3.1597 Y0.7103
G01 X3.2644 Y0.6841
G01 X3.3712 Y0.6683
G01 X3.4790 Y0.6630
G01 X47.8730 Y0.6630
G00 X47.8730 Y0.6630
G01 F60.00
G01 Z-0.8000
G01 F120.00
G01 X3.4790 Y0.6630
G01 X3.3712 Y0.6683
G01 X3.2644 Y0.6841
G01 X3.1597 Y0.7103
G01 X3.0580 Y0.7467
G01 X2.9604 Y0.7929
G01 X2.8678 Y0.8484
G01 X2.7811 Y0.9127
G01 X2.7012 Y0.9852
G01 X2.6287 Y1.0651
G01 X2.5644 Y1.1518
G01 X2.5089 Y1.2444
G01 X2.4627 Y1.3420
G01 X2.4263 Y1.4437
G01 X2.4001 Y1.5484
G01 X2.3843 Y1.6552
G01 X2.3790 Y1.7630
G01 X2.3790 Y28.1230
G00 X2.3790 Y28.1230
G01 F60.00
G01 Z-1.2000
G01 F120.00
G01 X2.3790 Y1.7630
G01 X2.3843 Y1.6552
G01 X2.4001 Y1.5484
G01 X2.4263 Y1.4437
G01 X2.4627 Y1.3420
G01 X2.5089 Y1.2444
G01 X2.5644 Y1.1518
G01 X2.6287 Y1.0651
G01 X2.7012 Y0.9852
G01 X2.7811 Y0.9127
G01 X2.8678 Y0.8484
G01 X2.9604 Y0.7929
G01 X3.0580 Y0.7467
G01 X3.1597 Y0.7103
G01 X3.2644 Y0.6841
G01 X3.3712 Y0.6683
G01 X3.4790 Y0.6630
G01 X47.8730 Y0.6630
G00 X47.8730 Y0.6630
G01 F60.00
G01 Z-1.6000
G01 F120.00
G01 X3.4790 Y0.6630
G01 X3.3712 Y0.6683
G01 X3.2644 Y0.6841
G01 X3.1597 Y0.7103
G01 X3.0580 Y0.7467
G01 X2.9604 Y0.7929
G01 X2.8678 Y0.8484
G01 X2.7811 Y0.9127
G01 X2.7012 Y0.9852
G01 X2.6287 Y1.0651
G01 X2.5644 Y1.1518
G01 X2.5089 Y1.2444
G01 X2.4627 Y1.3420
G01 X2.4263 Y1.4437
G01 X2.4001 Y1.5484
G01 X2.3843 Y1.6552
G01 X2.3790 Y1.7630
G01 X2.3790 Y28.1230
G00 X2.3790 Y28.1230
G01 F60.00
G01 Z-2.0000
G01 F120.00
G01 X2.3790 Y1.7630
G01 X2.3843 Y1.6552
G01 X2.4001 Y1.5484
G01 X2.4263 Y1.4437
G01 X2.4627 Y1.3420
G01 X2.5089 Y1.2444
G01 X2.5644 Y1.1518
G01 X2.6287 Y1.0651
G01 X2.7012 Y0.9852
G01 X2.7811 Y0.9127
G01 X2.8678 Y0.8484
G01 X2.9604 Y0.7929
G01 X3.0580 Y0.7467
G01 X3.1597 Y0.7103
G01 X3.2644 Y0.6841
G01 X3.3712 Y0.6683
G01 X3.4790 Y0.6630
G01 X47.8730 Y0.6630
G00 Z2.0000
G00 X2.3790 Y34.1230
G01 F60.00
G01 Z-0.4000
G01 F120.00
G01 X2.3790 Y60.2830
G01 X2.3843 Y60.3908
G01 X2.4001 Y60.4976
G01 X2.4263 Y60.6023
G01 X2.4627 Y60.7040
G01 X2.5089 Y60.8016
G01 X2.5644 Y60.8942
G01 X2.6287 Y60.9809
G01 X2.7012 Y61.0608
G01 X2.7811 Y61.1333
G01 X2.8678 Y61.1976
G01 X2.9604 Y61.2531
G01 X3.0580 Y61.2993
G01 X3.1597 Y61.3357
G01 X3.2644 Y61.3619
G01 X3.3712 Y61.3777
G01 X3.4790 Y61.3830
G01 X47.8730 Y61.3830
G00 X47.8730 Y61.3830
G01 F60.00
G01 Z-0.8000
G01 F120.00
G01 X3.4790 Y61.3830
G01 X3.3712 Y61.3777
G01 X3.2644 Y61.3619
G01 X3.1597 Y61.3357
G01 X3.0580 Y61.2993
G01 X2.9604 Y61.2531
G01 X2.8678 Y61.1976
G01 X2.7811 Y61.1333
G01 X2.7012 Y61.0608
G01 X2.6287 Y60.9809
G01 X2.5644 Y60.8942
G01 X2.5089 Y60.8016
G01 X2.4627 Y60.7040
G01 X2.4263 Y60.6023
G01 X2.4001 Y60.4976
G01 X2.3843 Y60.3908
G01 X2.3790 Y60.2830
G01 X2.3790 Y34.1230
G00 X2.3790 Y34.1230
G01 F60.00
G01 Z-1.2000
G01 F120.00
G01 X2.3790 Y60.2830
G01 X2.3843 Y60.3908
G01 X2.4001 Y60.4976
G01 X2.4263 Y60.6023
G01 X2.4627 Y60.7040
G01 X2.5089 Y60.8016
G01 X2.5644 Y60.8942
G01 X2.6287 Y60.9809
G01 X2.7012 Y61.0608
G01 X2.7811 Y61.1333
G01 X2.8678 Y61.1976
G01 X2.9604 Y61.2531
G01 X3.0580 Y61.2993
G01 X3.1597 Y61.3357
G01 X3.2644 Y61.3619
G01 X3.3712 Y61.3777
G01 X3.4790 Y61.3830
G01 X47.8730 Y61.3830
G00 X47.8730 Y61.3830
G01 F60.00
G01 Z-1.6000
G01 F120.00
G01 X3.4790 Y61.3830
G01 X3.3712 Y61.3777
G01 X3.2644 Y61.3619
G01 X3.1597 Y61.3357
G01 X3.0580 Y61.2993
G01 X2.9604 Y61.2531
G01 X2.8678 Y61.1976
G01 X2.7811 Y61.1333
G01 X2.7012 Y61.0608
G01 X2.6287 Y60.9809
G01 X2.5644 Y60.8942
G01 X2.5089 Y60.8016
G01 X2.4627 Y60.7040
G01 X2.4263 Y60.6023
G01 X2.4001 Y60.4976
G01 X2.3843 Y60.3908
G01 X2.3790 Y60.2830
G01 X2.3790 Y34.1230
G00 X2.3790 Y34.1230
G01 F60.00
G01 Z-2.0000
G01 F120.00
G01 X2.3790 Y60.2830
G01 X2.3843 Y60.3908
G01 X2.4001 Y60.4976
G01 X2.4263 Y60.6023
G01 X2.4627 Y60.7040
G01 X2.5089 Y60.8016
G01 X2.5644 Y60.8942
G01 X2.6287 Y60.9809
G01 X2.7012 Y61.0608
G01 X2.7811 Y61.1333
G01 X2.8678 Y61.1976
G01 X2.9604 Y61.2531
G01 X3.0580 Y61.2993
G01 X3.1597 Y61.3357
G01 X3.2644 Y61.3619
G01 X3.3712 Y61.3777
G01 X3.4790 Y61.3830
G01 X47.8730 Y61.3830
G00 Z2.0000
G00 X53.8730 Y61.3830
G01 F60.00
G01 Z-0.4000
G01 F120.00
G01 X98.0670 Y61.3830
G01 X98.1748 Y61.3777
G01 X98.2816 Y61.3619
G01 X98.3863 Y61.3357
G01 X98.4880 Y61.2993
G01 X98.5856 Y61.2531
G01 X98.6782 Y61.1976
G01 X98.7649 Y61.1333
G01 X98.8448 Y61.0608
G01 X98.9173 Y60.9809
G01 X98.9816 Y60.8942
G01 X99.0371 Y60.8016
G01 X99.0833 Y60.7040
G01 X99.1197 Y60.6023
G01 X99.1459 Y60.4976
G01 X99.1617 Y60.3908
G01 X99.1670 Y60.2830
G01 X99.1670 Y34.1230
G00 X99.1670 Y34.1230
G01 F60.00
G01 Z-0.8000
G01 F120.00
G01 X99.1670 Y60.2830
G01 X99.1617 Y60.3908
G01 X99.1459 Y60.4976
G01 X99.1197 Y60.6023
G01 X99.0833 Y60.7040
G01 X99.0371 Y60.8016
G01 X98.9816 Y60.8942
G01 X98.9173 Y60.9809
G01 X98.8448 Y61.0608
G01 X98.7649 Y61.1333
G01 X98.6782 Y61.1976
G01 X98.5856 Y61.2531
G01 X98.4880 Y61.2993
G01 X98.3863 Y61.3357
G01 X98.2816 Y61.3619
G01 X98.1748 Y61.3777
G01 X98.0670 Y61.3830
G01 X53.8730 Y61.3830
G00 X53.8730 Y61.3830
G01 F60.00
G01 Z-1.2000
G01 F120.00
G01 X98.0670 Y61.3830
G01 X98.1748 Y61.3777
G01 X98.2816 Y61.3619
G01 X98.3863 Y61.3357
G01 X98.4880 Y61.2993
G01 X98.5856 Y61.2531
G01 X98.6782 Y61.1976
G01 X98.7649 Y61.1333
G01 X98.8448 Y61.0608
G01 X98.9173 Y60.9809
G01 X98.9816 Y60.8942
G01 X99.0371 Y60.8016
G01 X99.0833 Y60.7040
G01 X99.1197 Y60.6023
G01 X99.1459 Y60.4976
G01 X99.1617 Y60.3908
G01 X99.1670 Y60.2830
G01 X99.1670 Y34.1230
G00 X99.1670 Y34.1230
G01 F60.00
G01 Z-1.6000
G01 F120.00
G01 X99.1670 Y60.2830
G01 X99.1617 Y60.3908
G01 X99.1459 Y60.4976
G01 X99.1197 Y60.6023
G01 X99.0833 Y60.7040
G01 X99.0371 Y60.8016
G01 X98.9816 Y60.8942
G01 X98.9173 Y60.9809
G01 X98.8448 Y61.0608
G01 X98.7649 Y61.1333
G01 X98.6782 Y61.1976
G01 X98.5856 Y61.2531
G01 X98.4880 Y61.2993
G01 X98.3863 Y61.3357
G01 X98.2816 Y61.3619
G01 X98.1748 Y61.3777
G01 X98.0670 Y61.3830
G01 X53.8730 Y61.3830
G00 X53.8730 Y61.3830
G01 F60.00
G01 Z-2.0000
G01 F120.00
G01 X98.0670 Y61.3830
G01 X98.1748 Y61.3777
G01 X98.2816 Y61.3619
G01 X98.3863 Y61.3357
G01 X98.4880 Y61.2993
G01 X98.5856 Y61.2531
G01 X98.6782 Y61.1976
G01 X98.7649 Y61.1333
G01 X98.8448 Y61.0608
G01 X98.9173 Y60.9809
G01 X98.9816 Y60.8942
G01 X99.0371 Y60.8016
G01 X99.0833 Y60.7040
G01 X99.1197 Y60.6023
G01 X99.1459 Y60.4976
G01 X99.1617 Y60.3908
G01 X99.1670 Y60.2830
G01 X99.1670 Y34.1230
G00 Z2.0000
G00 X99.1670 Y28.1230
G01 F60.00
G01 Z-0.4000
G01 F120.00
G01 X99.1670 Y1.7630
G01 X99.1617 Y1.6552
G01 X99.1459 Y1.5484
G01 X99.1197 Y1.4437
G01 X99.0833 Y1.3420
G01 X99.0371 Y1.2444
G01 X98.9816 Y1.1518
G01 X98.9173 Y1.0651
G01 X98.8448 Y0.9852
G01 X98.7649 Y0.9127
G01 X98.6782 Y0.8484
G01 X98.5856 Y0.7929
G01 X98.4880 Y0.7467
G01 X98.3863 Y0.7103
G01 X98.2816 Y0.6841
G01 X98.1748 Y0.6683
G01 X98.0670 Y0.6630
G01 X53.8730 Y0.6630
G00 X53.8730 Y0.6630
G01 F60.00
G01 Z-0.8000
G01 F120.00
G01 X98.0670 Y0.6630
G01 X98.1748 Y0.6683
G01 X98.2816 Y0.6841
G01 X98.3863 Y0.7103
G01 X98.4880 Y0.7467
G01 X98.5856 Y0.7929
G01 X98.6782 Y0.8484
G01 X98.7649 Y0.9127
G01 X98.8448 Y0.9852
G01 X98.9173 Y1.0651
G01 X98.9816 Y1.1518
G01 X99.0371 Y1.2444
G01 X99.0833 Y1.3420
G01 X99.1197 Y1.4437
G01 X99.1459 Y1.5484
G01 X99.1617 Y1.6552
G01 X99.1670 Y1.7630
G01 X99.1670 Y28.1230
G00 X99.1670 Y28.1230
G01 F60.00
G01 Z-1.2000
G01 F120.00
G01 X99.1670 Y1.7630
G01 X99.1617 Y1.6552
G01 X99.1459 Y1.5484
G01 X99.1197 Y1.4437
G01 X99.0833 Y1.3420
G01 X99.0371 Y1.2444
G01 X98.9816 Y1.1518
G01 X98.9173 Y1.0651
G01 X98.8448 Y0.9852
G01 X98.7649 Y0.9127
G01 X98.6782 Y0.8484
G01 X98.5856 Y0.7929
G01 X98.4880 Y0.7467
G01 X98.3863 Y0.7103
G01 X98.2816 Y0.6841
G01 X98.1748 Y0.6683
G01 X98.0670 Y0.6630
G01 X53.8730 Y0.6630
G00 X53.8730 Y0.6630
G01 F60.00
G01 Z-1.6000
G01 F120.00
G01 X98.0670 Y0.6630
G01 X98.1748 Y0.6683
G01 X98.2816 Y0.6841
G01 X98.3863 Y0.7103
G01 X98.4880 Y0.7467
G01 X98.5856 Y0.7929
G01 X98.6782 Y0.8484
G01 X98.7649 Y0.9127
G01 X98.8448 Y0.9852
G01 X98.9173 Y1.0651
G01 X98.9816 Y1.1518
G01 X99.0371 Y1.2444
G01 X99.0833 Y1.3420
G01 X99.1197 Y1.4437
G01 X99.1459 Y1.5484
G01 X99.1617 Y1.6552
G01 X99.1670 Y1.7630
G01 X99.1670 Y28.1230
G00 X99.1670 Y28.1230
G01 F60.00
G01 Z-2.0000
G01 F120.00
G01 X99.1670 Y1.7630
G01 X99.1617 Y1.6552
G01 X99.1459 Y1.5484
G01 X99.1197 Y1.4437
G01 X99.0833 Y1.3420
G01 X99.0371 Y1.2444
G01 X98.9816 Y1.1518
G01 X98.9173 Y1.0651
G01 X98.8448 Y0.9852
G01 X98.7649 Y0.9127
G01 X98.6782 Y0.8484
G01 X98.5856 Y0.7929
G01 X98.4880 Y0.7467
G01 X98.3863 Y0.7103
G01 X98.2816 Y0.6841
G01 X98.1748 Y0.6683
G01 X98.0670 Y0.6630
G01 X53.8730 Y0.6630
G00 Z2.0000
M05
G00 Z2.0000
G00 Z10.00
