(G-CODE GENERATED BY FLATCAM v8.994 - www.flatcam.org - Version Date: 2020/11/7)
(Name: bms test circuit-F_Cu.gbr_iso_combined_cnc)
(Type: G-code from Geometry)
(Units: MM)
(Created on Wednesday, 03 July 2024 at 01:28)
(This preprocessor is the default preprocessor used by FlatCAM.)
(It is made to work with MACH3 compatible motion controllers.)
(TOOL DIAMETER: 0.39 mm)
(Feedrate_XY: 120.0 mm/min)
(Feedrate_Z: 60.0 mm/min)
(Feedrate rapids 1500.0 mm/min)
(Z_Cut: -0.05 mm)
(Z_Move: 2.0 mm)
(Z Start: None mm)
(Z End: 10.0 mm)
(X,Y End: None mm)
(Steps per circle: 64)
(Preprocessor Geometry: default)
(X range:    6.8939 ...   96.4475  mm)
(Y range:    1.4949 ...   59.8080  mm)
(Spindle Speed: 10000.0 RPM)
G21
G90
G94
G01 F120.00
M5
G00 Z15.0000
G00 X0.0000 Y0.0000
T1
G00 Z15.0000
M03 S10000.0
G01 F120.00
G00 X7.4791 Y21.2344
G01 F60.00
G01 Z-0.0500
G01 F120.00
G01 X7.4812 Y21.1955
G01 X7.4884 Y21.1474
G01 X7.5002 Y21.1003
G01 X7.5165 Y21.0545
G01 X7.5373 Y21.0106
G01 X7.5621 Y20.9692
G01 X7.5912 Y20.9299
G01 X7.6239 Y20.8939
G01 X22.3559 Y6.1619
G01 X22.3919 Y6.1292
G01 X22.4231 Y6.1058
G01 X22.4390 Y6.0952
G01 X22.4726 Y6.0753
G01 X22.5078 Y6.0584
G01 X22.5254 Y6.0511
G01 X22.5623 Y6.0382
G01 X22.6094 Y6.0264
G01 X22.6575 Y6.0192
G01 X22.7060 Y6.0169
G01 X67.5859 Y6.0169
G01 X71.3813 Y2.2215
G01 X71.4139 Y2.1922
G01 X71.4529 Y2.1633
G01 X71.4946 Y2.1383
G01 X71.5385 Y2.1175
G01 X71.5843 Y2.1012
G01 X71.6314 Y2.0894
G01 X71.6795 Y2.0822
G01 X71.7232 Y2.0799
G01 X86.7140 Y2.0799
G01 X86.7625 Y2.0822
G01 X86.8059 Y2.0885
G01 X86.8199 Y2.0915
G01 X86.8485 Y2.0986
G01 X86.8668 Y2.1042
G01 X86.9035 Y2.1175
G01 X86.9474 Y2.1383
G01 X86.9888 Y2.1631
G01 X87.0206 Y2.1864
G01 X87.0354 Y2.1985
G01 X87.0641 Y2.2249
G01 X89.6075 Y4.7683
G01 X89.6368 Y4.8009
G01 X89.6602 Y4.8321
G01 X89.6708 Y4.8480
G01 X89.6907 Y4.8816
G01 X89.7076 Y4.9168
G01 X89.7149 Y4.9344
G01 X89.7278 Y4.9713
G01 X89.7396 Y5.0184
G01 X89.7468 Y5.0665
G01 X89.7491 Y5.1150
G01 X89.7491 Y10.9570
G01 X89.7475 Y10.9960
G01 X89.7462 Y11.0103
G01 X89.7396 Y11.0536
G01 X89.7304 Y11.0915
G01 X89.7248 Y11.1098
G01 X89.7115 Y11.1465
G01 X89.6907 Y11.1904
G01 X89.6708 Y11.2240
G01 X89.6602 Y11.2399
G01 X89.6368 Y11.2711
G01 X89.6041 Y11.3071
G01 X88.9382 Y11.9730
G01 X89.6041 Y12.6389
G01 X89.6368 Y12.6749
G01 X89.6657 Y12.7139
G01 X89.6860 Y12.7473
G01 X89.6929 Y12.7598
G01 X89.7076 Y12.7908
G01 X89.7149 Y12.8084
G01 X89.7278 Y12.8453
G01 X89.7396 Y12.8924
G01 X89.7468 Y12.9405
G01 X89.7491 Y12.9842
G01 X89.7491 Y35.3410
G01 X89.7468 Y35.3895
G01 X89.7413 Y35.4282
G01 X89.7375 Y35.4469
G01 X89.7278 Y35.4847
G01 X89.7115 Y35.5305
G01 X89.6907 Y35.5744
G01 X89.6708 Y35.6080
G01 X89.6602 Y35.6239
G01 X89.6426 Y35.6476
G01 X89.6337 Y35.6588
G01 X89.6041 Y35.6911
G01 X88.8601 Y36.4351
G01 X88.8601 Y40.4210
G01 X88.8578 Y40.4695
G01 X88.8506 Y40.5176
G01 X88.8388 Y40.5647
G01 X88.8259 Y40.6016
G01 X88.8206 Y40.6149
G01 X88.8017 Y40.6544
G01 X88.7767 Y40.6961
G01 X88.7478 Y40.7351
G01 X88.7151 Y40.7711
G01 X86.6797 Y42.8065
G01 X86.6471 Y42.8358
G01 X86.6159 Y42.8592
G01 X86.6000 Y42.8698
G01 X86.5664 Y42.8897
G01 X86.5312 Y42.9066
G01 X86.5136 Y42.9139
G01 X86.4767 Y42.9268
G01 X86.4296 Y42.9386
G01 X86.3815 Y42.9458
G01 X86.3330 Y42.9481
G01 X86.2892 Y42.9462
G01 X86.2695 Y42.9438
G01 X86.2498 Y42.9462
G01 X86.2060 Y42.9481
G01 X83.0070 Y42.9481
G01 X82.9616 Y43.0235
G01 X82.9011 Y43.1054
G01 X82.8890 Y43.1202
G01 X82.8204 Y43.1954
G01 X82.7381 Y43.2701
G01 X82.6563 Y43.3310
G01 X82.6404 Y43.3417
G01 X82.5529 Y43.3938
G01 X82.4523 Y43.4414
G01 X82.3565 Y43.4759
G01 X82.3382 Y43.4815
G01 X82.2394 Y43.5060
G01 X82.1387 Y43.5212
G01 X82.1197 Y43.5230
G01 X82.0180 Y43.5278
G01 X81.9068 Y43.5223
G01 X81.7966 Y43.5060
G01 X81.6886 Y43.4789
G01 X81.5837 Y43.4414
G01 X81.4831 Y43.3938
G01 X81.3875 Y43.3366
G01 X81.2981 Y43.2702
G01 X81.2156 Y43.1954
G01 X81.1470 Y43.1202
G01 X81.1351 Y43.1057
G01 X81.0744 Y43.0235
G01 X81.0219 Y42.9363
G01 X81.0129 Y42.9194
G01 X80.9735 Y42.8360
G01 X80.9661 Y42.8183
G01 X80.9321 Y42.7224
G01 X80.9050 Y42.6144
G01 X80.8887 Y42.5042
G01 X80.8832 Y42.3930
G01 X80.8887 Y42.2818
G01 X80.9050 Y42.1716
G01 X80.9321 Y42.0636
G01 X80.9696 Y41.9587
G01 X81.0172 Y41.8581
G01 X81.0744 Y41.7625
G01 X81.1408 Y41.6731
G01 X81.2090 Y41.5975
G01 X81.2225 Y41.5840
G01 X81.2981 Y41.5158
G01 X81.3797 Y41.4550
G01 X81.3956 Y41.4443
G01 X81.4747 Y41.3969
G01 X81.4916 Y41.3879
G01 X81.5837 Y41.3446
G01 X81.6886 Y41.3071
G01 X81.7966 Y41.2800
G01 X81.8973 Y41.2648
G01 X81.9115 Y41.2633
G01 X82.0180 Y41.2582
G01 X82.1197 Y41.2630
G01 X82.1387 Y41.2648
G01 X82.2300 Y41.2784
G01 X82.2487 Y41.2821
G01 X82.3474 Y41.3071
G01 X82.4523 Y41.3446
G01 X82.5529 Y41.3922
G01 X82.6404 Y41.4443
G01 X82.6563 Y41.4550
G01 X82.7304 Y41.5099
G01 X82.7452 Y41.5220
G01 X82.8204 Y41.5906
G01 X82.8952 Y41.6731
G01 X82.9560 Y41.7547
G01 X82.9667 Y41.7706
G01 X83.0188 Y41.8581
G01 X83.0660 Y41.9579
G01 X86.1279 Y41.9579
G01 X87.8699 Y40.2159
G01 X87.8699 Y36.2300
G01 X87.8722 Y36.1815
G01 X87.8785 Y36.1381
G01 X87.8815 Y36.1241
G01 X87.8886 Y36.0955
G01 X87.8926 Y36.0817
G01 X87.9075 Y36.0405
G01 X87.9240 Y36.0051
G01 X87.9306 Y35.9924
G01 X87.9531 Y35.9552
G01 X87.9764 Y35.9234
G01 X87.9853 Y35.9122
G01 X88.0149 Y35.8799
G01 X88.7589 Y35.1359
G01 X88.7589 Y13.1941
G01 X88.0329 Y12.4681
G01 X87.2010 Y12.4682
G01 X87.2009 Y12.7778
G01 X87.1995 Y12.7969
G01 X87.1973 Y12.8110
G01 X87.1939 Y12.8250
G01 X87.1896 Y12.8387
G01 X87.1862 Y12.8476
G01 X87.1802 Y12.8607
G01 X87.1733 Y12.8732
G01 X87.1654 Y12.8853
G01 X87.1567 Y12.8967
G01 X87.1472 Y12.9075
G01 X87.1370 Y12.9175
G01 X87.1260 Y12.9267
G01 X87.1143 Y12.9351
G01 X87.1021 Y12.9427
G01 X87.0894 Y12.9493
G01 X87.0806 Y12.9532
G01 X87.0672 Y12.9582
G01 X87.0534 Y12.9622
G01 X87.0393 Y12.9651
G01 X87.0251 Y12.9671
G01 X87.0060 Y12.9680
G01 X85.4060 Y12.9680
G01 X85.3869 Y12.9671
G01 X85.3680 Y12.9643
G01 X85.3494 Y12.9596
G01 X85.3314 Y12.9532
G01 X85.3183 Y12.9472
G01 X85.3017 Y12.9377
G01 X85.2860 Y12.9267
G01 X85.2715 Y12.9142
G01 X85.2615 Y12.9040
G01 X85.2523 Y12.8930
G01 X85.2413 Y12.8773
G01 X85.2318 Y12.8607
G01 X85.2241 Y12.8432
G01 X85.2194 Y12.8296
G01 X85.2147 Y12.8110
G01 X85.2119 Y12.7921
G01 X85.2110 Y12.7730
G01 X85.2110 Y11.1730
G01 X85.2115 Y11.1587
G01 X85.2131 Y11.1444
G01 X85.2147 Y11.1350
G01 X85.2181 Y11.1210
G01 X85.2208 Y11.1118
G01 X85.2258 Y11.0984
G01 X85.2318 Y11.0853
G01 X85.2363 Y11.0769
G01 X85.2413 Y11.0687
G01 X85.2494 Y11.0568
G01 X85.2553 Y11.0493
G01 X85.2648 Y11.0385
G01 X85.2715 Y11.0318
G01 X85.2823 Y11.0223
G01 X85.2937 Y11.0136
G01 X85.3058 Y11.0057
G01 X85.3183 Y10.9988
G01 X85.3270 Y10.9947
G01 X85.3403 Y10.9894
G01 X85.3494 Y10.9864
G01 X85.3633 Y10.9827
G01 X85.3727 Y10.9809
G01 X85.3869 Y10.9789
G01 X85.4012 Y10.9781
G01 X85.7109 Y10.9780
G01 X85.7108 Y10.4280
G01 X85.4012 Y10.4279
G01 X85.3821 Y10.4265
G01 X85.3680 Y10.4243
G01 X85.3494 Y10.4196
G01 X85.3358 Y10.4149
G01 X85.3226 Y10.4093
G01 X85.3099 Y10.4027
G01 X85.2977 Y10.3951
G01 X85.2860 Y10.3867
G01 X85.2750 Y10.3775
G01 X85.2648 Y10.3675
G01 X85.2553 Y10.3567
G01 X85.2466 Y10.3453
G01 X85.2387 Y10.3332
G01 X85.2318 Y10.3207
G01 X85.2258 Y10.3076
G01 X85.2208 Y10.2942
G01 X85.2157 Y10.2757
G01 X85.2131 Y10.2616
G01 X85.2115 Y10.2473
G01 X85.2110 Y10.2330
G01 X85.2110 Y8.6330
G01 X85.2115 Y8.6187
G01 X85.2131 Y8.6044
G01 X85.2147 Y8.5950
G01 X85.2181 Y8.5810
G01 X85.2208 Y8.5718
G01 X85.2258 Y8.5584
G01 X85.2318 Y8.5453
G01 X85.2363 Y8.5369
G01 X85.2413 Y8.5287
G01 X85.2494 Y8.5168
G01 X85.2553 Y8.5093
G01 X85.2648 Y8.4985
G01 X85.2715 Y8.4918
G01 X85.2823 Y8.4823
G01 X85.2937 Y8.4736
G01 X85.3058 Y8.4657
G01 X85.3183 Y8.4588
G01 X85.3270 Y8.4547
G01 X85.3403 Y8.4494
G01 X85.3494 Y8.4464
G01 X85.3633 Y8.4427
G01 X85.3727 Y8.4409
G01 X85.3869 Y8.4389
G01 X85.4012 Y8.4381
G01 X85.7109 Y8.4380
G01 X85.7109 Y6.6141
G01 X85.6935 Y6.5848
G01 X85.6788 Y6.5540
G01 X85.6731 Y6.5409
G01 X85.6602 Y6.5042
G01 X85.6505 Y6.4665
G01 X85.6479 Y6.4524
G01 X85.6431 Y6.4186
G01 X85.6410 Y6.3750
G01 X85.6411 Y5.1202
G01 X85.6424 Y5.0909
G01 X85.6437 Y5.0766
G01 X85.6487 Y5.0429
G01 X85.6516 Y5.0288
G01 X85.6602 Y4.9958
G01 X85.6714 Y4.9636
G01 X85.6768 Y4.9503
G01 X85.6892 Y4.9238
G01 X85.6959 Y4.9110
G01 X85.7160 Y4.8778
G01 X85.7420 Y4.8427
G01 X85.7713 Y4.8103
G01 X85.7964 Y4.7873
G01 X85.8074 Y4.7780
G01 X85.8348 Y4.7577
G01 X85.8469 Y4.7499
G01 X85.8762 Y4.7325
G01 X85.9070 Y4.7178
G01 X85.9201 Y4.7121
G01 X85.9523 Y4.7006
G01 X85.9660 Y4.6966
G01 X85.9945 Y4.6895
G01 X86.0086 Y4.6869
G01 X86.0430 Y4.6821
G01 X86.0860 Y4.6800
G01 X86.7110 Y4.6800
G01 X86.7498 Y4.6817
G01 X86.7594 Y4.6827
G01 X86.7884 Y4.6869
G01 X86.8072 Y4.6906
G01 X86.8402 Y4.6992
G01 X86.8813 Y4.7139
G01 X86.9208 Y4.7325
G01 X86.9501 Y4.7499
G01 X86.9622 Y4.7577
G01 X86.9858 Y4.7751
G01 X87.0006 Y4.7873
G01 X87.0257 Y4.8103
G01 X87.0550 Y4.8427
G01 X87.0810 Y4.8778
G01 X87.0987 Y4.9069
G01 X87.1078 Y4.9238
G01 X87.1202 Y4.9503
G01 X87.1239 Y4.9591
G01 X87.1368 Y4.9958
G01 X87.1465 Y5.0335
G01 X87.1491 Y5.0476
G01 X87.1539 Y5.0820
G01 X87.1560 Y5.1250
G01 X87.1560 Y6.3750
G01 X87.1539 Y6.4186
G01 X87.1483 Y6.4571
G01 X87.1454 Y6.4712
G01 X87.1368 Y6.5042
G01 X87.1221 Y6.5453
G01 X87.1035 Y6.5848
G01 X87.0836 Y6.6182
G01 X87.0783 Y6.6262
G01 X87.0609 Y6.6498
G01 X87.0487 Y6.6646
G01 X87.0290 Y6.6862
G01 X87.0222 Y6.6930
G01 X87.0006 Y6.7127
G01 X86.9896 Y6.7220
G01 X86.9582 Y6.7450
G01 X86.9208 Y6.7675
G01 X86.8813 Y6.7861
G01 X86.8447 Y6.7994
G01 X86.8310 Y6.8034
G01 X86.8025 Y6.8105
G01 X86.7931 Y6.8123
G01 X86.7641 Y6.8167
G01 X86.7451 Y6.8186
G01 X86.7158 Y6.8199
G01 X86.7011 Y6.8200
G01 X86.7012 Y8.4380
G01 X87.0108 Y8.4381
G01 X87.0203 Y8.4385
G01 X87.0346 Y8.4401
G01 X87.0487 Y8.4427
G01 X87.0626 Y8.4464
G01 X87.0762 Y8.4511
G01 X87.0894 Y8.4567
G01 X87.1021 Y8.4633
G01 X87.1103 Y8.4683
G01 X87.1183 Y8.4736
G01 X87.1297 Y8.4823
G01 X87.1405 Y8.4918
G01 X87.1472 Y8.4985
G01 X87.1567 Y8.5093
G01 X87.1626 Y8.5168
G01 X87.1707 Y8.5287
G01 X87.1757 Y8.5369
G01 X87.1802 Y8.5453
G01 X87.1862 Y8.5584
G01 X87.1912 Y8.5718
G01 X87.1939 Y8.5810
G01 X87.1973 Y8.5950
G01 X87.1995 Y8.6091
G01 X87.2008 Y8.6234
G01 X87.2010 Y8.6330
G01 X87.2010 Y10.2330
G01 X87.2005 Y10.2473
G01 X87.1989 Y10.2616
G01 X87.1963 Y10.2757
G01 X87.1926 Y10.2896
G01 X87.1879 Y10.3032
G01 X87.1823 Y10.3164
G01 X87.1757 Y10.3291
G01 X87.1681 Y10.3413
G01 X87.1597 Y10.3530
G01 X87.1505 Y10.3640
G01 X87.1405 Y10.3742
G01 X87.1297 Y10.3837
G01 X87.1183 Y10.3924
G01 X87.1062 Y10.4003
G01 X87.0937 Y10.4072
G01 X87.0806 Y10.4132
G01 X87.0717 Y10.4166
G01 X87.0580 Y10.4209
G01 X87.0393 Y10.4251
G01 X87.0251 Y10.4271
G01 X87.0108 Y10.4279
G01 X86.7011 Y10.4280
G01 X86.7012 Y10.9780
G01 X87.0060 Y10.9780
G01 X87.0203 Y10.9785
G01 X87.0299 Y10.9795
G01 X87.0440 Y10.9817
G01 X87.0580 Y10.9851
G01 X87.0762 Y10.9911
G01 X87.0894 Y10.9967
G01 X87.1062 Y11.0057
G01 X87.1183 Y11.0136
G01 X87.1297 Y11.0223
G01 X87.1439 Y11.0351
G01 X87.1537 Y11.0456
G01 X87.1626 Y11.0568
G01 X87.1707 Y11.0687
G01 X87.1802 Y11.0853
G01 X87.1862 Y11.0984
G01 X87.1926 Y11.1164
G01 X87.1963 Y11.1303
G01 X87.1995 Y11.1491
G01 X87.2005 Y11.1587
G01 X87.2010 Y11.1730
G01 X87.2010 Y11.4779
G01 X88.0329 Y11.4779
G01 X88.7589 Y10.7519
G01 X88.7589 Y5.3201
G01 X86.5089 Y3.0701
G01 X71.9331 Y3.0701
G01 X68.1377 Y6.8655
G01 X68.1051 Y6.8948
G01 X68.0661 Y6.9237
G01 X68.0244 Y6.9487
G01 X67.9892 Y6.9656
G01 X67.9716 Y6.9729
G01 X67.9393 Y6.9844
G01 X67.9255 Y6.9884
G01 X67.8969 Y6.9955
G01 X67.8829 Y6.9985
G01 X67.8490 Y7.0036
G01 X67.8348 Y7.0052
G01 X67.7910 Y7.0071
G01 X22.9111 Y7.0071
G01 X8.4691 Y21.4491
G01 X8.4691 Y27.6429
G01 X14.7831 Y33.9569
G01 X26.5160 Y33.9569
G01 X26.5645 Y33.9592
G01 X26.6126 Y33.9664
G01 X26.6597 Y33.9782
G01 X26.6966 Y33.9911
G01 X26.7142 Y33.9984
G01 X26.7452 Y34.0131
G01 X26.7577 Y34.0200
G01 X26.7830 Y34.0352
G01 X26.7946 Y34.0427
G01 X26.8226 Y34.0634
G01 X26.8338 Y34.0723
G01 X26.8661 Y34.1019
G01 X30.6795 Y37.9153
G01 X30.7088 Y37.9479
G01 X30.7322 Y37.9791
G01 X30.7428 Y37.9950
G01 X30.7627 Y38.0286
G01 X30.7796 Y38.0638
G01 X30.7869 Y38.0814
G01 X30.7998 Y38.1183
G01 X30.8106 Y38.1607
G01 X30.8133 Y38.1748
G01 X30.8188 Y38.2135
G01 X30.8211 Y38.2620
G01 X30.8211 Y43.8500
G01 X30.8188 Y43.8985
G01 X30.8116 Y43.9466
G01 X30.7998 Y43.9937
G01 X30.7869 Y44.0306
G01 X30.7796 Y44.0482
G01 X30.7627 Y44.0834
G01 X30.7428 Y44.1170
G01 X30.7322 Y44.1329
G01 X30.7088 Y44.1641
G01 X30.6761 Y44.2001
G01 X29.6062 Y45.2697
G01 X29.5771 Y45.2958
G01 X29.5459 Y45.3192
G01 X29.5300 Y45.3298
G01 X29.4964 Y45.3497
G01 X29.4612 Y45.3666
G01 X29.4436 Y45.3739
G01 X29.4067 Y45.3868
G01 X29.3643 Y45.3976
G01 X29.3502 Y45.4003
G01 X29.3115 Y45.4058
G01 X29.2630 Y45.4081
G01 X26.0400 Y45.4082
G01 X26.0399 Y45.5178
G01 X26.0395 Y45.5273
G01 X26.0379 Y45.5416
G01 X26.0342 Y45.5604
G01 X26.0302 Y45.5742
G01 X26.0269 Y45.5832
G01 X26.0192 Y45.6007
G01 X26.0097 Y45.6173
G01 X26.0016 Y45.6292
G01 X25.9957 Y45.6367
G01 X25.9862 Y45.6475
G01 X25.9795 Y45.6542
G01 X25.9724 Y45.6607
G01 X25.9612 Y45.6696
G01 X25.9533 Y45.6751
G01 X25.9411 Y45.6827
G01 X25.9327 Y45.6872
G01 X25.9196 Y45.6932
G01 X25.9062 Y45.6982
G01 X25.8970 Y45.7009
G01 X25.8830 Y45.7043
G01 X25.8736 Y45.7059
G01 X25.8641 Y45.7071
G01 X25.8498 Y45.7079
G01 X21.3402 Y45.7079
G01 X21.3211 Y45.7065
G01 X21.3023 Y45.7033
G01 X21.2838 Y45.6982
G01 X21.2660 Y45.6913
G01 X21.2489 Y45.6827
G01 X21.2327 Y45.6724
G01 X21.2250 Y45.6667
G01 X21.2140 Y45.6575
G01 X21.2005 Y45.6440
G01 X21.1884 Y45.6292
G01 X21.1803 Y45.6173
G01 X21.1730 Y45.6049
G01 X21.1648 Y45.5876
G01 X21.1598 Y45.5742
G01 X21.1547 Y45.5557
G01 X21.1521 Y45.5416
G01 X21.1502 Y45.5226
G01 X21.1500 Y44.3130
G01 X21.1505 Y44.2987
G01 X21.1521 Y44.2844
G01 X21.1558 Y44.2656
G01 X21.1614 Y44.2473
G01 X21.1667 Y44.2340
G01 X21.1730 Y44.2211
G01 X21.1829 Y44.2047
G01 X21.1943 Y44.1893
G01 X21.2038 Y44.1785
G01 X21.2176 Y44.1653
G01 X21.2288 Y44.1564
G01 X21.2407 Y44.1483
G01 X21.2531 Y44.1410
G01 X21.2704 Y44.1328
G01 X21.2838 Y44.1278
G01 X21.2976 Y44.1238
G01 X21.3164 Y44.1201
G01 X21.3307 Y44.1185
G01 X21.3450 Y44.1180
G01 X25.8546 Y44.1182
G01 X25.8641 Y44.1189
G01 X25.8783 Y44.1209
G01 X25.8924 Y44.1238
G01 X25.9016 Y44.1264
G01 X25.9196 Y44.1328
G01 X25.9327 Y44.1388
G01 X25.9411 Y44.1433
G01 X25.9533 Y44.1509
G01 X25.9612 Y44.1564
G01 X25.9724 Y44.1653
G01 X25.9795 Y44.1718
G01 X25.9895 Y44.1820
G01 X25.9957 Y44.1893
G01 X26.0044 Y44.2007
G01 X26.0097 Y44.2087
G01 X26.0192 Y44.2253
G01 X26.0269 Y44.2428
G01 X26.0329 Y44.2610
G01 X26.0363 Y44.2750
G01 X26.0379 Y44.2844
G01 X26.0395 Y44.2987
G01 X26.0399 Y44.3082
G01 X26.0400 Y44.4179
G01 X29.0579 Y44.4179
G01 X29.8309 Y43.6449
G01 X29.8309 Y38.4671
G01 X26.3109 Y34.9471
G01 X14.5780 Y34.9471
G01 X14.5295 Y34.9448
G01 X14.4908 Y34.9393
G01 X14.4721 Y34.9355
G01 X14.4389 Y34.9272
G01 X14.4252 Y34.9228
G01 X14.3885 Y34.9095
G01 X14.3446 Y34.8887
G01 X14.3029 Y34.8637
G01 X14.2676 Y34.8377
G01 X14.2566 Y34.8285
G01 X14.2279 Y34.8021
G01 X7.6239 Y28.1981
G01 X7.5912 Y28.1621
G01 X7.5678 Y28.1309
G01 X7.5572 Y28.1150
G01 X7.5420 Y28.0897
G01 X7.5351 Y28.0772
G01 X7.5184 Y28.0418
G01 X7.5131 Y28.0286
G01 X7.5002 Y27.9917
G01 X7.4905 Y27.9539
G01 X7.4867 Y27.9352
G01 X7.4812 Y27.8965
G01 X7.4789 Y27.8480
G01 X7.4791 Y21.2344
G00 Z2.0000
G00 X8.8009 Y24.5102
G01 F60.00
G01 Z-0.0500
G01 F120.00
G01 X8.7782 Y24.3551
G01 X8.7702 Y24.1986
G01 X8.7702 Y24.1794
G01 X8.7782 Y24.0229
G01 X8.8009 Y23.8678
G01 X8.8047 Y23.8490
G01 X8.8430 Y23.6970
G01 X8.8956 Y23.5493
G01 X8.9029 Y23.5316
G01 X8.9701 Y23.3900
G01 X9.0505 Y23.2554
G01 X9.0612 Y23.2395
G01 X9.1547 Y23.1137
G01 X9.2599 Y22.9974
G01 X9.2734 Y22.9839
G01 X9.3860 Y22.8818
G01 X9.3972 Y22.8729
G01 X9.5155 Y22.7852
G01 X9.5314 Y22.7745
G01 X9.6660 Y22.6941
G01 X9.8164 Y22.6230
G01 X9.9730 Y22.5670
G01 X10.1250 Y22.5287
G01 X10.1438 Y22.5249
G01 X10.2989 Y22.5022
G01 X10.4650 Y22.4940
G01 X10.6216 Y22.5015
G01 X10.6406 Y22.5033
G01 X10.7957 Y22.5266
G01 X10.9478 Y22.5644
G01 X10.9661 Y22.5700
G01 X11.1136 Y22.6230
G01 X11.2611 Y22.6926
G01 X14.3363 Y19.6175
G01 X14.3616 Y19.5945
G01 X14.3726 Y19.5853
G01 X14.4040 Y19.5620
G01 X14.4160 Y19.5542
G01 X14.4496 Y19.5343
G01 X14.4848 Y19.5174
G01 X14.4980 Y19.5118
G01 X14.5347 Y19.4986
G01 X14.5485 Y19.4946
G01 X14.5771 Y19.4875
G01 X14.5958 Y19.4837
G01 X14.6345 Y19.4782
G01 X14.6830 Y19.4759
G01 X23.4809 Y19.4758
G01 X23.4809 Y18.5770
G01 X23.4832 Y18.5285
G01 X23.4887 Y18.4898
G01 X23.4925 Y18.4711
G01 X23.5022 Y18.4333
G01 X23.5185 Y18.3875
G01 X23.5393 Y18.3436
G01 X23.5592 Y18.3100
G01 X23.5694 Y18.2947
G01 X23.5874 Y18.2704
G01 X23.5963 Y18.2592
G01 X23.6259 Y18.2269
G01 X30.2299 Y11.6229
G01 X30.2659 Y11.5902
G01 X30.2971 Y11.5668
G01 X30.3130 Y11.5562
G01 X30.3466 Y11.5363
G01 X30.3818 Y11.5194
G01 X30.3994 Y11.5121
G01 X30.4363 Y11.4992
G01 X30.4741 Y11.4895
G01 X30.4928 Y11.4857
G01 X30.5315 Y11.4802
G01 X30.5800 Y11.4779
G01 X35.9140 Y11.4779
G01 X35.9625 Y11.4802
G01 X36.0012 Y11.4857
G01 X36.0153 Y11.4884
G01 X36.0577 Y11.4992
G01 X36.0946 Y11.5121
G01 X36.1122 Y11.5194
G01 X36.1474 Y11.5363
G01 X36.1810 Y11.5562
G01 X36.1963 Y11.5664
G01 X36.2281 Y11.5902
G01 X36.2607 Y11.6195
G01 X37.7701 Y13.1289
G01 X46.7579 Y13.1289
G01 X47.2548 Y12.6323
G01 X47.2766 Y12.6125
G01 X47.2876 Y12.6033
G01 X47.3151 Y12.5828
G01 X47.3269 Y12.5747
G01 X47.3646 Y12.5523
G01 X47.3998 Y12.5354
G01 X47.4130 Y12.5298
G01 X47.4543 Y12.5152
G01 X47.5014 Y12.5034
G01 X47.5495 Y12.4962
G01 X47.5932 Y12.4939
G01 X48.3600 Y12.4939
G01 X48.3990 Y12.4955
G01 X48.4180 Y12.4974
G01 X48.4566 Y12.5034
G01 X48.4991 Y12.5138
G01 X48.5128 Y12.5182
G01 X48.5406 Y12.5281
G01 X48.5582 Y12.5354
G01 X48.5934 Y12.5523
G01 X48.6348 Y12.5771
G01 X48.6741 Y12.6062
G01 X48.7032 Y12.6323
G01 X50.3282 Y14.2570
G01 X50.9510 Y14.2570
G01 X50.9653 Y14.2575
G01 X50.9843 Y14.2599
G01 X50.9984 Y14.2628
G01 X51.0122 Y14.2668
G01 X51.0256 Y14.2718
G01 X51.0387 Y14.2778
G01 X51.0512 Y14.2847
G01 X51.0633 Y14.2926
G01 X51.0747 Y14.3013
G01 X51.0855 Y14.3108
G01 X51.0955 Y14.3210
G01 X51.1047 Y14.3320
G01 X51.1104 Y14.3397
G01 X51.1183 Y14.3518
G01 X51.1252 Y14.3643
G01 X51.1312 Y14.3774
G01 X51.1362 Y14.3908
G01 X51.1402 Y14.4046
G01 X51.1431 Y14.4187
G01 X51.1445 Y14.4281
G01 X51.1458 Y14.4424
G01 X51.1460 Y14.4520
G01 X51.1460 Y18.9520
G01 X51.1455 Y18.9663
G01 X51.1439 Y18.9806
G01 X51.1413 Y18.9947
G01 X51.1376 Y19.0086
G01 X51.1329 Y19.0222
G01 X51.1273 Y19.0354
G01 X51.1207 Y19.0481
G01 X51.1131 Y19.0603
G01 X51.1047 Y19.0720
G01 X51.0955 Y19.0830
G01 X51.0889 Y19.0899
G01 X51.0784 Y19.0997
G01 X51.0672 Y19.1086
G01 X51.0553 Y19.1167
G01 X51.0429 Y19.1240
G01 X51.0300 Y19.1303
G01 X51.0167 Y19.1356
G01 X51.0030 Y19.1399
G01 X50.9843 Y19.1441
G01 X50.9701 Y19.1461
G01 X50.9558 Y19.1469
G01 X50.6441 Y19.1470
G01 X50.6442 Y21.5980
G01 X50.7385 Y21.6218
G01 X50.7480 Y21.6250
G01 X50.8493 Y21.6615
G01 X50.9553 Y21.7116
G01 X51.0559 Y21.7719
G01 X51.1501 Y21.8418
G01 X51.2370 Y21.9205
G01 X51.3157 Y22.0074
G01 X51.3801 Y22.0938
G01 X51.3907 Y22.1097
G01 X51.4459 Y22.2022
G01 X51.4922 Y22.2994
G01 X51.4995 Y22.3171
G01 X51.5325 Y22.4095
G01 X51.5381 Y22.4278
G01 X51.5640 Y22.5324
G01 X51.5812 Y22.6484
G01 X51.5870 Y22.7655
G01 X51.5819 Y22.8731
G01 X51.5801 Y22.8921
G01 X51.5657 Y22.9892
G01 X51.5619 Y23.0080
G01 X51.5355 Y23.1124
G01 X51.4960 Y23.2228
G01 X51.4459 Y23.3288
G01 X51.3907 Y23.4213
G01 X51.3801 Y23.4372
G01 X51.3216 Y23.5161
G01 X51.3095 Y23.5308
G01 X51.2370 Y23.6105
G01 X51.1501 Y23.6892
G01 X51.0559 Y23.7591
G01 X50.9636 Y23.8147
G01 X50.9468 Y23.8237
G01 X50.8581 Y23.8657
G01 X50.8404 Y23.8730
G01 X50.7389 Y23.9090
G01 X50.6345 Y23.9354
G01 X50.6157 Y23.9392
G01 X50.5091 Y23.9547
G01 X50.3920 Y23.9605
G01 X50.2749 Y23.9547
G01 X50.1589 Y23.9375
G01 X50.0451 Y23.9090
G01 X49.9347 Y23.8695
G01 X49.8287 Y23.8194
G01 X49.7281 Y23.7591
G01 X49.6339 Y23.6892
G01 X49.5470 Y23.6105
G01 X49.4683 Y23.5236
G01 X49.3984 Y23.4294
G01 X49.3381 Y23.3288
G01 X49.2880 Y23.2228
G01 X49.2485 Y23.1124
G01 X49.2210 Y23.0033
G01 X49.2183 Y22.9892
G01 X49.2039 Y22.8921
G01 X49.2021 Y22.8731
G01 X49.1970 Y22.7655
G01 X49.2028 Y22.6484
G01 X49.2183 Y22.5418
G01 X49.2221 Y22.5230
G01 X49.2483 Y22.4190
G01 X49.2845 Y22.3171
G01 X49.2918 Y22.2994
G01 X49.3338 Y22.2107
G01 X49.3428 Y22.1939
G01 X49.3984 Y22.1016
G01 X49.4624 Y22.0149
G01 X49.4745 Y22.0002
G01 X49.5470 Y21.9205
G01 X49.6302 Y21.8448
G01 X49.6376 Y21.8388
G01 X49.6539 Y21.8267
G01 X49.6538 Y19.1211
G01 X49.6427 Y19.1141
G01 X49.6310 Y19.1057
G01 X49.6236 Y19.0997
G01 X49.6131 Y19.0899
G01 X49.6065 Y19.0830
G01 X49.5973 Y19.0720
G01 X49.5889 Y19.0603
G01 X49.5837 Y19.0522
G01 X49.5790 Y19.0439
G01 X49.5727 Y19.0310
G01 X49.5674 Y19.0177
G01 X49.5644 Y19.0086
G01 X49.5607 Y18.9947
G01 X49.5581 Y18.9806
G01 X49.5565 Y18.9663
G01 X49.5561 Y18.9568
G01 X49.5560 Y14.8852
G01 X48.1549 Y13.4841
G01 X47.8031 Y13.4841
G01 X47.3131 Y13.9741
G01 X47.2844 Y14.0005
G01 X47.2734 Y14.0097
G01 X47.2381 Y14.0357
G01 X47.2047 Y14.0560
G01 X47.1879 Y14.0650
G01 X47.1612 Y14.0776
G01 X47.1479 Y14.0833
G01 X47.1067 Y14.0978
G01 X47.0643 Y14.1086
G01 X47.0502 Y14.1113
G01 X47.0210 Y14.1156
G01 X47.0020 Y14.1175
G01 X46.9630 Y14.1191
G01 X37.5650 Y14.1191
G01 X37.5260 Y14.1175
G01 X37.5117 Y14.1162
G01 X37.4778 Y14.1113
G01 X37.4591 Y14.1075
G01 X37.4305 Y14.1004
G01 X37.4167 Y14.0964
G01 X37.3844 Y14.0849
G01 X37.3711 Y14.0796
G01 X37.3316 Y14.0607
G01 X37.2899 Y14.0357
G01 X37.2509 Y14.0068
G01 X37.2218 Y13.9807
G01 X35.7089 Y12.4681
G01 X30.7851 Y12.4681
G01 X24.4711 Y18.7821
G01 X24.4712 Y19.4759
G01 X27.1510 Y19.4759
G01 X27.1900 Y19.4775
G01 X27.2090 Y19.4794
G01 X27.2476 Y19.4854
G01 X27.2855 Y19.4946
G01 X27.3038 Y19.5002
G01 X27.3405 Y19.5135
G01 X27.3759 Y19.5300
G01 X27.3927 Y19.5390
G01 X27.4258 Y19.5591
G01 X27.4614 Y19.5853
G01 X27.4724 Y19.5945
G01 X27.5011 Y19.6209
G01 X27.9202 Y20.0400
G01 X28.6650 Y20.0400
G01 X28.7038 Y20.0417
G01 X28.7181 Y20.0433
G01 X28.7518 Y20.0486
G01 X28.7896 Y20.0578
G01 X28.8033 Y20.0622
G01 X28.8353 Y20.0739
G01 X28.8662 Y20.0882
G01 X28.8790 Y20.0949
G01 X28.9082 Y20.1124
G01 X28.9201 Y20.1205
G01 X28.9473 Y20.1410
G01 X28.9797 Y20.1703
G01 X29.0090 Y20.2027
G01 X29.0350 Y20.2378
G01 X29.0575 Y20.2752
G01 X29.0761 Y20.3147
G01 X29.0908 Y20.3558
G01 X29.0994 Y20.3888
G01 X29.1023 Y20.4029
G01 X29.1079 Y20.4414
G01 X29.1100 Y20.4850
G01 X29.1099 Y21.2398
G01 X29.1079 Y21.2786
G01 X29.1031 Y21.3124
G01 X29.1005 Y21.3265
G01 X29.0908 Y21.3642
G01 X29.0779 Y21.4009
G01 X29.0722 Y21.4140
G01 X29.0575 Y21.4448
G01 X29.0401 Y21.4741
G01 X29.0323 Y21.4862
G01 X29.0090 Y21.5173
G01 X28.9830 Y21.5462
G01 X28.9727 Y21.5563
G01 X28.9473 Y21.5790
G01 X28.9201 Y21.5995
G01 X28.9082 Y21.6076
G01 X28.8748 Y21.6275
G01 X28.8353 Y21.6461
G01 X28.7987 Y21.6594
G01 X28.7850 Y21.6634
G01 X28.7518 Y21.6714
G01 X28.7181 Y21.6767
G01 X28.7038 Y21.6783
G01 X28.6698 Y21.6799
G01 X27.4150 Y21.6800
G01 X27.3714 Y21.6779
G01 X27.3376 Y21.6731
G01 X27.3235 Y21.6705
G01 X27.2858 Y21.6608
G01 X27.2491 Y21.6479
G01 X27.2360 Y21.6422
G01 X27.2052 Y21.6275
G01 X27.1759 Y21.6101
G01 X27.1638 Y21.6023
G01 X27.1327 Y21.5790
G01 X27.1003 Y21.5497
G01 X27.0710 Y21.5173
G01 X27.0450 Y21.4822
G01 X27.0225 Y21.4448
G01 X27.0039 Y21.4053
G01 X26.9892 Y21.3642
G01 X26.9786 Y21.3218
G01 X26.9721 Y21.2786
G01 X26.9700 Y21.2350
G01 X26.9700 Y20.4902
G01 X26.9459 Y20.4661
G01 X14.8881 Y20.4661
G01 X11.9614 Y23.3929
G01 X12.0310 Y23.5404
G01 X12.0870 Y23.6970
G01 X12.1274 Y23.8583
G01 X12.1518 Y24.0229
G01 X12.1600 Y24.1890
G01 X12.1518 Y24.3551
G01 X12.1274 Y24.5197
G01 X12.0896 Y24.6718
G01 X12.0840 Y24.6901
G01 X12.0310 Y24.8376
G01 X11.9642 Y24.9795
G01 X11.9551 Y24.9963
G01 X11.8795 Y25.1226
G01 X11.8688 Y25.1385
G01 X11.7753 Y25.2643
G01 X11.6635 Y25.3875
G01 X11.5403 Y25.4993
G01 X11.4067 Y25.5983
G01 X11.2640 Y25.6839
G01 X11.1224 Y25.7511
G01 X11.1047 Y25.7584
G01 X10.9570 Y25.8110
G01 X10.8050 Y25.8493
G01 X10.7872 Y25.8529
G01 X10.6311 Y25.8758
G01 X10.4650 Y25.8840
G01 X10.3084 Y25.8765
G01 X10.2894 Y25.8747
G01 X10.1343 Y25.8514
G01 X9.9822 Y25.8136
G01 X9.9639 Y25.8080
G01 X9.8164 Y25.7550
G01 X9.6660 Y25.6839
G01 X9.5314 Y25.6035
G01 X9.5155 Y25.5928
G01 X9.3897 Y25.4993
G01 X9.2734 Y25.3941
G01 X9.2599 Y25.3806
G01 X9.1547 Y25.2643
G01 X9.0612 Y25.1385
G01 X9.0505 Y25.1226
G01 X8.9701 Y24.9880
G01 X8.9029 Y24.8464
G01 X8.8956 Y24.8287
G01 X8.8430 Y24.6810
G01 X8.8047 Y24.5290
G01 X8.8009 Y24.5102
G00 Z2.0000
G00 X18.5116 Y24.5532
G01 F60.00
G01 Z-0.0500
G01 F120.00
G01 X18.4900 Y24.4076
G01 X18.4871 Y24.3838
G01 X18.4853 Y24.3599
G01 X18.4781 Y24.2129
G01 X18.4775 Y24.1890
G01 X18.4781 Y24.1651
G01 X18.4853 Y24.0181
G01 X18.4871 Y23.9942
G01 X18.4900 Y23.9704
G01 X18.5116 Y23.8248
G01 X18.5157 Y23.8013
G01 X18.5209 Y23.7779
G01 X18.5567 Y23.6351
G01 X18.5631 Y23.6121
G01 X18.5706 Y23.5893
G01 X18.6202 Y23.4507
G01 X18.6288 Y23.4284
G01 X18.6385 Y23.4065
G01 X18.7014 Y23.2735
G01 X18.7122 Y23.2521
G01 X18.7240 Y23.2313
G01 X18.7997 Y23.1050
G01 X18.8125 Y23.0848
G01 X18.8262 Y23.0652
G01 X18.9139 Y22.9470
G01 X18.9286 Y22.9281
G01 X18.9443 Y22.9100
G01 X19.0431 Y22.8010
G01 X19.0596 Y22.7836
G01 X19.0770 Y22.7671
G01 X19.1860 Y22.6683
G01 X19.2041 Y22.6526
G01 X19.2230 Y22.6379
G01 X19.3412 Y22.5502
G01 X19.3610 Y22.5363
G01 X19.3810 Y22.5237
G01 X19.5073 Y22.4480
G01 X19.5281 Y22.4362
G01 X19.5495 Y22.4254
G01 X19.6825 Y22.3625
G01 X19.7044 Y22.3528
G01 X19.7267 Y22.3442
G01 X19.8653 Y22.2946
G01 X19.8881 Y22.2871
G01 X19.9111 Y22.2807
G01 X20.0539 Y22.2449
G01 X20.0773 Y22.2397
G01 X20.1008 Y22.2356
G01 X20.2464 Y22.2140
G01 X20.2702 Y22.2111
G01 X20.2941 Y22.2093
G01 X20.4411 Y22.2021
G01 X20.4650 Y22.2015
G01 X20.4889 Y22.2021
G01 X20.6359 Y22.2093
G01 X20.6598 Y22.2111
G01 X20.6836 Y22.2140
G01 X20.8292 Y22.2356
G01 X20.8527 Y22.2397
G01 X20.8761 Y22.2449
G01 X21.0189 Y22.2807
G01 X21.0419 Y22.2871
G01 X21.0647 Y22.2946
G01 X21.2033 Y22.3442
G01 X21.2256 Y22.3528
G01 X21.2475 Y22.3625
G01 X21.3805 Y22.4254
G01 X21.4019 Y22.4362
G01 X21.4227 Y22.4480
G01 X21.5490 Y22.5237
G01 X21.5692 Y22.5365
G01 X21.5888 Y22.5502
G01 X21.7165 Y22.6452
G01 X21.7350 Y22.6603
G01 X21.7440 Y22.6683
G01 X21.8530 Y22.7671
G01 X21.8704 Y22.7836
G01 X21.8869 Y22.8010
G01 X21.9857 Y22.9100
G01 X22.0014 Y22.9281
G01 X22.0161 Y22.9470
G01 X22.1038 Y23.0652
G01 X22.1177 Y23.0850
G01 X22.1303 Y23.1050
G01 X22.2060 Y23.2313
G01 X22.2178 Y23.2521
G01 X22.2286 Y23.2735
G01 X22.2915 Y23.4065
G01 X22.3012 Y23.4284
G01 X22.3098 Y23.4507
G01 X22.3594 Y23.5893
G01 X22.3669 Y23.6121
G01 X22.3733 Y23.6351
G01 X22.4091 Y23.7779
G01 X22.4143 Y23.8013
G01 X22.4184 Y23.8248
G01 X22.4400 Y23.9704
G01 X22.4429 Y23.9942
G01 X22.4447 Y24.0181
G01 X22.4519 Y24.1651
G01 X22.4525 Y24.1890
G01 X22.4519 Y24.2129
G01 X22.4447 Y24.3599
G01 X22.4429 Y24.3838
G01 X22.4400 Y24.4076
G01 X22.4184 Y24.5532
G01 X22.4143 Y24.5767
G01 X22.4091 Y24.6001
G01 X22.3733 Y24.7429
G01 X22.3669 Y24.7659
G01 X22.3594 Y24.7887
G01 X22.3118 Y24.9219
G01 X31.6533 Y34.2636
G01 X31.6812 Y34.2942
G01 X31.6969 Y34.3123
G01 X31.7116 Y34.3312
G01 X31.7291 Y34.3548
G01 X31.7429 Y34.3744
G01 X31.7557 Y34.3946
G01 X31.7709 Y34.4199
G01 X31.7826 Y34.4407
G01 X31.7934 Y34.4621
G01 X31.8110 Y34.4996
G01 X31.8201 Y34.5217
G01 X31.8381 Y34.5720
G01 X31.8451 Y34.5948
G01 X31.8553 Y34.6350
G01 X31.8605 Y34.6583
G01 X31.8627 Y34.6701
G01 X31.8689 Y34.7110
G01 X31.8719 Y34.7348
G01 X31.8736 Y34.7587
G01 X32.1763 Y35.0614
G01 X39.7324 Y35.0613
G01 X40.6450 Y34.1438
G01 X40.6414 Y34.1182
G01 X40.6390 Y34.0944
G01 X40.6371 Y34.0579
G01 X40.6365 Y34.0340
G01 X40.6365 Y33.3340
G01 X40.6371 Y33.3101
G01 X40.6383 Y33.2856
G01 X40.6401 Y33.2617
G01 X40.6430 Y33.2380
G01 X40.6466 Y33.2137
G01 X40.6485 Y33.2019
G01 X40.6531 Y33.1784
G01 X40.6649 Y33.1314
G01 X40.6719 Y33.1085
G01 X40.6758 Y33.0972
G01 X40.6840 Y33.0741
G01 X40.6926 Y33.0518
G01 X40.7023 Y33.0299
G01 X40.7128 Y33.0077
G01 X40.7181 Y32.9970
G01 X40.7294 Y32.9759
G01 X40.7543 Y32.9343
G01 X40.7608 Y32.9243
G01 X40.7746 Y32.9047
G01 X40.7892 Y32.8850
G01 X40.8039 Y32.8661
G01 X40.8195 Y32.8480
G01 X40.8360 Y32.8298
G01 X40.8525 Y32.8125
G01 X40.8611 Y32.8042
G01 X40.8970 Y32.7716
G01 X40.9155 Y32.7564
G01 X40.9250 Y32.7492
G01 X40.9447 Y32.7346
G01 X40.9643 Y32.7208
G01 X40.9845 Y32.7080
G01 X41.0055 Y32.6954
G01 X41.0159 Y32.6894
G01 X41.0370 Y32.6781
G01 X41.0808 Y32.6574
G01 X41.0918 Y32.6526
G01 X41.1141 Y32.6440
G01 X41.1372 Y32.6358
G01 X41.1599 Y32.6283
G01 X41.1830 Y32.6219
G01 X41.2068 Y32.6159
G01 X41.2301 Y32.6107
G01 X41.2537 Y32.6066
G01 X41.2780 Y32.6030
G01 X41.3034 Y32.5999
G01 X41.3161 Y32.5988
G01 X41.3501 Y32.5971
G01 X41.3740 Y32.5965
G01 X43.0740 Y32.5965
G01 X43.0979 Y32.5971
G01 X43.1224 Y32.5983
G01 X43.1344 Y32.5990
G01 X43.1582 Y32.6014
G01 X43.1943 Y32.6066
G01 X43.2179 Y32.6107
G01 X43.2412 Y32.6159
G01 X43.2766 Y32.6249
G01 X43.2881 Y32.6283
G01 X43.3108 Y32.6358
G01 X43.3339 Y32.6440
G01 X43.3562 Y32.6526
G01 X43.3781 Y32.6623
G01 X43.4110 Y32.6781
G01 X43.4217 Y32.6836
G01 X43.4425 Y32.6954
G01 X43.4737 Y32.7143
G01 X43.4936 Y32.7276
G01 X43.5325 Y32.7564
G01 X43.5510 Y32.7716
G01 X43.5869 Y32.8042
G01 X43.6038 Y32.8211
G01 X43.6364 Y32.8570
G01 X43.6516 Y32.8755
G01 X43.6804 Y32.9144
G01 X43.6937 Y32.9343
G01 X43.7186 Y32.9759
G01 X43.7299 Y32.9970
G01 X43.7506 Y33.0408
G01 X43.7598 Y33.0629
G01 X43.7761 Y33.1085
G01 X43.7831 Y33.1314
G01 X43.7949 Y33.1784
G01 X43.7995 Y33.2019
G01 X43.8050 Y33.2380
G01 X43.8081 Y33.2634
G01 X43.8097 Y33.2856
G01 X43.8114 Y33.3220
G01 X43.8114 Y34.0460
G01 X43.8097 Y34.0824
G01 X43.8079 Y34.1063
G01 X43.8050 Y34.1300
G01 X43.8014 Y34.1543
G01 X43.7973 Y34.1779
G01 X43.7921 Y34.2012
G01 X43.7861 Y34.2250
G01 X43.7797 Y34.2481
G01 X43.7722 Y34.2708
G01 X43.7598 Y34.3051
G01 X43.7554 Y34.3162
G01 X43.7457 Y34.3381
G01 X43.7352 Y34.3603
G01 X43.7244 Y34.3817
G01 X43.7126 Y34.4025
G01 X43.7000 Y34.4235
G01 X43.6872 Y34.4437
G01 X43.6734 Y34.4633
G01 X43.6588 Y34.4830
G01 X43.6516 Y34.4925
G01 X43.6364 Y34.5110
G01 X43.6038 Y34.5469
G01 X43.5869 Y34.5638
G01 X43.5782 Y34.5720
G01 X43.5600 Y34.5885
G01 X43.5419 Y34.6041
G01 X43.5230 Y34.6188
G01 X43.5033 Y34.6334
G01 X43.4837 Y34.6472
G01 X43.4737 Y34.6537
G01 X43.4321 Y34.6786
G01 X43.4217 Y34.6844
G01 X43.4003 Y34.6952
G01 X43.3781 Y34.7057
G01 X43.3562 Y34.7154
G01 X43.3339 Y34.7240
G01 X43.3108 Y34.7322
G01 X43.2881 Y34.7397
G01 X43.2650 Y34.7461
G01 X43.2296 Y34.7549
G01 X43.2179 Y34.7573
G01 X43.1943 Y34.7614
G01 X43.1700 Y34.7650
G01 X43.1463 Y34.7679
G01 X43.1224 Y34.7697
G01 X43.0860 Y34.7714
G01 X42.2504 Y34.7715
G01 X41.0003 Y36.0216
G01 X40.9921 Y36.0546
G01 X40.9857 Y36.0776
G01 X40.9782 Y36.1004
G01 X40.9683 Y36.1281
G01 X40.9597 Y36.1504
G01 X40.9550 Y36.1614
G01 X40.9374 Y36.1989
G01 X40.9266 Y36.2203
G01 X40.9149 Y36.2411
G01 X40.8934 Y36.2766
G01 X40.8869 Y36.2866
G01 X40.8731 Y36.3062
G01 X40.8483 Y36.3393
G01 X40.8332 Y36.3578
G01 X40.8055 Y36.3886
G01 X40.7890 Y36.4060
G01 X40.7716 Y36.4225
G01 X40.7408 Y36.4502
G01 X40.7223 Y36.4653
G01 X40.6892 Y36.4901
G01 X40.6795 Y36.4971
G01 X40.6596 Y36.5104
G01 X40.6241 Y36.5319
G01 X40.6033 Y36.5436
G01 X40.5819 Y36.5544
G01 X40.5443 Y36.5720
G01 X40.5332 Y36.5768
G01 X40.5111 Y36.5853
G01 X40.4720 Y36.5991
G01 X40.4492 Y36.6061
G01 X40.4090 Y36.6163
G01 X40.3857 Y36.6215
G01 X40.3621 Y36.6256
G01 X40.3330 Y36.6299
G01 X40.3092 Y36.6329
G01 X40.2853 Y36.6346
G01 X40.2559 Y36.6361
G01 X40.2320 Y36.6366
G01 X31.8500 Y36.6366
G01 X31.8261 Y36.6361
G01 X31.7967 Y36.6346
G01 X31.7728 Y36.6329
G01 X31.7490 Y36.6299
G01 X31.7199 Y36.6256
G01 X31.6963 Y36.6215
G01 X31.6730 Y36.6163
G01 X31.6444 Y36.6091
G01 X31.6214 Y36.6027
G01 X31.5986 Y36.5952
G01 X31.5597 Y36.5811
G01 X31.5376 Y36.5720
G01 X31.4893 Y36.5492
G01 X31.4682 Y36.5379
G01 X31.4224 Y36.5104
G01 X31.4025 Y36.4971
G01 X31.3597 Y36.4653
G01 X31.3412 Y36.4502
G01 X31.3104 Y36.4225
G01 X31.2930 Y36.4060
G01 X30.5310 Y35.6440
G01 X30.5145 Y35.6266
G01 X30.4868 Y35.5958
G01 X30.4717 Y35.5773
G01 X30.4469 Y35.5442
G01 X30.4331 Y35.5246
G01 X30.4203 Y35.5044
G01 X30.3991 Y35.4688
G01 X30.3878 Y35.4477
G01 X30.3700 Y35.4103
G01 X30.3601 Y35.3879
G01 X30.3517 Y35.3661
G01 X30.3418 Y35.3384
G01 X30.3343 Y35.3156
G01 X30.3279 Y35.2926
G01 X30.3180 Y35.2524
G01 X30.3133 Y35.2289
G01 X30.3071 Y35.1880
G01 X30.3041 Y35.1642
G01 X30.3024 Y35.1403
G01 X21.1979 Y26.0358
G01 X21.0647 Y26.0834
G01 X21.0419 Y26.0909
G01 X21.0189 Y26.0973
G01 X20.8761 Y26.1331
G01 X20.8539 Y26.1381
G01 X20.8315 Y26.1421
G01 X20.6836 Y26.1640
G01 X20.6598 Y26.1669
G01 X20.6359 Y26.1687
G01 X20.4889 Y26.1759
G01 X20.4650 Y26.1765
G01 X20.4411 Y26.1759
G01 X20.2941 Y26.1687
G01 X20.2702 Y26.1669
G01 X20.2464 Y26.1640
G01 X20.1008 Y26.1424
G01 X20.0773 Y26.1383
G01 X20.0539 Y26.1331
G01 X19.9111 Y26.0973
G01 X19.8881 Y26.0909
G01 X19.8653 Y26.0834
G01 X19.7267 Y26.0338
G01 X19.7044 Y26.0252
G01 X19.6825 Y26.0155
G01 X19.5495 Y25.9526
G01 X19.5281 Y25.9418
G01 X19.5176 Y25.9360
G01 X19.3810 Y25.8543
G01 X19.3608 Y25.8415
G01 X19.3412 Y25.8278
G01 X19.2230 Y25.7401
G01 X19.2041 Y25.7254
G01 X19.1860 Y25.7097
G01 X19.0770 Y25.6109
G01 X19.0596 Y25.5944
G01 X19.0431 Y25.5770
G01 X18.9443 Y25.4680
G01 X18.9286 Y25.4499
G01 X18.9139 Y25.4310
G01 X18.8262 Y25.3128
G01 X18.8125 Y25.2932
G01 X18.7997 Y25.2730
G01 X18.7240 Y25.1467
G01 X18.7122 Y25.1259
G01 X18.7014 Y25.1045
G01 X18.6385 Y24.9715
G01 X18.6288 Y24.9496
G01 X18.6202 Y24.9273
G01 X18.5706 Y24.7887
G01 X18.5631 Y24.7659
G01 X18.5567 Y24.7429
G01 X18.5209 Y24.6001
G01 X18.5159 Y24.5779
G01 X18.5116 Y24.5532
G00 Z2.0000
G00 X18.8009 Y24.5102
G01 F60.00
G01 Z-0.0500
G01 F120.00
G01 X18.7782 Y24.3551
G01 X18.7702 Y24.1986
G01 X18.7702 Y24.1794
G01 X18.7782 Y24.0229
G01 X18.8026 Y23.8583
G01 X18.8404 Y23.7062
G01 X18.8460 Y23.6879
G01 X18.8956 Y23.5493
G01 X18.9029 Y23.5316
G01 X18.9701 Y23.3900
G01 X19.0557 Y23.2473
G01 X19.1547 Y23.1137
G01 X19.2599 Y22.9974
G01 X19.2734 Y22.9839
G01 X19.3825 Y22.8850
G01 X19.3972 Y22.8729
G01 X19.5234 Y22.7796
G01 X19.6577 Y22.6989
G01 X19.6745 Y22.6898
G01 X19.8076 Y22.6269
G01 X19.8253 Y22.6196
G01 X19.9730 Y22.5670
G01 X20.1343 Y22.5266
G01 X20.2894 Y22.5033
G01 X20.3084 Y22.5015
G01 X20.4650 Y22.4940
G01 X20.6311 Y22.5022
G01 X20.7862 Y22.5249
G01 X20.8050 Y22.5287
G01 X20.9570 Y22.5670
G01 X21.1136 Y22.6230
G01 X21.2555 Y22.6898
G01 X21.2723 Y22.6989
G01 X21.4067 Y22.7797
G01 X21.5403 Y22.8787
G01 X21.6635 Y22.9905
G01 X21.7753 Y23.1137
G01 X21.8744 Y23.2474
G01 X21.9551 Y23.3817
G01 X21.9642 Y23.3985
G01 X22.0271 Y23.5316
G01 X22.0344 Y23.5493
G01 X22.0870 Y23.6970
G01 X22.1274 Y23.8583
G01 X22.1518 Y24.0229
G01 X22.1598 Y24.1794
G01 X22.1598 Y24.1986
G01 X22.1525 Y24.3456
G01 X22.1507 Y24.3646
G01 X22.1274 Y24.5197
G01 X22.0870 Y24.6810
G01 X22.0310 Y24.8376
G01 X21.9614 Y24.9851
G01 X31.4415 Y34.4653
G01 X31.4645 Y34.4906
G01 X31.4737 Y34.5016
G01 X31.4970 Y34.5330
G01 X31.5048 Y34.5450
G01 X31.5247 Y34.5786
G01 X31.5416 Y34.6138
G01 X31.5472 Y34.6270
G01 X31.5604 Y34.6637
G01 X31.5644 Y34.6775
G01 X31.5736 Y34.7154
G01 X31.5808 Y34.7635
G01 X31.5831 Y34.8072
G01 X31.5831 Y34.8819
G01 X32.0551 Y35.3539
G01 X39.8562 Y35.3538
G01 X39.8819 Y35.3259
G01 X40.9757 Y34.2320
G01 X40.9629 Y34.2043
G01 X40.9512 Y34.1723
G01 X40.9468 Y34.1586
G01 X40.9396 Y34.1302
G01 X40.9367 Y34.1161
G01 X40.9317 Y34.0824
G01 X40.9304 Y34.0681
G01 X40.9291 Y34.0388
G01 X40.9291 Y33.3292
G01 X40.9311 Y33.2904
G01 X40.9359 Y33.2566
G01 X40.9385 Y33.2425
G01 X40.9468 Y33.2094
G01 X40.9496 Y33.2003
G01 X40.9594 Y33.1726
G01 X40.9668 Y33.1550
G01 X40.9815 Y33.1242
G01 X41.0040 Y33.0868
G01 X41.0270 Y33.0554
G01 X41.0363 Y33.0444
G01 X41.0593 Y33.0193
G01 X41.0917 Y32.9900
G01 X41.1268 Y32.9640
G01 X41.1559 Y32.9463
G01 X41.1685 Y32.9393
G01 X41.2037 Y32.9229
G01 X41.2448 Y32.9082
G01 X41.2778 Y32.8996
G01 X41.2919 Y32.8967
G01 X41.3310 Y32.8911
G01 X41.3740 Y32.8890
G01 X43.0788 Y32.8891
G01 X43.1176 Y32.8911
G01 X43.1514 Y32.8959
G01 X43.1655 Y32.8985
G01 X43.2032 Y32.9082
G01 X43.2399 Y32.9211
G01 X43.2530 Y32.9268
G01 X43.2838 Y32.9415
G01 X43.3131 Y32.9589
G01 X43.3252 Y32.9667
G01 X43.3563 Y32.9900
G01 X43.3887 Y33.0193
G01 X43.4180 Y33.0517
G01 X43.4385 Y33.0789
G01 X43.4466 Y33.0908
G01 X43.4617 Y33.1159
G01 X43.4687 Y33.1285
G01 X43.4832 Y33.1593
G01 X43.4886 Y33.1726
G01 X43.4998 Y33.2048
G01 X43.5084 Y33.2378
G01 X43.5113 Y33.2519
G01 X43.5157 Y33.2809
G01 X43.5173 Y33.2961
G01 X43.5190 Y33.3340
G01 X43.5189 Y34.0388
G01 X43.5169 Y34.0776
G01 X43.5104 Y34.1208
G01 X43.4998 Y34.1632
G01 X43.4869 Y34.1999
G01 X43.4812 Y34.2130
G01 X43.4665 Y34.2438
G01 X43.4466 Y34.2772
G01 X43.4385 Y34.2891
G01 X43.4180 Y34.3163
G01 X43.3953 Y34.3417
G01 X43.3852 Y34.3520
G01 X43.3563 Y34.3780
G01 X43.3212 Y34.4040
G01 X43.2880 Y34.4241
G01 X43.2752 Y34.4308
G01 X43.2443 Y34.4451
G01 X43.2123 Y34.4568
G01 X43.1986 Y34.4612
G01 X43.1608 Y34.4704
G01 X43.1176 Y34.4769
G01 X43.0740 Y34.4790
G01 X42.1292 Y34.4790
G01 X40.7257 Y35.8825
G01 X40.7248 Y35.8975
G01 X40.7236 Y35.9070
G01 X40.7185 Y35.9409
G01 X40.7155 Y35.9549
G01 X40.7084 Y35.9835
G01 X40.7044 Y35.9973
G01 X40.6929 Y36.0296
G01 X40.6876 Y36.0429
G01 X40.6687 Y36.0824
G01 X40.6437 Y36.1241
G01 X40.6148 Y36.1631
G01 X40.5855 Y36.1957
G01 X40.5752 Y36.2057
G01 X40.5534 Y36.2255
G01 X40.5386 Y36.2376
G01 X40.5071 Y36.2607
G01 X40.4654 Y36.2857
G01 X40.4214 Y36.3065
G01 X40.3848 Y36.3198
G01 X40.3665 Y36.3254
G01 X40.3379 Y36.3325
G01 X40.3239 Y36.3355
G01 X40.2805 Y36.3418
G01 X40.2320 Y36.3441
G01 X31.8500 Y36.3441
G01 X31.8015 Y36.3418
G01 X31.7534 Y36.3346
G01 X31.7063 Y36.3228
G01 X31.6650 Y36.3082
G01 X31.6518 Y36.3026
G01 X31.6166 Y36.2857
G01 X31.5749 Y36.2607
G01 X31.5359 Y36.2318
G01 X31.5033 Y36.2025
G01 X30.7379 Y35.4371
G01 X30.7052 Y35.4011
G01 X30.6763 Y35.3621
G01 X30.6513 Y35.3204
G01 X30.6305 Y35.2763
G01 X30.6142 Y35.2307
G01 X30.6024 Y35.1836
G01 X30.5952 Y35.1355
G01 X30.5929 Y35.0918
G01 X30.5929 Y35.0171
G01 X21.2611 Y25.6854
G01 X21.1224 Y25.7511
G01 X21.1047 Y25.7584
G01 X20.9570 Y25.8110
G01 X20.8050 Y25.8493
G01 X20.7872 Y25.8529
G01 X20.6311 Y25.8758
G01 X20.4650 Y25.8840
G01 X20.2989 Y25.8758
G01 X20.1438 Y25.8531
G01 X20.1250 Y25.8493
G01 X19.9730 Y25.8110
G01 X19.8253 Y25.7584
G01 X19.8076 Y25.7511
G01 X19.6745 Y25.6882
G01 X19.6577 Y25.6791
G01 X19.5233 Y25.5983
G01 X19.3972 Y25.5051
G01 X19.3825 Y25.4930
G01 X19.2734 Y25.3941
G01 X19.2599 Y25.3806
G01 X19.1547 Y25.2643
G01 X19.0612 Y25.1385
G01 X19.0505 Y25.1226
G01 X18.9701 Y24.9880
G01 X18.8990 Y24.8376
G01 X18.8430 Y24.6810
G01 X18.8047 Y24.5290
G01 X18.8009 Y24.5102
G00 Z2.0000
G00 X26.8713 Y24.5329
G01 F60.00
G01 Z-0.0500
G01 F120.00
G01 X26.8526 Y24.5120
G01 X26.8374 Y24.4935
G01 X26.8156 Y24.4643
G01 X26.8018 Y24.4447
G01 X26.7890 Y24.4245
G01 X26.7704 Y24.3931
G01 X26.7591 Y24.3720
G01 X26.7433 Y24.3391
G01 X26.7336 Y24.3172
G01 X26.7250 Y24.2949
G01 X26.7129 Y24.2605
G01 X26.7059 Y24.2376
G01 X26.6969 Y24.2022
G01 X26.6917 Y24.1789
G01 X26.6876 Y24.1553
G01 X26.6840 Y24.1310
G01 X26.6811 Y24.1073
G01 X26.6800 Y24.0954
G01 X26.6781 Y24.0589
G01 X26.6775 Y24.0350
G01 X26.6775 Y23.2850
G01 X26.6781 Y23.2611
G01 X26.6800 Y23.2246
G01 X26.6824 Y23.2008
G01 X26.6840 Y23.1890
G01 X26.6876 Y23.1647
G01 X26.6917 Y23.1411
G01 X26.6969 Y23.1178
G01 X26.7029 Y23.0940
G01 X26.7093 Y23.0709
G01 X26.7168 Y23.0482
G01 X26.7250 Y23.0251
G01 X26.7336 Y23.0028
G01 X26.7433 Y22.9809
G01 X26.7538 Y22.9587
G01 X26.7591 Y22.9480
G01 X26.7704 Y22.9269
G01 X26.7953 Y22.8853
G01 X26.8086 Y22.8654
G01 X26.8374 Y22.8265
G01 X26.8526 Y22.8080
G01 X26.8605 Y22.7990
G01 X26.8770 Y22.7808
G01 X26.8935 Y22.7635
G01 X26.9108 Y22.7470
G01 X26.9290 Y22.7305
G01 X26.9380 Y22.7226
G01 X26.9565 Y22.7074
G01 X26.9954 Y22.6786
G01 X27.0153 Y22.6653
G01 X27.0465 Y22.6464
G01 X27.0673 Y22.6346
G01 X27.0887 Y22.6238
G01 X27.1218 Y22.6084
G01 X27.1439 Y22.5992
G01 X27.1782 Y22.5868
G01 X27.2009 Y22.5793
G01 X27.2240 Y22.5729
G01 X27.2478 Y22.5669
G01 X27.2711 Y22.5617
G01 X27.2829 Y22.5595
G01 X27.3316 Y22.5523
G01 X27.3619 Y22.5496
G01 X27.3799 Y22.5427
G01 X27.4076 Y22.5328
G01 X27.4304 Y22.5253
G01 X27.4534 Y22.5189
G01 X27.4936 Y22.5090
G01 X27.5171 Y22.5043
G01 X27.5289 Y22.5024
G01 X27.5699 Y22.4965
G01 X27.5937 Y22.4941
G01 X27.6470 Y22.4915
G01 X27.6710 Y22.4915
G01 X27.6829 Y22.4919
G01 X27.7123 Y22.4934
G01 X27.7362 Y22.4951
G01 X27.7600 Y22.4981
G01 X27.7891 Y22.5024
G01 X27.8127 Y22.5065
G01 X27.8244 Y22.5090
G01 X27.8762 Y22.5219
G01 X27.8990 Y22.5289
G01 X27.9509 Y22.5475
G01 X28.6650 Y22.5475
G01 X28.6889 Y22.5481
G01 X28.7254 Y22.5500
G01 X28.7492 Y22.5524
G01 X28.7610 Y22.5540
G01 X28.7853 Y22.5576
G01 X28.8089 Y22.5617
G01 X28.8322 Y22.5669
G01 X28.8560 Y22.5729
G01 X28.8791 Y22.5793
G01 X28.9018 Y22.5868
G01 X28.9249 Y22.5950
G01 X28.9472 Y22.6036
G01 X28.9691 Y22.6133
G01 X28.9913 Y22.6238
G01 X29.0020 Y22.6291
G01 X29.0231 Y22.6404
G01 X29.0647 Y22.6653
G01 X29.0846 Y22.6786
G01 X29.1235 Y22.7074
G01 X29.1420 Y22.7226
G01 X29.1510 Y22.7305
G01 X29.1692 Y22.7470
G01 X29.1865 Y22.7635
G01 X29.2030 Y22.7808
G01 X29.2195 Y22.7990
G01 X29.2351 Y22.8171
G01 X29.2426 Y22.8265
G01 X29.2714 Y22.8654
G01 X29.2847 Y22.8853
G01 X29.3036 Y22.9165
G01 X29.3096 Y22.9269
G01 X29.3209 Y22.9480
G01 X29.3367 Y22.9809
G01 X29.3464 Y23.0028
G01 X29.3550 Y23.0251
G01 X29.3671 Y23.0595
G01 X29.3741 Y23.0824
G01 X29.3831 Y23.1178
G01 X29.3859 Y23.1294
G01 X29.3905 Y23.1529
G01 X29.3960 Y23.1890
G01 X29.3991 Y23.2144
G01 X29.4002 Y23.2271
G01 X29.4019 Y23.2611
G01 X29.4025 Y23.2850
G01 X29.4025 Y24.0350
G01 X29.4019 Y24.0589
G01 X29.4007 Y24.0834
G01 X29.4000 Y24.0954
G01 X29.3976 Y24.1192
G01 X29.3924 Y24.1553
G01 X29.3883 Y24.1789
G01 X29.3831 Y24.2022
G01 X29.3741 Y24.2376
G01 X29.3671 Y24.2605
G01 X29.3508 Y24.3061
G01 X29.3416 Y24.3282
G01 X29.3262 Y24.3613
G01 X29.3154 Y24.3827
G01 X29.3036 Y24.4035
G01 X29.2910 Y24.4245
G01 X29.2782 Y24.4447
G01 X29.2644 Y24.4643
G01 X29.2498 Y24.4840
G01 X29.2351 Y24.5029
G01 X29.2195 Y24.5210
G01 X29.1948 Y24.5479
G01 X29.1779 Y24.5648
G01 X29.1510 Y24.5895
G01 X29.1329 Y24.6051
G01 X29.1140 Y24.6198
G01 X29.0846 Y24.6414
G01 X29.0647 Y24.6547
G01 X29.0231 Y24.6796
G01 X29.0020 Y24.6909
G01 X28.9691 Y24.7067
G01 X28.9472 Y24.7164
G01 X28.9249 Y24.7250
G01 X28.9018 Y24.7332
G01 X28.8791 Y24.7407
G01 X28.8560 Y24.7471
G01 X28.8206 Y24.7559
G01 X28.7971 Y24.7605
G01 X28.7610 Y24.7660
G01 X28.7492 Y24.7676
G01 X28.7254 Y24.7700
G01 X28.6770 Y24.7724
G01 X28.4466 Y24.7725
G01 X28.4466 Y25.1087
G01 X28.6585 Y25.3205
G01 X28.6750 Y25.3379
G01 X28.7027 Y25.3687
G01 X28.7178 Y25.3872
G01 X28.7251 Y25.3967
G01 X28.7426 Y25.4203
G01 X28.7564 Y25.4399
G01 X28.7692 Y25.4601
G01 X28.7844 Y25.4854
G01 X28.7961 Y25.5062
G01 X28.8069 Y25.5276
G01 X28.8195 Y25.5542
G01 X28.8292 Y25.5761
G01 X28.8336 Y25.5872
G01 X28.8477 Y25.6261
G01 X28.8552 Y25.6489
G01 X28.8616 Y25.6719
G01 X28.8688 Y25.7005
G01 X28.8740 Y25.7238
G01 X28.8762 Y25.7356
G01 X28.8824 Y25.7765
G01 X28.8854 Y25.8003
G01 X28.8871 Y25.8242
G01 X28.8886 Y25.8536
G01 X28.8890 Y25.8655
G01 X28.8891 Y25.8970
G01 X28.9182 Y25.9230
G01 X28.9355 Y25.9395
G01 X28.9520 Y25.9568
G01 X28.9685 Y25.9750
G01 X28.9841 Y25.9931
G01 X28.9988 Y26.0120
G01 X29.0134 Y26.0317
G01 X29.0272 Y26.0513
G01 X29.0400 Y26.0715
G01 X29.0526 Y26.0925
G01 X29.0644 Y26.1133
G01 X29.0752 Y26.1347
G01 X29.0857 Y26.1569
G01 X29.0954 Y26.1788
G01 X29.1040 Y26.2011
G01 X29.1122 Y26.2242
G01 X29.1197 Y26.2469
G01 X29.1261 Y26.2700
G01 X29.1321 Y26.2938
G01 X29.1373 Y26.3171
G01 X29.1414 Y26.3407
G01 X29.1450 Y26.3650
G01 X29.1481 Y26.3904
G01 X29.1492 Y26.4031
G01 X29.1509 Y26.4371
G01 X29.1515 Y26.4610
G01 X29.1515 Y27.7110
G01 X29.1509 Y27.7349
G01 X29.1497 Y27.7594
G01 X29.1479 Y27.7833
G01 X29.1450 Y27.8070
G01 X29.1414 Y27.8313
G01 X29.1373 Y27.8549
G01 X29.1321 Y27.8782
G01 X29.1261 Y27.9020
G01 X29.1197 Y27.9251
G01 X29.1122 Y27.9478
G01 X29.1040 Y27.9709
G01 X29.0954 Y27.9932
G01 X29.0906 Y28.0042
G01 X29.0699 Y28.0480
G01 X29.0644 Y28.0587
G01 X29.0526 Y28.0795
G01 X29.0400 Y28.1005
G01 X29.0272 Y28.1207
G01 X29.0134 Y28.1403
G01 X28.9988 Y28.1600
G01 X28.9916 Y28.1695
G01 X28.9764 Y28.1880
G01 X28.9438 Y28.2239
G01 X28.9269 Y28.2408
G01 X28.9182 Y28.2490
G01 X28.9000 Y28.2655
G01 X28.8819 Y28.2811
G01 X28.8630 Y28.2958
G01 X28.8433 Y28.3104
G01 X28.8237 Y28.3242
G01 X28.8035 Y28.3370
G01 X28.7825 Y28.3496
G01 X28.7721 Y28.3556
G01 X28.7510 Y28.3669
G01 X28.7072 Y28.3876
G01 X28.6851 Y28.3968
G01 X28.6395 Y28.4131
G01 X28.6166 Y28.4201
G01 X28.5696 Y28.4319
G01 X28.5461 Y28.4365
G01 X28.4982 Y28.4436
G01 X28.4744 Y28.4460
G01 X28.4624 Y28.4467
G01 X28.4379 Y28.4479
G01 X28.4140 Y28.4485
G01 X27.7770 Y28.4484
G01 X27.7406 Y28.4467
G01 X27.7167 Y28.4449
G01 X27.6930 Y28.4420
G01 X27.6687 Y28.4384
G01 X27.6451 Y28.4343
G01 X27.6218 Y28.4291
G01 X27.5980 Y28.4231
G01 X27.5749 Y28.4167
G01 X27.5522 Y28.4092
G01 X27.5291 Y28.4010
G01 X27.5179 Y28.3968
G01 X27.4958 Y28.3876
G01 X27.4520 Y28.3669
G01 X27.4309 Y28.3556
G01 X27.4205 Y28.3496
G01 X27.3995 Y28.3370
G01 X27.3793 Y28.3242
G01 X27.3597 Y28.3104
G01 X27.3400 Y28.2958
G01 X27.3211 Y28.2811
G01 X27.3120 Y28.2734
G01 X27.2761 Y28.2408
G01 X27.2592 Y28.2239
G01 X27.2510 Y28.2152
G01 X27.2345 Y28.1970
G01 X27.2189 Y28.1789
G01 X27.2042 Y28.1600
G01 X27.1896 Y28.1403
G01 X27.1758 Y28.1207
G01 X27.1630 Y28.1005
G01 X27.1504 Y28.0795
G01 X27.1444 Y28.0691
G01 X27.1331 Y28.0480
G01 X27.1124 Y28.0042
G01 X27.1032 Y27.9821
G01 X27.0869 Y27.9365
G01 X27.0799 Y27.9136
G01 X27.0681 Y27.8666
G01 X27.0635 Y27.8431
G01 X27.0564 Y27.7952
G01 X27.0551 Y27.7833
G01 X27.0533 Y27.7594
G01 X27.0521 Y27.7349
G01 X27.0515 Y27.7110
G01 X27.0516 Y26.4490
G01 X27.0533 Y26.4126
G01 X27.0551 Y26.3887
G01 X27.0580 Y26.3650
G01 X27.0616 Y26.3407
G01 X27.0635 Y26.3289
G01 X27.0681 Y26.3054
G01 X27.0769 Y26.2700
G01 X27.0833 Y26.2469
G01 X27.0908 Y26.2242
G01 X27.1032 Y26.1899
G01 X27.1076 Y26.1788
G01 X27.1173 Y26.1569
G01 X27.1278 Y26.1347
G01 X27.1386 Y26.1133
G01 X27.1504 Y26.0925
G01 X27.1701 Y26.0600
G01 X27.0937 Y25.9834
G01 X27.0578 Y25.9438
G01 X27.0427 Y25.9253
G01 X27.0179 Y25.8922
G01 X27.0041 Y25.8726
G01 X26.9913 Y25.8524
G01 X26.9701 Y25.8168
G01 X26.9588 Y25.7957
G01 X26.9359 Y25.7472
G01 X26.9266 Y25.7245
G01 X26.9128 Y25.6864
G01 X26.9053 Y25.6636
G01 X26.8989 Y25.6406
G01 X26.8917 Y25.6120
G01 X26.8865 Y25.5887
G01 X26.8824 Y25.5651
G01 X26.8781 Y25.5360
G01 X26.8751 Y25.5122
G01 X26.8734 Y25.4883
G01 X26.8715 Y25.4470
G01 X26.8713 Y24.5329
G00 Z2.0000
G00 X27.1638 Y24.4023
G01 F60.00
G01 Z-0.0500
G01 F120.00
G01 X27.1364 Y24.3820
G01 X27.1254 Y24.3727
G01 X27.1003 Y24.3497
G01 X27.0773 Y24.3246
G01 X27.0680 Y24.3136
G01 X27.0450 Y24.2822
G01 X27.0225 Y24.2448
G01 X27.0039 Y24.2053
G01 X26.9906 Y24.1687
G01 X26.9866 Y24.1550
G01 X26.9786 Y24.1218
G01 X26.9733 Y24.0881
G01 X26.9717 Y24.0738
G01 X26.9701 Y24.0398
G01 X26.9700 Y23.2850
G01 X26.9721 Y23.2414
G01 X26.9769 Y23.2076
G01 X26.9795 Y23.1935
G01 X26.9878 Y23.1604
G01 X26.9906 Y23.1513
G01 X27.0004 Y23.1236
G01 X27.0058 Y23.1103
G01 X27.0182 Y23.0838
G01 X27.0273 Y23.0669
G01 X27.0424 Y23.0418
G01 X27.0477 Y23.0338
G01 X27.0651 Y23.0102
G01 X27.0741 Y22.9990
G01 X27.0937 Y22.9773
G01 X27.1038 Y22.9670
G01 X27.1290 Y22.9441
G01 X27.1402 Y22.9351
G01 X27.1638 Y22.9177
G01 X27.1718 Y22.9124
G01 X27.1969 Y22.8973
G01 X27.2095 Y22.8903
G01 X27.2447 Y22.8739
G01 X27.2767 Y22.8622
G01 X27.2904 Y22.8578
G01 X27.3282 Y22.8486
G01 X27.3670 Y22.8426
G01 X27.3771 Y22.8417
G01 X27.4054 Y22.8402
G01 X27.4301 Y22.8400
G01 X27.4695 Y22.8215
G01 X27.5062 Y22.8082
G01 X27.5245 Y22.8026
G01 X27.5624 Y22.7934
G01 X27.6105 Y22.7862
G01 X27.6494 Y22.7841
G01 X27.6686 Y22.7841
G01 X27.7075 Y22.7862
G01 X27.7462 Y22.7917
G01 X27.7603 Y22.7944
G01 X27.7935 Y22.8026
G01 X27.8073 Y22.8066
G01 X27.8440 Y22.8198
G01 X27.8572 Y22.8254
G01 X27.8879 Y22.8400
G01 X28.6650 Y22.8400
G01 X28.7086 Y22.8421
G01 X28.7471 Y22.8477
G01 X28.7612 Y22.8506
G01 X28.7942 Y22.8592
G01 X28.8309 Y22.8721
G01 X28.8440 Y22.8778
G01 X28.8705 Y22.8903
G01 X28.8790 Y22.8949
G01 X28.9041 Y22.9099
G01 X28.9162 Y22.9177
G01 X28.9398 Y22.9351
G01 X28.9546 Y22.9473
G01 X28.9762 Y22.9670
G01 X28.9830 Y22.9738
G01 X29.0059 Y22.9990
G01 X29.0149 Y23.0102
G01 X29.0350 Y23.0378
G01 X29.0575 Y23.0752
G01 X29.0761 Y23.1147
G01 X29.0878 Y23.1467
G01 X29.0934 Y23.1650
G01 X29.1005 Y23.1935
G01 X29.1023 Y23.2029
G01 X29.1079 Y23.2420
G01 X29.1099 Y23.2802
G01 X29.1100 Y24.0350
G01 X29.1086 Y24.0691
G01 X29.1073 Y24.0834
G01 X29.1014 Y24.1218
G01 X29.0908 Y24.1642
G01 X29.0761 Y24.2053
G01 X29.0597 Y24.2405
G01 X29.0527 Y24.2531
G01 X29.0376 Y24.2782
G01 X29.0323 Y24.2862
G01 X29.0149 Y24.3098
G01 X29.0059 Y24.3210
G01 X28.9797 Y24.3497
G01 X28.9546 Y24.3727
G01 X28.9436 Y24.3820
G01 X28.9122 Y24.4050
G01 X28.8831 Y24.4227
G01 X28.8705 Y24.4297
G01 X28.8440 Y24.4422
G01 X28.8309 Y24.4479
G01 X28.7987 Y24.4594
G01 X28.7850 Y24.4634
G01 X28.7518 Y24.4714
G01 X28.7181 Y24.4767
G01 X28.7038 Y24.4783
G01 X28.6698 Y24.4799
G01 X28.1541 Y24.4800
G01 X28.1541 Y25.2299
G01 X28.4550 Y25.5308
G01 X28.4812 Y25.5597
G01 X28.4901 Y25.5709
G01 X28.5132 Y25.6024
G01 X28.5335 Y25.6358
G01 X28.5404 Y25.6483
G01 X28.5551 Y25.6793
G01 X28.5624 Y25.6969
G01 X28.5723 Y25.7247
G01 X28.5767 Y25.7384
G01 X28.5861 Y25.7762
G01 X28.5888 Y25.7903
G01 X28.5943 Y25.8290
G01 X28.5966 Y25.8727
G01 X28.5967 Y26.0555
G01 X28.6238 Y26.0685
G01 X28.6572 Y26.0884
G01 X28.6691 Y26.0965
G01 X28.6963 Y26.1170
G01 X28.7252 Y26.1430
G01 X28.7353 Y26.1533
G01 X28.7580 Y26.1787
G01 X28.7785 Y26.2059
G01 X28.7866 Y26.2178
G01 X28.8065 Y26.2512
G01 X28.8212 Y26.2820
G01 X28.8269 Y26.2951
G01 X28.8398 Y26.3318
G01 X28.8484 Y26.3648
G01 X28.8513 Y26.3789
G01 X28.8564 Y26.4130
G01 X28.8576 Y26.4269
G01 X28.8590 Y26.4610
G01 X28.8590 Y27.7110
G01 X28.8569 Y27.7546
G01 X28.8513 Y27.7931
G01 X28.8484 Y27.8072
G01 X28.8398 Y27.8402
G01 X28.8269 Y27.8769
G01 X28.8212 Y27.8900
G01 X28.8065 Y27.9208
G01 X28.7891 Y27.9501
G01 X28.7813 Y27.9622
G01 X28.7580 Y27.9933
G01 X28.7320 Y28.0222
G01 X28.7217 Y28.0323
G01 X28.6963 Y28.0550
G01 X28.6691 Y28.0755
G01 X28.6572 Y28.0836
G01 X28.6238 Y28.1035
G01 X28.5930 Y28.1182
G01 X28.5799 Y28.1239
G01 X28.5432 Y28.1368
G01 X28.5008 Y28.1474
G01 X28.4576 Y28.1539
G01 X28.4188 Y28.1559
G01 X27.7890 Y28.1560
G01 X27.7454 Y28.1539
G01 X27.7022 Y28.1474
G01 X27.6644 Y28.1382
G01 X27.6507 Y28.1338
G01 X27.6187 Y28.1221
G01 X27.5878 Y28.1078
G01 X27.5750 Y28.1011
G01 X27.5418 Y28.0810
G01 X27.5067 Y28.0550
G01 X27.4778 Y28.0290
G01 X27.4677 Y28.0187
G01 X27.4450 Y27.9933
G01 X27.4245 Y27.9661
G01 X27.4164 Y27.9542
G01 X27.3965 Y27.9208
G01 X27.3818 Y27.8900
G01 X27.3761 Y27.8769
G01 X27.3632 Y27.8402
G01 X27.3526 Y27.7978
G01 X27.3461 Y27.7546
G01 X27.3441 Y27.7158
G01 X27.3440 Y26.4610
G01 X27.3454 Y26.4269
G01 X27.3467 Y26.4126
G01 X27.3517 Y26.3789
G01 X27.3546 Y26.3648
G01 X27.3632 Y26.3318
G01 X27.3744 Y26.2996
G01 X27.3798 Y26.2863
G01 X27.3965 Y26.2512
G01 X27.4139 Y26.2219
G01 X27.4217 Y26.2098
G01 X27.4420 Y26.1824
G01 X27.4513 Y26.1714
G01 X27.4743 Y26.1463
G01 X27.5030 Y26.1201
G01 X27.5142 Y26.1111
G01 X27.5418 Y26.0910
G01 X27.5750 Y26.0709
G01 X27.5879 Y26.0642
G01 X27.3089 Y25.7851
G01 X27.2762 Y25.7491
G01 X27.2473 Y25.7101
G01 X27.2223 Y25.6684
G01 X27.2015 Y25.6243
G01 X27.1866 Y25.5833
G01 X27.1826 Y25.5695
G01 X27.1734 Y25.5316
G01 X27.1674 Y25.4930
G01 X27.1658 Y25.4788
G01 X27.1639 Y25.4398
G01 X27.1638 Y24.4023
G00 Z2.0000
G00 X30.6799 Y26.0175
G01 F60.00
G01 Z-0.0500
G01 F120.00
G01 X30.7140 Y26.0160
G01 X31.3390 Y26.0160
G01 X31.3826 Y26.0181
G01 X31.4211 Y26.0237
G01 X31.4352 Y26.0266
G01 X31.4682 Y26.0352
G01 X31.5093 Y26.0499
G01 X31.5488 Y26.0685
G01 X31.5781 Y26.0859
G01 X31.5941 Y26.0965
G01 X31.6176 Y26.1140
G01 X31.6250 Y26.1201
G01 X31.6537 Y26.1463
G01 X31.6767 Y26.1714
G01 X31.6860 Y26.1824
G01 X31.7090 Y26.2138
G01 X31.7315 Y26.2512
G01 X31.7462 Y26.2820
G01 X31.7536 Y26.2996
G01 X31.7634 Y26.3273
G01 X31.7662 Y26.3364
G01 X31.7745 Y26.3695
G01 X31.7771 Y26.3836
G01 X31.7819 Y26.4180
G01 X31.7838 Y26.4514
G01 X31.7840 Y26.7155
G01 X31.8061 Y26.7359
G01 X33.3792 Y28.3090
G01 X38.8788 Y28.3091
G01 X38.9176 Y28.3111
G01 X38.9608 Y28.3176
G01 X39.0032 Y28.3282
G01 X39.0443 Y28.3429
G01 X39.0838 Y28.3615
G01 X39.1212 Y28.3840
G01 X39.1563 Y28.4100
G01 X39.1887 Y28.4393
G01 X39.2180 Y28.4717
G01 X39.2440 Y28.5068
G01 X39.2665 Y28.5442
G01 X39.2851 Y28.5837
G01 X39.2998 Y28.6248
G01 X39.3104 Y28.6672
G01 X39.3169 Y28.7104
G01 X39.3190 Y28.7540
G01 X39.3189 Y34.0588
G01 X39.3169 Y34.0976
G01 X39.3104 Y34.1408
G01 X39.2998 Y34.1832
G01 X39.2851 Y34.2243
G01 X39.2665 Y34.2638
G01 X39.2440 Y34.3012
G01 X39.2180 Y34.3363
G01 X39.1887 Y34.3687
G01 X39.1565 Y34.3979
G01 X39.1212 Y34.4240
G01 X39.0841 Y34.4463
G01 X39.0443 Y34.4651
G01 X39.0032 Y34.4798
G01 X38.9608 Y34.4904
G01 X38.9176 Y34.4969
G01 X38.8740 Y34.4990
G01 X32.9692 Y34.4989
G01 X32.9304 Y34.4969
G01 X32.8872 Y34.4904
G01 X32.8448 Y34.4798
G01 X32.8037 Y34.4651
G01 X32.7642 Y34.4465
G01 X32.7268 Y34.4240
G01 X32.6917 Y34.3980
G01 X32.6593 Y34.3687
G01 X32.6300 Y34.3363
G01 X32.6040 Y34.3012
G01 X32.5818 Y34.2642
G01 X32.5772 Y34.2552
G01 X32.5629 Y34.2243
G01 X32.5482 Y34.1832
G01 X32.5376 Y34.1408
G01 X32.5311 Y34.0976
G01 X32.5291 Y34.0588
G01 X32.5290 Y28.8592
G01 X31.6737 Y28.0039
G01 X31.6570 Y28.0222
G01 X31.6502 Y28.0290
G01 X31.6213 Y28.0550
G01 X31.5862 Y28.0810
G01 X31.5530 Y28.1011
G01 X31.5402 Y28.1078
G01 X31.5137 Y28.1202
G01 X31.5049 Y28.1239
G01 X31.4773 Y28.1338
G01 X31.4636 Y28.1382
G01 X31.4352 Y28.1454
G01 X31.4164 Y28.1491
G01 X31.3826 Y28.1539
G01 X31.3390 Y28.1560
G01 X30.7092 Y28.1559
G01 X30.6752 Y28.1543
G01 X30.6609 Y28.1527
G01 X30.6272 Y28.1474
G01 X30.5940 Y28.1394
G01 X30.5803 Y28.1354
G01 X30.5437 Y28.1221
G01 X30.5042 Y28.1035
G01 X30.4668 Y28.0810
G01 X30.4354 Y28.0580
G01 X30.4244 Y28.0487
G01 X30.3993 Y28.0257
G01 X30.3763 Y28.0006
G01 X30.3670 Y27.9896
G01 X30.3440 Y27.9582
G01 X30.3215 Y27.9208
G01 X30.3068 Y27.8900
G01 X30.3011 Y27.8769
G01 X30.2882 Y27.8402
G01 X30.2785 Y27.8025
G01 X30.2759 Y27.7884
G01 X30.2711 Y27.7546
G01 X30.2692 Y27.7206
G01 X30.2690 Y26.4610
G01 X30.2711 Y26.4174
G01 X30.2767 Y26.3789
G01 X30.2796 Y26.3648
G01 X30.2868 Y26.3364
G01 X30.2896 Y26.3273
G01 X30.2994 Y26.2996
G01 X30.3068 Y26.2820
G01 X30.3193 Y26.2555
G01 X30.3239 Y26.2470
G01 X30.3440 Y26.2138
G01 X30.3700 Y26.1787
G01 X30.3993 Y26.1463
G01 X30.4244 Y26.1233
G01 X30.4392 Y26.1111
G01 X30.4628 Y26.0937
G01 X30.4749 Y26.0859
G01 X30.5042 Y26.0685
G01 X30.5437 Y26.0499
G01 X30.5848 Y26.0352
G01 X30.6178 Y26.0266
G01 X30.6319 Y26.0237
G01 X30.6609 Y26.0193
G01 X30.6799 Y26.0175
G00 Z2.0000
G00 X36.2520 Y24.8161
G01 F60.00
G01 Z-0.0500
G01 F120.00
G01 X36.3380 Y24.8800
G01 X36.3576 Y24.8938
G01 X36.3693 Y24.9014
G01 X36.3373 Y24.9014
G01 X36.2520 Y24.8161
G00 Z2.0000
G00 X38.9577 Y23.8028
G01 F60.00
G01 Z-0.0500
G01 F120.00
G01 X38.9638 Y23.6761
G01 X38.9638 Y23.6379
G01 X38.9631 Y23.6187
G01 X38.9582 Y23.5207
G01 X38.9554 Y23.4825
G01 X38.9507 Y23.4445
G01 X38.9363 Y23.3475
G01 X38.9298 Y23.3097
G01 X38.9258 Y23.2910
G01 X38.8976 Y23.1772
G01 X38.8874 Y23.1403
G01 X38.8753 Y23.1039
G01 X38.8423 Y23.0115
G01 X38.8286 Y22.9762
G01 X38.8130 Y22.9408
G01 X38.7710 Y22.8521
G01 X38.7538 Y22.8179
G01 X38.7349 Y22.7846
G01 X38.6745 Y22.6841
G01 X38.6532 Y22.6523
G01 X38.6420 Y22.6368
G01 X38.5835 Y22.5580
G01 X38.5600 Y22.5278
G01 X38.5350 Y22.4988
G01 X38.4690 Y22.4261
G01 X38.4560 Y22.4121
G01 X38.4289 Y22.3850
G01 X38.3422 Y22.3060
G01 X38.3132 Y22.2810
G01 X38.2830 Y22.2575
G01 X38.2042 Y22.1990
G01 X38.1729 Y22.1770
G01 X38.1406 Y22.1565
G01 X38.0564 Y22.1061
G01 X38.0399 Y22.0964
G01 X38.0061 Y22.0784
G01 X37.9002 Y22.0280
G01 X37.8652 Y22.0125
G01 X37.8295 Y21.9987
G01 X37.7341 Y21.9646
G01 X37.6992 Y21.9532
G01 X37.6638 Y21.9434
G01 X37.5686 Y21.9196
G01 X37.5313 Y21.9112
G01 X37.4935 Y21.9047
G01 X37.3965 Y21.8903
G01 X37.3585 Y21.8856
G01 X37.3203 Y21.8828
G01 X37.2223 Y21.8779
G01 X37.1840 Y21.8770
G01 X37.1457 Y21.8779
G01 X37.0477 Y21.8828
G01 X37.0286 Y21.8839
G01 X36.9905 Y21.8877
G01 X36.8745 Y21.9047
G01 X36.8367 Y21.9112
G01 X36.7994 Y21.9196
G01 X36.6857 Y21.9483
G01 X36.6490 Y21.9594
G01 X36.6309 Y21.9657
G01 X36.5385 Y21.9987
G01 X36.5032 Y22.0124
G01 X36.4678 Y22.0280
G01 X36.3680 Y22.0754
G01 X34.2861 Y19.9936
G01 X34.2861 Y19.4397
G01 X34.3155 Y19.4156
G01 X34.3438 Y19.3899
G01 X34.3709 Y19.3628
G01 X34.3839 Y19.3488
G01 X34.3966 Y19.3345
G01 X34.4209 Y19.3049
G01 X34.4437 Y19.2741
G01 X34.4560 Y19.2561
G01 X34.4683 Y19.2741
G01 X34.4795 Y19.2896
G01 X34.5031 Y19.3198
G01 X34.5281 Y19.3488
G01 X34.5545 Y19.3765
G01 X34.5822 Y19.4029
G01 X34.6112 Y19.4279
G01 X34.6414 Y19.4515
G01 X34.6727 Y19.4735
G01 X34.7050 Y19.4940
G01 X34.7383 Y19.5129
G01 X34.7725 Y19.5301
G01 X34.8075 Y19.5456
G01 X34.8432 Y19.5594
G01 X34.8796 Y19.5714
G01 X34.9165 Y19.5816
G01 X34.9538 Y19.5900
G01 X34.9916 Y19.5966
G01 X35.0295 Y19.6012
G01 X35.0677 Y19.6041
G01 X35.1060 Y19.6050
G01 X36.3251 Y19.6048
G01 X36.3634 Y19.6029
G01 X36.4015 Y19.5991
G01 X36.4204 Y19.5966
G01 X36.4582 Y19.5900
G01 X36.4769 Y19.5860
G01 X36.5140 Y19.5767
G01 X36.5324 Y19.5714
G01 X36.5507 Y19.5656
G01 X36.5867 Y19.5527
G01 X36.6221 Y19.5381
G01 X36.6395 Y19.5301
G01 X36.6737 Y19.5129
G01 X36.7070 Y19.4940
G01 X36.7233 Y19.4840
G01 X36.7393 Y19.4735
G01 X36.7706 Y19.4515
G01 X36.8008 Y19.4279
G01 X36.8155 Y19.4156
G01 X36.8438 Y19.3899
G01 X36.8575 Y19.3765
G01 X36.8839 Y19.3488
G01 X36.9089 Y19.3198
G01 X36.9209 Y19.3049
G01 X36.9437 Y19.2741
G01 X36.9545 Y19.2583
G01 X36.9650 Y19.2423
G01 X36.9847 Y19.2095
G01 X37.0027 Y19.1757
G01 X37.0191 Y19.1411
G01 X37.0266 Y19.1235
G01 X37.0404 Y19.0878
G01 X37.0524 Y19.0514
G01 X37.0626 Y19.0145
G01 X37.0670 Y18.9959
G01 X37.0745 Y18.9584
G01 X37.0801 Y18.9205
G01 X37.0839 Y18.8824
G01 X37.0858 Y18.8441
G01 X37.0860 Y14.5919
G01 X37.1166 Y14.6064
G01 X37.1516 Y14.6219
G01 X37.1694 Y14.6290
G01 X37.2151 Y14.6456
G01 X37.2514 Y14.6576
G01 X37.2698 Y14.6630
G01 X37.3355 Y14.6794
G01 X37.3731 Y14.6869
G01 X37.3920 Y14.6899
G01 X37.4401 Y14.6968
G01 X37.4591 Y14.6989
G01 X37.4782 Y14.7006
G01 X37.5267 Y14.7032
G01 X37.5650 Y14.7041
G01 X46.4710 Y14.7041
G01 X46.4712 Y18.9711
G01 X46.4719 Y18.9903
G01 X46.4748 Y19.0285
G01 X46.4794 Y19.0664
G01 X46.4860 Y19.1042
G01 X46.4944 Y19.1415
G01 X46.4993 Y19.1600
G01 X46.5104 Y19.1967
G01 X46.5166 Y19.2148
G01 X46.5304 Y19.2505
G01 X46.5459 Y19.2855
G01 X46.5543 Y19.3027
G01 X46.5688 Y19.3301
G01 X46.5689 Y21.2882
G01 X46.4801 Y21.3690
G01 X46.4530 Y21.3961
G01 X46.3614 Y21.4971
G01 X46.3371 Y21.5267
G01 X46.3255 Y21.5420
G01 X46.2558 Y21.6363
G01 X46.2450 Y21.6521
G01 X46.2245 Y21.6844
G01 X46.1741 Y21.7686
G01 X46.1552 Y21.8019
G01 X46.1380 Y21.8361
G01 X46.0960 Y21.9248
G01 X46.0805 Y21.9598
G01 X46.0734 Y21.9776
G01 X46.0337 Y22.0879
G01 X46.0267 Y22.1083
G01 X46.0212 Y22.1258
G01 X46.0114 Y22.1612
G01 X45.9832 Y22.2750
G01 X45.9792 Y22.2937
G01 X45.9727 Y22.3315
G01 X45.9583 Y22.4285
G01 X45.9536 Y22.4665
G01 X45.9508 Y22.5047
G01 X45.9452 Y22.6219
G01 X45.9452 Y22.6601
G01 X45.9508 Y22.7773
G01 X45.9536 Y22.8155
G01 X45.9583 Y22.8535
G01 X45.9727 Y22.9505
G01 X45.9792 Y22.9883
G01 X45.9876 Y23.0256
G01 X46.0163 Y23.1393
G01 X46.0274 Y23.1760
G01 X46.0667 Y23.2865
G01 X46.0805 Y23.3222
G01 X46.0880 Y23.3398
G01 X46.1380 Y23.4459
G01 X46.1552 Y23.4801
G01 X46.1741 Y23.5134
G01 X46.2217 Y23.5929
G01 X39.5779 Y23.5931
G01 X39.5293 Y23.5952
G01 X39.4911 Y23.5981
G01 X39.4531 Y23.6027
G01 X39.4051 Y23.6101
G01 X39.3675 Y23.6176
G01 X39.3489 Y23.6220
G01 X39.3018 Y23.6340
G01 X39.2652 Y23.6451
G01 X39.2194 Y23.6613
G01 X39.1836 Y23.6751
G01 X39.1486 Y23.6906
G01 X39.1048 Y23.7116
G01 X39.0710 Y23.7296
G01 X39.0129 Y23.7644
G01 X38.9811 Y23.7857
G01 X38.9577 Y23.8028
G00 Z2.0000
G00 X41.4414 Y27.7440
G01 F60.00
G01 Z-0.0500
G01 F120.00
G01 X41.3549 Y27.7442
G01 X41.3073 Y27.7464
G01 X41.3048 Y27.7231
G01 X41.3023 Y27.7041
G01 X41.2949 Y27.6561
G01 X41.2914 Y27.6373
G01 X41.2830 Y27.5999
G01 X41.2710 Y27.5528
G01 X41.2599 Y27.5162
G01 X41.2437 Y27.4704
G01 X41.2299 Y27.4346
G01 X41.2144 Y27.3996
G01 X41.1934 Y27.3558
G01 X41.1846 Y27.3388
G01 X41.1657 Y27.3055
G01 X41.1406 Y27.2639
G01 X41.1301 Y27.2479
G01 X41.1081 Y27.2166
G01 X41.0789 Y27.1777
G01 X41.0670 Y27.1628
G01 X41.0420 Y27.1338
G01 X41.0092 Y27.0979
G01 X40.9958 Y27.0842
G01 X40.1691 Y26.2576
G01 X40.1691 Y25.7531
G01 X44.1067 Y25.7531
G01 X44.0679 Y25.7878
G01 X44.0402 Y25.8142
G01 X43.4676 Y26.3869
G01 X43.2460 Y26.3869
G01 X43.2077 Y26.3878
G01 X43.1592 Y26.3904
G01 X43.1211 Y26.3942
G01 X43.0541 Y26.4041
G01 X43.0165 Y26.4116
G01 X42.9693 Y26.4232
G01 X42.9324 Y26.4334
G01 X42.9142 Y26.4391
G01 X42.8504 Y26.4620
G01 X42.8150 Y26.4766
G01 X42.7538 Y26.5056
G01 X42.7200 Y26.5236
G01 X42.6619 Y26.5584
G01 X42.6301 Y26.5797
G01 X42.5909 Y26.6085
G01 X42.5608 Y26.6320
G01 X42.5461 Y26.6444
G01 X42.5099 Y26.6768
G01 X42.4822 Y26.7032
G01 X41.4414 Y27.7440
G00 Z2.0000
G00 X41.3399 Y28.3305
G01 F60.00
G01 Z-0.0500
G01 F120.00
G01 X41.3740 Y28.3290
G01 X41.6838 Y28.3290
G01 X42.8959 Y27.1169
G01 X42.9319 Y27.0842
G01 X42.9631 Y27.0608
G01 X42.9790 Y27.0502
G01 X43.0126 Y27.0303
G01 X43.0478 Y27.0134
G01 X43.0610 Y27.0078
G01 X43.1023 Y26.9932
G01 X43.1401 Y26.9835
G01 X43.1541 Y26.9805
G01 X43.1927 Y26.9748
G01 X43.2070 Y26.9735
G01 X43.2460 Y26.9719
G01 X43.7099 Y26.9719
G01 X44.4539 Y26.2279
G01 X44.4862 Y26.1983
G01 X44.4974 Y26.1894
G01 X44.5211 Y26.1718
G01 X44.5370 Y26.1612
G01 X44.5706 Y26.1413
G01 X44.6101 Y26.1224
G01 X44.6234 Y26.1171
G01 X44.6512 Y26.1072
G01 X44.6649 Y26.1028
G01 X44.7074 Y26.0924
G01 X44.7460 Y26.0864
G01 X44.7650 Y26.0845
G01 X44.8040 Y26.0829
G01 X51.9775 Y26.0829
G01 X52.0213 Y26.0848
G01 X52.0355 Y26.0864
G01 X52.0741 Y26.0924
G01 X52.1212 Y26.1042
G01 X52.1670 Y26.1205
G01 X52.2024 Y26.1370
G01 X52.2151 Y26.1436
G01 X52.2523 Y26.1661
G01 X52.2841 Y26.1894
G01 X52.2953 Y26.1983
G01 X52.3242 Y26.2245
G01 X52.3982 Y26.2984
G01 X52.4203 Y26.2906
G01 X52.4294 Y26.2878
G01 X52.4672 Y26.2786
G01 X52.5009 Y26.2733
G01 X52.5110 Y26.2721
G01 X52.5492 Y26.2701
G01 X53.1790 Y26.2700
G01 X53.2226 Y26.2721
G01 X53.2658 Y26.2786
G01 X53.3082 Y26.2892
G01 X53.3404 Y26.3004
G01 X53.3537 Y26.3058
G01 X53.3888 Y26.3225
G01 X53.4222 Y26.3424
G01 X53.4341 Y26.3505
G01 X53.4613 Y26.3710
G01 X53.4902 Y26.3970
G01 X53.4970 Y26.4038
G01 X53.5167 Y26.4254
G01 X53.5260 Y26.4364
G01 X53.5490 Y26.4678
G01 X53.5667 Y26.4969
G01 X53.5737 Y26.5095
G01 X53.5901 Y26.5447
G01 X53.6034 Y26.5813
G01 X53.6074 Y26.5950
G01 X53.6154 Y26.6282
G01 X53.6207 Y26.6619
G01 X53.6223 Y26.6771
G01 X53.6240 Y26.7150
G01 X53.6240 Y27.9650
G01 X53.6219 Y28.0086
G01 X53.6163 Y28.0471
G01 X53.6134 Y28.0612
G01 X53.6048 Y28.0942
G01 X53.5901 Y28.1353
G01 X53.5715 Y28.1748
G01 X53.5541 Y28.2041
G01 X53.5463 Y28.2162
G01 X53.5289 Y28.2398
G01 X53.5167 Y28.2546
G01 X53.4937 Y28.2797
G01 X53.4613 Y28.3090
G01 X53.4262 Y28.3350
G01 X53.3971 Y28.3527
G01 X53.3802 Y28.3618
G01 X53.3537 Y28.3742
G01 X53.3404 Y28.3796
G01 X53.3082 Y28.3908
G01 X53.2658 Y28.4014
G01 X53.2226 Y28.4079
G01 X53.1886 Y28.4098
G01 X52.5540 Y28.4100
G01 X52.5199 Y28.4086
G01 X52.5056 Y28.4073
G01 X52.4672 Y28.4014
G01 X52.4248 Y28.3908
G01 X52.3837 Y28.3761
G01 X52.3528 Y28.3618
G01 X52.3359 Y28.3527
G01 X52.3108 Y28.3376
G01 X52.3028 Y28.3323
G01 X52.2717 Y28.3090
G01 X52.2428 Y28.2830
G01 X52.2360 Y28.2762
G01 X52.2163 Y28.2546
G01 X52.2041 Y28.2398
G01 X52.1840 Y28.2122
G01 X52.1615 Y28.1748
G01 X52.1429 Y28.1353
G01 X52.1312 Y28.1033
G01 X52.1268 Y28.0896
G01 X52.1196 Y28.0612
G01 X52.1159 Y28.0424
G01 X52.1111 Y28.0086
G01 X52.1090 Y27.9650
G01 X52.1090 Y27.4097
G01 X51.7724 Y27.0731
G01 X45.0091 Y27.0731
G01 X44.2651 Y27.8171
G01 X44.2291 Y27.8498
G01 X44.1901 Y27.8787
G01 X44.1484 Y27.9037
G01 X44.1132 Y27.9206
G01 X44.0956 Y27.9279
G01 X44.0587 Y27.9408
G01 X44.0209 Y27.9505
G01 X44.0069 Y27.9535
G01 X43.9683 Y27.9592
G01 X43.9540 Y27.9605
G01 X43.9150 Y27.9621
G01 X43.4511 Y27.9621
G01 X43.0840 Y28.3293
G01 X43.1176 Y28.3311
G01 X43.1608 Y28.3376
G01 X43.2032 Y28.3482
G01 X43.2443 Y28.3629
G01 X43.2838 Y28.3815
G01 X43.3212 Y28.4040
G01 X43.3563 Y28.4300
G01 X43.3887 Y28.4593
G01 X43.4180 Y28.4917
G01 X43.4440 Y28.5268
G01 X43.4665 Y28.5642
G01 X43.4851 Y28.6037
G01 X43.4998 Y28.6448
G01 X43.5104 Y28.6872
G01 X43.5169 Y28.7304
G01 X43.5189 Y28.7692
G01 X43.5189 Y29.4788
G01 X43.5169 Y29.5176
G01 X43.5121 Y29.5514
G01 X43.5084 Y29.5702
G01 X43.5012 Y29.5986
G01 X43.4984 Y29.6077
G01 X43.4851 Y29.6443
G01 X43.4708 Y29.6752
G01 X43.4641 Y29.6880
G01 X43.4440 Y29.7212
G01 X43.4210 Y29.7526
G01 X43.4117 Y29.7636
G01 X43.3887 Y29.7887
G01 X43.3563 Y29.8180
G01 X43.3212 Y29.8440
G01 X43.2921 Y29.8617
G01 X43.2795 Y29.8687
G01 X43.2443 Y29.8851
G01 X43.2077 Y29.8984
G01 X43.1940 Y29.9024
G01 X43.1608 Y29.9104
G01 X43.1271 Y29.9157
G01 X43.1128 Y29.9173
G01 X43.0740 Y29.9190
G01 X41.3740 Y29.9190
G01 X41.3399 Y29.9176
G01 X41.3256 Y29.9163
G01 X41.2966 Y29.9121
G01 X41.2778 Y29.9084
G01 X41.2448 Y29.8998
G01 X41.2037 Y29.8851
G01 X41.1642 Y29.8665
G01 X41.1349 Y29.8491
G01 X41.1228 Y29.8413
G01 X41.0992 Y29.8239
G01 X41.0844 Y29.8117
G01 X41.0593 Y29.7887
G01 X41.0300 Y29.7563
G01 X41.0040 Y29.7212
G01 X40.9815 Y29.6838
G01 X40.9629 Y29.6443
G01 X40.9482 Y29.6032
G01 X40.9376 Y29.5608
G01 X40.9317 Y29.5224
G01 X40.9304 Y29.5081
G01 X40.9290 Y29.4740
G01 X40.9290 Y28.7740
G01 X40.9311 Y28.7304
G01 X40.9367 Y28.6919
G01 X40.9396 Y28.6778
G01 X40.9468 Y28.6494
G01 X40.9496 Y28.6403
G01 X40.9594 Y28.6126
G01 X40.9668 Y28.5950
G01 X40.9793 Y28.5685
G01 X40.9839 Y28.5600
G01 X41.0040 Y28.5268
G01 X41.0300 Y28.4917
G01 X41.0593 Y28.4593
G01 X41.0844 Y28.4363
G01 X41.0992 Y28.4241
G01 X41.1228 Y28.4067
G01 X41.1349 Y28.3989
G01 X41.1642 Y28.3815
G01 X41.2037 Y28.3629
G01 X41.2448 Y28.3482
G01 X41.2778 Y28.3396
G01 X41.2919 Y28.3367
G01 X41.3209 Y28.3323
G01 X41.3399 Y28.3305
G00 Z2.0000
G00 X39.9040 Y31.2066
G01 F60.00
G01 Z-0.0500
G01 F120.00
G01 X40.8789 Y32.1812
G01 X40.9291 Y32.2266
G01 X40.9438 Y32.2390
G01 X40.9739 Y32.2625
G01 X41.0131 Y32.2913
G01 X41.0289 Y32.3021
G01 X41.0612 Y32.3226
G01 X41.0949 Y32.3426
G01 X41.0750 Y32.3484
G01 X41.0568 Y32.3541
G01 X40.9976 Y32.3753
G01 X40.9622 Y32.3899
G01 X40.9055 Y32.4168
G01 X40.8717 Y32.4349
G01 X40.8178 Y32.4671
G01 X40.7860 Y32.4884
G01 X40.7508 Y32.5142
G01 X40.7206 Y32.5378
G01 X40.7059 Y32.5501
G01 X40.6734 Y32.5793
G01 X40.6457 Y32.6057
G01 X40.6323 Y32.6194
G01 X40.6028 Y32.6516
G01 X40.5778 Y32.6806
G01 X40.5542 Y32.7108
G01 X40.5284 Y32.7460
G01 X40.5176 Y32.7618
G01 X40.4971 Y32.7941
G01 X40.4749 Y32.8317
G01 X40.4656 Y32.8485
G01 X40.4484 Y32.8827
G01 X40.4299 Y32.9222
G01 X40.4224 Y32.9398
G01 X40.4153 Y32.9576
G01 X40.4004 Y32.9987
G01 X40.3941 Y33.0168
G01 X40.3830 Y33.0534
G01 X40.3678 Y33.1143
G01 X40.3603 Y33.1519
G01 X40.3511 Y33.2140
G01 X40.3490 Y33.2330
G01 X40.3461 Y33.2712
G01 X40.3442 Y33.3149
G01 X40.3440 Y33.3340
G01 X40.3440 Y34.0317
G01 X39.6608 Y34.7186
G01 X39.6822 Y34.6925
G01 X39.7196 Y34.6420
G01 X39.7409 Y34.6102
G01 X39.7509 Y34.5939
G01 X39.7731 Y34.5563
G01 X39.7912 Y34.5225
G01 X39.8101 Y34.4832
G01 X39.8256 Y34.4482
G01 X39.8394 Y34.4124
G01 X39.8539 Y34.3712
G01 X39.8650 Y34.3346
G01 X39.8758 Y34.2923
G01 X39.8842 Y34.2549
G01 X39.8908 Y34.2172
G01 X39.8969 Y34.1740
G01 X39.9007 Y34.1359
G01 X39.9031 Y34.0923
G01 X39.9040 Y34.0540
G01 X39.9040 Y31.2066
G00 Z2.0000
G00 X44.8883 Y28.8390
G01 F60.00
G01 Z-0.0500
G01 F120.00
G01 X44.8959 Y28.8291
G01 X44.9109 Y28.8109
G01 X44.9648 Y28.7511
G01 X44.9813 Y28.7338
G01 X44.9986 Y28.7173
G01 X45.0495 Y28.6712
G01 X45.0673 Y28.6559
G01 X45.0865 Y28.6408
G01 X45.1417 Y28.5999
G01 X45.1613 Y28.5861
G01 X45.1815 Y28.5733
G01 X45.2404 Y28.5380
G01 X45.2612 Y28.5262
G01 X45.2826 Y28.5155
G01 X45.3447 Y28.4861
G01 X45.3666 Y28.4764
G01 X45.3889 Y28.4678
G01 X45.4536 Y28.4446
G01 X45.4763 Y28.4371
G01 X45.4993 Y28.4308
G01 X45.5660 Y28.4141
G01 X45.5893 Y28.4088
G01 X45.6129 Y28.4047
G01 X45.6809 Y28.3946
G01 X45.7046 Y28.3917
G01 X45.7285 Y28.3900
G01 X45.7971 Y28.3866
G01 X45.8210 Y28.3860
G01 X45.8449 Y28.3866
G01 X45.9135 Y28.3900
G01 X45.9374 Y28.3917
G01 X45.9611 Y28.3946
G01 X46.0291 Y28.4047
G01 X46.0527 Y28.4088
G01 X46.0760 Y28.4141
G01 X46.1427 Y28.4308
G01 X46.1657 Y28.4371
G01 X46.1884 Y28.4446
G01 X46.2531 Y28.4678
G01 X46.2754 Y28.4764
G01 X46.2973 Y28.4861
G01 X46.3594 Y28.5155
G01 X46.3808 Y28.5262
G01 X46.4016 Y28.5380
G01 X46.4605 Y28.5733
G01 X46.4807 Y28.5861
G01 X46.5003 Y28.5999
G01 X46.5555 Y28.6408
G01 X46.5743 Y28.6556
G01 X46.5925 Y28.6712
G01 X46.6434 Y28.7173
G01 X46.6607 Y28.7338
G01 X46.6772 Y28.7511
G01 X46.7233 Y28.8020
G01 X46.7389 Y28.8202
G01 X46.7537 Y28.8390
G01 X46.7946 Y28.8942
G01 X46.8084 Y28.9138
G01 X46.8212 Y28.9340
G01 X46.8565 Y28.9929
G01 X46.8683 Y29.0137
G01 X46.8790 Y29.0351
G01 X46.9084 Y29.0972
G01 X46.9181 Y29.1191
G01 X46.9267 Y29.1414
G01 X46.9499 Y29.2061
G01 X46.9574 Y29.2288
G01 X46.9637 Y29.2518
G01 X46.9804 Y29.3185
G01 X46.9857 Y29.3418
G01 X46.9898 Y29.3654
G01 X46.9999 Y29.4334
G01 X47.0028 Y29.4571
G01 X47.0045 Y29.4810
G01 X47.0079 Y29.5496
G01 X47.0085 Y29.5735
G01 X47.0079 Y29.5974
G01 X47.0045 Y29.6660
G01 X47.0028 Y29.6899
G01 X46.9999 Y29.7136
G01 X46.9898 Y29.7816
G01 X46.9857 Y29.8052
G01 X46.9804 Y29.8285
G01 X46.9637 Y29.8952
G01 X46.9577 Y29.9173
G01 X46.9499 Y29.9409
G01 X46.9267 Y30.0056
G01 X46.9181 Y30.0279
G01 X46.9084 Y30.0498
G01 X46.8790 Y30.1119
G01 X46.8683 Y30.1333
G01 X46.8565 Y30.1541
G01 X46.8212 Y30.2130
G01 X46.8084 Y30.2332
G01 X46.7946 Y30.2528
G01 X46.7537 Y30.3080
G01 X46.7400 Y30.3255
G01 X46.7233 Y30.3450
G01 X46.6772 Y30.3959
G01 X46.6607 Y30.4132
G01 X46.6434 Y30.4297
G01 X46.5925 Y30.4758
G01 X46.5743 Y30.4914
G01 X46.5555 Y30.5062
G01 X46.5003 Y30.5471
G01 X46.4807 Y30.5609
G01 X46.4605 Y30.5737
G01 X46.4016 Y30.6090
G01 X46.3808 Y30.6208
G01 X46.3594 Y30.6315
G01 X46.2973 Y30.6609
G01 X46.2754 Y30.6706
G01 X46.2531 Y30.6792
G01 X46.1884 Y30.7024
G01 X46.1657 Y30.7099
G01 X46.1427 Y30.7162
G01 X46.0760 Y30.7329
G01 X46.0527 Y30.7382
G01 X46.0291 Y30.7423
G01 X45.9611 Y30.7524
G01 X45.9374 Y30.7553
G01 X45.9135 Y30.7570
G01 X45.8449 Y30.7604
G01 X45.8210 Y30.7610
G01 X45.7971 Y30.7604
G01 X45.7285 Y30.7570
G01 X45.7046 Y30.7553
G01 X45.6809 Y30.7524
G01 X45.6129 Y30.7423
G01 X45.5893 Y30.7382
G01 X45.5660 Y30.7329
G01 X45.4993 Y30.7162
G01 X45.4772 Y30.7102
G01 X45.4536 Y30.7024
G01 X45.3889 Y30.6792
G01 X45.3666 Y30.6706
G01 X45.3447 Y30.6609
G01 X45.2826 Y30.6315
G01 X45.2612 Y30.6208
G01 X45.2404 Y30.6090
G01 X45.1815 Y30.5737
G01 X45.1613 Y30.5609
G01 X45.1417 Y30.5471
G01 X45.0865 Y30.5062
G01 X45.0677 Y30.4914
G01 X45.0495 Y30.4758
G01 X44.9986 Y30.4297
G01 X44.9813 Y30.4132
G01 X44.9648 Y30.3959
G01 X44.9187 Y30.3450
G01 X44.9034 Y30.3272
G01 X44.8883 Y30.3080
G01 X44.8474 Y30.2528
G01 X44.8336 Y30.2332
G01 X44.8208 Y30.2130
G01 X44.7855 Y30.1541
G01 X44.7737 Y30.1333
G01 X44.7630 Y30.1119
G01 X44.7336 Y30.0498
G01 X44.7239 Y30.0279
G01 X44.7153 Y30.0056
G01 X44.6921 Y29.9409
G01 X44.6846 Y29.9182
G01 X44.6783 Y29.8952
G01 X44.6616 Y29.8285
G01 X44.6563 Y29.8052
G01 X44.6522 Y29.7816
G01 X44.6421 Y29.7136
G01 X44.6392 Y29.6899
G01 X44.6375 Y29.6660
G01 X44.6341 Y29.5974
G01 X44.6335 Y29.5735
G01 X44.6341 Y29.5496
G01 X44.6375 Y29.4810
G01 X44.6392 Y29.4571
G01 X44.6421 Y29.4334
G01 X44.6522 Y29.3654
G01 X44.6563 Y29.3418
G01 X44.6616 Y29.3185
G01 X44.6783 Y29.2518
G01 X44.6846 Y29.2288
G01 X44.6921 Y29.2061
G01 X44.7153 Y29.1414
G01 X44.7239 Y29.1191
G01 X44.7336 Y29.0972
G01 X44.7630 Y29.0351
G01 X44.7737 Y29.0137
G01 X44.7855 Y28.9929
G01 X44.8208 Y28.9340
G01 X44.8336 Y28.9138
G01 X44.8474 Y28.8942
G01 X44.8883 Y28.8390
G00 Z2.0000
G00 X45.1233 Y29.0133
G01 F60.00
G01 Z-0.0500
G01 F120.00
G01 X45.1354 Y28.9985
G01 X45.1881 Y28.9406
G01 X45.2531 Y28.8818
G01 X45.3238 Y28.8293
G01 X45.3991 Y28.7842
G01 X45.4785 Y28.7466
G01 X45.5612 Y28.7170
G01 X45.6464 Y28.6957
G01 X45.7333 Y28.6828
G01 X45.8210 Y28.6785
G01 X45.9087 Y28.6828
G01 X45.9956 Y28.6957
G01 X46.0808 Y28.7170
G01 X46.1635 Y28.7466
G01 X46.2429 Y28.7842
G01 X46.3182 Y28.8293
G01 X46.3888 Y28.8817
G01 X46.4539 Y28.9406
G01 X46.5128 Y29.0057
G01 X46.5652 Y29.0763
G01 X46.6103 Y29.1516
G01 X46.6479 Y29.2310
G01 X46.6775 Y29.3137
G01 X46.6988 Y29.3989
G01 X46.7117 Y29.4858
G01 X46.7160 Y29.5735
G01 X46.7117 Y29.6612
G01 X46.6988 Y29.7481
G01 X46.6776 Y29.8329
G01 X46.6745 Y29.8424
G01 X46.6479 Y29.9160
G01 X46.6103 Y29.9954
G01 X46.5652 Y30.0707
G01 X46.5133 Y30.1408
G01 X46.5066 Y30.1485
G01 X46.4539 Y30.2064
G01 X46.3888 Y30.2653
G01 X46.3182 Y30.3177
G01 X46.2429 Y30.3628
G01 X46.1635 Y30.4004
G01 X46.0808 Y30.4300
G01 X45.9956 Y30.4513
G01 X45.9087 Y30.4642
G01 X45.8210 Y30.4685
G01 X45.7333 Y30.4642
G01 X45.6464 Y30.4513
G01 X45.5616 Y30.4301
G01 X45.5521 Y30.4270
G01 X45.4785 Y30.4004
G01 X45.3991 Y30.3628
G01 X45.3238 Y30.3177
G01 X45.2532 Y30.2653
G01 X45.1881 Y30.2064
G01 X45.1293 Y30.1414
G01 X45.0768 Y30.0707
G01 X45.0317 Y29.9954
G01 X44.9941 Y29.9160
G01 X44.9645 Y29.8333
G01 X44.9432 Y29.7481
G01 X44.9303 Y29.6612
G01 X44.9260 Y29.5735
G01 X44.9303 Y29.4858
G01 X44.9432 Y29.3989
G01 X44.9645 Y29.3137
G01 X44.9941 Y29.2310
G01 X45.0317 Y29.1516
G01 X45.0768 Y29.0763
G01 X45.1233 Y29.0133
G00 Z2.0000
G00 X48.1883 Y28.8390
G01 F60.00
G01 Z-0.0500
G01 F120.00
G01 X48.1959 Y28.8291
G01 X48.2109 Y28.8109
G01 X48.2648 Y28.7511
G01 X48.2813 Y28.7338
G01 X48.2986 Y28.7173
G01 X48.3495 Y28.6712
G01 X48.3673 Y28.6559
G01 X48.3865 Y28.6408
G01 X48.4417 Y28.5999
G01 X48.4613 Y28.5861
G01 X48.4815 Y28.5733
G01 X48.5507 Y28.5320
G01 X48.5612 Y28.5262
G01 X48.5826 Y28.5155
G01 X48.6556 Y28.4811
G01 X48.6666 Y28.4764
G01 X48.6889 Y28.4678
G01 X48.7536 Y28.4446
G01 X48.7763 Y28.4371
G01 X48.7993 Y28.4308
G01 X48.8660 Y28.4141
G01 X48.8776 Y28.4113
G01 X48.9011 Y28.4066
G01 X48.9809 Y28.3946
G01 X49.0046 Y28.3917
G01 X49.0285 Y28.3900
G01 X49.0971 Y28.3866
G01 X49.1210 Y28.3860
G01 X49.1449 Y28.3866
G01 X49.2135 Y28.3900
G01 X49.2374 Y28.3917
G01 X49.2611 Y28.3946
G01 X49.3291 Y28.4047
G01 X49.3527 Y28.4088
G01 X49.3760 Y28.4141
G01 X49.4427 Y28.4308
G01 X49.4657 Y28.4371
G01 X49.4884 Y28.4446
G01 X49.5531 Y28.4678
G01 X49.5754 Y28.4764
G01 X49.5864 Y28.4811
G01 X49.6594 Y28.5155
G01 X49.6808 Y28.5262
G01 X49.7016 Y28.5380
G01 X49.7605 Y28.5733
G01 X49.7707 Y28.5796
G01 X49.7906 Y28.5929
G01 X49.8650 Y28.6481
G01 X49.8835 Y28.6633
G01 X49.8925 Y28.6712
G01 X49.9434 Y28.7173
G01 X49.9607 Y28.7338
G01 X49.9772 Y28.7511
G01 X50.0086 Y28.7859
G01 X51.4825 Y28.7859
G01 X51.5064 Y28.7864
G01 X51.5358 Y28.7879
G01 X51.5597 Y28.7896
G01 X51.5716 Y28.7910
G01 X51.6244 Y28.7988
G01 X51.6479 Y28.8035
G01 X51.6997 Y28.8164
G01 X51.7111 Y28.8198
G01 X51.7339 Y28.8273
G01 X51.7616 Y28.8372
G01 X51.7839 Y28.8458
G01 X51.8058 Y28.8555
G01 X51.8324 Y28.8681
G01 X51.8538 Y28.8789
G01 X51.8746 Y28.8906
G01 X51.9097 Y28.9118
G01 X51.9193 Y28.9181
G01 X51.9382 Y28.9313
G01 X51.9633 Y28.9499
G01 X51.9822 Y28.9646
G01 X52.0003 Y28.9803
G01 X52.0309 Y29.0082
G01 X53.3595 Y30.3366
G01 X53.3921 Y30.3286
G01 X53.4156 Y30.3239
G01 X53.5363 Y30.3060
G01 X53.5601 Y30.3036
G01 X53.5721 Y30.3029
G01 X53.6701 Y30.2981
G01 X53.6820 Y30.2976
G01 X53.7060 Y30.2976
G01 X53.8159 Y30.3029
G01 X53.8398 Y30.3047
G01 X53.8635 Y30.3076
G01 X53.9606 Y30.3220
G01 X53.9842 Y30.3261
G01 X54.0075 Y30.3313
G01 X54.1027 Y30.3552
G01 X54.1249 Y30.3613
G01 X54.1358 Y30.3647
G01 X54.2409 Y30.4021
G01 X54.2632 Y30.4107
G01 X54.2851 Y30.4204
G01 X54.3738 Y30.4624
G01 X54.3952 Y30.4731
G01 X54.4160 Y30.4849
G01 X54.5002 Y30.5354
G01 X54.5204 Y30.5482
G01 X54.5400 Y30.5620
G01 X54.6188 Y30.6204
G01 X54.6377 Y30.6351
G01 X54.6558 Y30.6508
G01 X54.7285 Y30.7167
G01 X54.7458 Y30.7332
G01 X54.7623 Y30.7505
G01 X54.8361 Y30.8322
G01 X54.8439 Y30.8413
G01 X54.8586 Y30.8602
G01 X54.9170 Y30.9390
G01 X54.9308 Y30.9586
G01 X54.9436 Y30.9788
G01 X54.9941 Y31.0630
G01 X55.0059 Y31.0838
G01 X55.0166 Y31.1052
G01 X55.0586 Y31.1939
G01 X55.0684 Y31.2160
G01 X55.0769 Y31.2381
G01 X55.1099 Y31.3305
G01 X55.1174 Y31.3532
G01 X55.1238 Y31.3763
G01 X55.1477 Y31.4715
G01 X55.1529 Y31.4948
G01 X55.1570 Y31.5184
G01 X55.1714 Y31.6155
G01 X55.1743 Y31.6392
G01 X55.1761 Y31.6631
G01 X55.1809 Y31.7611
G01 X55.1815 Y31.7850
G01 X55.1809 Y31.8089
G01 X55.1761 Y31.9069
G01 X55.1743 Y31.9308
G01 X55.1714 Y31.9545
G01 X55.1570 Y32.0516
G01 X55.1529 Y32.0752
G01 X55.1477 Y32.0985
G01 X55.1238 Y32.1937
G01 X55.1174 Y32.2168
G01 X55.1099 Y32.2395
G01 X55.0769 Y32.3319
G01 X55.0683 Y32.3542
G01 X55.0586 Y32.3761
G01 X55.0166 Y32.4648
G01 X55.0059 Y32.4862
G01 X54.9941 Y32.5070
G01 X54.9436 Y32.5912
G01 X54.9308 Y32.6114
G01 X54.9170 Y32.6310
G01 X54.8586 Y32.7098
G01 X54.8439 Y32.7287
G01 X54.8282 Y32.7468
G01 X54.7623 Y32.8195
G01 X54.7458 Y32.8368
G01 X54.7285 Y32.8533
G01 X54.6558 Y32.9192
G01 X54.6377 Y32.9349
G01 X54.6188 Y32.9496
G01 X54.5400 Y33.0080
G01 X54.5204 Y33.0218
G01 X54.5002 Y33.0346
G01 X54.4160 Y33.0851
G01 X54.3952 Y33.0969
G01 X54.3738 Y33.1076
G01 X54.2851 Y33.1496
G01 X54.2632 Y33.1593
G01 X54.2409 Y33.1679
G01 X54.1485 Y33.2009
G01 X54.1258 Y33.2084
G01 X54.1027 Y33.2148
G01 X54.0075 Y33.2387
G01 X53.9842 Y33.2439
G01 X53.9606 Y33.2480
G01 X53.8635 Y33.2624
G01 X53.8398 Y33.2653
G01 X53.8159 Y33.2671
G01 X53.7179 Y33.2719
G01 X53.6940 Y33.2725
G01 X53.6701 Y33.2719
G01 X53.5721 Y33.2671
G01 X53.5482 Y33.2653
G01 X53.5245 Y33.2624
G01 X53.4274 Y33.2480
G01 X53.4038 Y33.2439
G01 X53.3805 Y33.2387
G01 X53.2853 Y33.2148
G01 X53.2622 Y33.2084
G01 X53.2395 Y33.2009
G01 X53.1471 Y33.1679
G01 X53.1248 Y33.1593
G01 X53.1029 Y33.1496
G01 X53.0142 Y33.1076
G01 X52.9928 Y33.0969
G01 X52.9720 Y33.0851
G01 X52.8878 Y33.0346
G01 X52.8676 Y33.0218
G01 X52.8480 Y33.0080
G01 X52.7692 Y32.9496
G01 X52.7503 Y32.9349
G01 X52.7412 Y32.9271
G01 X52.6595 Y32.8533
G01 X52.6422 Y32.8368
G01 X52.6257 Y32.8195
G01 X52.5598 Y32.7468
G01 X52.5441 Y32.7287
G01 X52.5294 Y32.7098
G01 X52.4710 Y32.6310
G01 X52.4572 Y32.6114
G01 X52.4444 Y32.5912
G01 X52.3939 Y32.5070
G01 X52.3821 Y32.4862
G01 X52.3714 Y32.4648
G01 X52.3244 Y32.3652
G01 X52.3197 Y32.3542
G01 X52.3111 Y32.3319
G01 X52.2781 Y32.2395
G01 X52.2706 Y32.2168
G01 X52.2642 Y32.1937
G01 X52.2403 Y32.0985
G01 X52.2351 Y32.0752
G01 X52.2310 Y32.0516
G01 X52.2166 Y31.9545
G01 X52.2137 Y31.9308
G01 X52.2119 Y31.9069
G01 X52.2071 Y31.8089
G01 X52.2065 Y31.7850
G01 X52.2071 Y31.7611
G01 X52.2126 Y31.6511
G01 X52.2150 Y31.6273
G01 X52.2166 Y31.6155
G01 X52.2329 Y31.5066
G01 X52.2376 Y31.4831
G01 X52.2456 Y31.4505
G01 X51.1562 Y30.3611
G01 X50.0086 Y30.3612
G01 X49.9772 Y30.3959
G01 X49.9607 Y30.4132
G01 X49.9434 Y30.4297
G01 X49.8925 Y30.4758
G01 X49.8835 Y30.4837
G01 X49.8650 Y30.4989
G01 X49.8003 Y30.5471
G01 X49.7807 Y30.5609
G01 X49.7707 Y30.5674
G01 X49.6913 Y30.6150
G01 X49.6702 Y30.6263
G01 X49.5973 Y30.6609
G01 X49.5864 Y30.6659
G01 X49.5643 Y30.6750
G01 X49.4771 Y30.7063
G01 X49.4542 Y30.7132
G01 X49.4427 Y30.7162
G01 X49.3644 Y30.7357
G01 X49.3527 Y30.7382
G01 X49.3291 Y30.7423
G01 X49.2493 Y30.7540
G01 X49.2255 Y30.7563
G01 X49.1449 Y30.7604
G01 X49.1330 Y30.7609
G01 X49.1090 Y30.7609
G01 X49.0165 Y30.7563
G01 X48.9927 Y30.7540
G01 X48.9809 Y30.7524
G01 X48.9011 Y30.7404
G01 X48.8893 Y30.7382
G01 X48.8660 Y30.7329
G01 X48.7883 Y30.7133
G01 X48.7663 Y30.7067
G01 X48.7554 Y30.7030
G01 X48.6889 Y30.6792
G01 X48.6777 Y30.6750
G01 X48.6556 Y30.6659
G01 X48.5718 Y30.6263
G01 X48.5507 Y30.6150
G01 X48.4815 Y30.5737
G01 X48.4713 Y30.5674
G01 X48.4514 Y30.5541
G01 X48.3865 Y30.5062
G01 X48.3677 Y30.4914
G01 X48.3495 Y30.4758
G01 X48.2986 Y30.4297
G01 X48.2813 Y30.4132
G01 X48.2648 Y30.3959
G01 X48.2187 Y30.3450
G01 X48.2034 Y30.3272
G01 X48.1883 Y30.3080
G01 X48.1474 Y30.2528
G01 X48.1336 Y30.2332
G01 X48.1208 Y30.2130
G01 X48.0855 Y30.1541
G01 X48.0737 Y30.1333
G01 X48.0630 Y30.1119
G01 X48.0336 Y30.0498
G01 X48.0239 Y30.0279
G01 X48.0153 Y30.0056
G01 X47.9921 Y29.9409
G01 X47.9846 Y29.9182
G01 X47.9783 Y29.8952
G01 X47.9616 Y29.8285
G01 X47.9563 Y29.8052
G01 X47.9522 Y29.7816
G01 X47.9421 Y29.7136
G01 X47.9392 Y29.6899
G01 X47.9375 Y29.6660
G01 X47.9341 Y29.5974
G01 X47.9335 Y29.5735
G01 X47.9341 Y29.5496
G01 X47.9375 Y29.4810
G01 X47.9392 Y29.4571
G01 X47.9421 Y29.4334
G01 X47.9522 Y29.3654
G01 X47.9563 Y29.3418
G01 X47.9616 Y29.3185
G01 X47.9783 Y29.2518
G01 X47.9846 Y29.2288
G01 X47.9921 Y29.2061
G01 X48.0153 Y29.1414
G01 X48.0239 Y29.1191
G01 X48.0336 Y29.0972
G01 X48.0630 Y29.0351
G01 X48.0737 Y29.0137
G01 X48.0855 Y28.9929
G01 X48.1208 Y28.9340
G01 X48.1336 Y28.9138
G01 X48.1474 Y28.8942
G01 X48.1883 Y28.8390
G00 Z2.0000
G00 X48.4233 Y29.0133
G01 F60.00
G01 Z-0.0500
G01 F120.00
G01 X48.4354 Y28.9985
G01 X48.4881 Y28.9406
G01 X48.5531 Y28.8818
G01 X48.6238 Y28.8293
G01 X48.6908 Y28.7889
G01 X48.7076 Y28.7799
G01 X48.7697 Y28.7505
G01 X48.7874 Y28.7432
G01 X48.8612 Y28.7170
G01 X48.9371 Y28.6978
G01 X48.9558 Y28.6941
G01 X49.0333 Y28.6828
G01 X49.1114 Y28.6787
G01 X49.1306 Y28.6787
G01 X49.2087 Y28.6828
G01 X49.2862 Y28.6941
G01 X49.3049 Y28.6978
G01 X49.3716 Y28.7145
G01 X49.3899 Y28.7200
G01 X49.4635 Y28.7466
G01 X49.5429 Y28.7842
G01 X49.6101 Y28.8242
G01 X49.6261 Y28.8348
G01 X49.6888 Y28.8817
G01 X49.7469 Y28.9340
G01 X49.7605 Y28.9476
G01 X49.8128 Y29.0057
G01 X49.8597 Y29.0684
G01 X49.8665 Y29.0784
G01 X51.4873 Y29.0784
G01 X51.5263 Y29.0803
G01 X51.5405 Y29.0819
G01 X51.5791 Y29.0879
G01 X51.6170 Y29.0971
G01 X51.6353 Y29.1027
G01 X51.6720 Y29.1160
G01 X51.7159 Y29.1368
G01 X51.7573 Y29.1616
G01 X51.7891 Y29.1849
G01 X51.8039 Y29.1970
G01 X51.8326 Y29.2234
G01 X53.2759 Y30.6667
G01 X53.3471 Y30.6415
G01 X53.4562 Y30.6140
G01 X53.4703 Y30.6113
G01 X53.5674 Y30.5969
G01 X53.5816 Y30.5953
G01 X53.6940 Y30.5900
G01 X53.8016 Y30.5951
G01 X53.8206 Y30.5969
G01 X53.9177 Y30.6113
G01 X53.9318 Y30.6140
G01 X54.0405 Y30.6413
G01 X54.1424 Y30.6775
G01 X54.1601 Y30.6848
G01 X54.2573 Y30.7311
G01 X54.3579 Y30.7914
G01 X54.4446 Y30.8554
G01 X54.4593 Y30.8675
G01 X54.5321 Y30.9334
G01 X54.5423 Y30.9434
G01 X54.6177 Y31.0269
G01 X54.6821 Y31.1133
G01 X54.6927 Y31.1292
G01 X54.7432 Y31.2134
G01 X54.7522 Y31.2302
G01 X54.7981 Y31.3278
G01 X54.8375 Y31.4381
G01 X54.8660 Y31.5519
G01 X54.8821 Y31.6584
G01 X54.8839 Y31.6774
G01 X54.8888 Y31.7754
G01 X54.8888 Y31.7946
G01 X54.8832 Y31.9021
G01 X54.8660 Y32.0181
G01 X54.8401 Y32.1227
G01 X54.8345 Y32.1410
G01 X54.7980 Y32.2423
G01 X54.7479 Y32.3483
G01 X54.6876 Y32.4489
G01 X54.6177 Y32.5431
G01 X54.5390 Y32.6300
G01 X54.4521 Y32.7087
G01 X54.3579 Y32.7786
G01 X54.2573 Y32.8389
G01 X54.1513 Y32.8890
G01 X54.0409 Y32.9285
G01 X53.9271 Y32.9570
G01 X53.8111 Y32.9742
G01 X53.6940 Y32.9800
G01 X53.5769 Y32.9742
G01 X53.4609 Y32.9570
G01 X53.3471 Y32.9285
G01 X53.2367 Y32.8890
G01 X53.1307 Y32.8389
G01 X53.0301 Y32.7786
G01 X52.9359 Y32.7087
G01 X52.8490 Y32.6300
G01 X52.7765 Y32.5503
G01 X52.7644 Y32.5356
G01 X52.7059 Y32.4567
G01 X52.6953 Y32.4408
G01 X52.6401 Y32.3483
G01 X52.5938 Y32.2511
G01 X52.5882 Y32.2379
G01 X52.5505 Y32.1319
G01 X52.5220 Y32.0181
G01 X52.5048 Y31.9021
G01 X52.4991 Y31.7898
G01 X52.4992 Y31.7754
G01 X52.5048 Y31.6679
G01 X52.5211 Y31.5566
G01 X52.5241 Y31.5425
G01 X52.5491 Y31.4429
G01 X52.5532 Y31.4298
G01 X52.5757 Y31.3669
G01 X51.2774 Y30.0686
G01 X49.8665 Y30.0687
G01 X49.8597 Y30.0786
G01 X49.8133 Y30.1408
G01 X49.7605 Y30.1994
G01 X49.7469 Y30.2130
G01 X49.6960 Y30.2591
G01 X49.6812 Y30.2712
G01 X49.6182 Y30.3177
G01 X49.5429 Y30.3628
G01 X49.4635 Y30.4004
G01 X49.3808 Y30.4300
G01 X49.2956 Y30.4513
G01 X49.2182 Y30.4630
G01 X49.1992 Y30.4649
G01 X49.1306 Y30.4683
G01 X49.1114 Y30.4683
G01 X49.0333 Y30.4642
G01 X48.9464 Y30.4513
G01 X48.8616 Y30.4301
G01 X48.7874 Y30.4038
G01 X48.7697 Y30.3965
G01 X48.6991 Y30.3628
G01 X48.6319 Y30.3228
G01 X48.6159 Y30.3122
G01 X48.5608 Y30.2712
G01 X48.5460 Y30.2591
G01 X48.4881 Y30.2064
G01 X48.4354 Y30.1485
G01 X48.4235 Y30.1340
G01 X48.3768 Y30.0707
G01 X48.3317 Y29.9954
G01 X48.2941 Y29.9160
G01 X48.2675 Y29.8424
G01 X48.2620 Y29.8241
G01 X48.2453 Y29.7574
G01 X48.2416 Y29.7387
G01 X48.2303 Y29.6612
G01 X48.2262 Y29.5831
G01 X48.2262 Y29.5639
G01 X48.2303 Y29.4858
G01 X48.2432 Y29.3989
G01 X48.2645 Y29.3137
G01 X48.2907 Y29.2399
G01 X48.2980 Y29.2222
G01 X48.3317 Y29.1516
G01 X48.3717 Y29.0844
G01 X48.3823 Y29.0684
G01 X48.4233 Y29.0133
G00 Z2.0000
G00 X49.9126 Y30.8235
G01 F60.00
G01 Z-0.0500
G01 F120.00
G01 X49.9432 Y30.8041
G01 X49.9590 Y30.7932
G01 X50.0450 Y30.7295
G01 X50.0746 Y30.7052
G01 X50.1318 Y30.6536
G01 X51.0351 Y30.6536
G01 X51.9307 Y31.5493
G01 X51.9247 Y31.5915
G01 X51.9209 Y31.6296
G01 X51.9149 Y31.7467
G01 X51.9140 Y31.7850
G01 X51.9142 Y31.8041
G01 X51.9198 Y31.9213
G01 X51.9226 Y31.9595
G01 X51.9273 Y31.9975
G01 X51.9417 Y32.0945
G01 X51.9482 Y32.1323
G01 X51.9522 Y32.1510
G01 X51.9804 Y32.2648
G01 X51.9906 Y32.3017
G01 X52.0027 Y32.3381
G01 X52.0357 Y32.4305
G01 X52.0495 Y32.4662
G01 X52.0650 Y32.5012
G01 X52.1070 Y32.5899
G01 X52.1242 Y32.6241
G01 X52.1431 Y32.6574
G01 X52.1935 Y32.7416
G01 X52.2140 Y32.7739
G01 X52.2248 Y32.7897
G01 X52.2945 Y32.8840
G01 X52.3180 Y32.9142
G01 X52.3430 Y32.9432
G01 X52.4090 Y33.0159
G01 X52.4354 Y33.0436
G01 X52.4491 Y33.0570
G01 X52.5358 Y33.1360
G01 X52.5648 Y33.1610
G01 X52.5950 Y33.1845
G01 X52.6893 Y33.2542
G01 X52.7211 Y33.2755
G01 X52.7374 Y33.2855
G01 X52.8216 Y33.3359
G01 X52.8549 Y33.3548
G01 X52.8891 Y33.3720
G01 X52.9778 Y33.4140
G01 X53.0128 Y33.4295
G01 X53.0485 Y33.4433
G01 X53.1409 Y33.4763
G01 X53.1773 Y33.4884
G01 X53.2142 Y33.4986
G01 X53.3094 Y33.5224
G01 X53.3467 Y33.5308
G01 X53.3656 Y33.5343
G01 X53.4815 Y33.5517
G01 X53.5195 Y33.5564
G01 X53.5577 Y33.5592
G01 X53.6557 Y33.5641
G01 X53.6940 Y33.5650
G01 X53.7323 Y33.5641
G01 X53.8303 Y33.5592
G01 X53.8685 Y33.5564
G01 X53.9065 Y33.5517
G01 X54.0035 Y33.5373
G01 X54.0413 Y33.5308
G01 X54.0786 Y33.5224
G01 X54.1738 Y33.4986
G01 X54.2107 Y33.4884
G01 X54.2471 Y33.4763
G01 X54.3574 Y33.4366
G01 X54.3752 Y33.4295
G01 X54.4102 Y33.4140
G01 X54.4989 Y33.3720
G01 X54.5331 Y33.3548
G01 X54.5664 Y33.3359
G01 X54.6506 Y33.2855
G01 X54.6829 Y33.2650
G01 X54.7142 Y33.2430
G01 X54.7930 Y33.1845
G01 X54.8232 Y33.1610
G01 X54.8522 Y33.1360
G01 X54.9249 Y33.0700
G01 X54.9526 Y33.0436
G01 X54.9790 Y33.0159
G01 X55.0576 Y32.9289
G01 X55.0819 Y32.8993
G01 X55.1520 Y32.8052
G01 X55.1740 Y32.7739
G01 X55.1945 Y32.7416
G01 X55.2546 Y32.6409
G01 X55.2726 Y32.6071
G01 X55.3230 Y32.5012
G01 X55.3385 Y32.4662
G01 X55.3523 Y32.4305
G01 X55.3853 Y32.3381
G01 X55.3974 Y32.3017
G01 X55.4076 Y32.2648
G01 X55.4314 Y32.1696
G01 X55.4398 Y32.1323
G01 X55.4463 Y32.0945
G01 X55.4607 Y31.9975
G01 X55.4654 Y31.9595
G01 X55.4682 Y31.9213
G01 X55.4731 Y31.8233
G01 X55.4738 Y31.8041
G01 X55.4738 Y31.7659
G01 X55.4682 Y31.6487
G01 X55.4654 Y31.6105
G01 X55.4607 Y31.5725
G01 X55.4463 Y31.4755
G01 X55.4398 Y31.4377
G01 X55.4314 Y31.4004
G01 X55.4076 Y31.3052
G01 X55.3974 Y31.2683
G01 X55.3853 Y31.2319
G01 X55.3458 Y31.1221
G01 X55.3310 Y31.0864
G01 X55.3230 Y31.0688
G01 X55.2810 Y30.9801
G01 X55.2638 Y30.9459
G01 X55.2449 Y30.9126
G01 X55.1945 Y30.8284
G01 X55.1740 Y30.7961
G01 X55.1520 Y30.7648
G01 X55.0935 Y30.6860
G01 X55.0700 Y30.6558
G01 X55.0450 Y30.6268
G01 X54.9790 Y30.5541
G01 X54.9660 Y30.5401
G01 X54.9389 Y30.5130
G01 X54.8522 Y30.4340
G01 X54.8232 Y30.4090
G01 X54.7930 Y30.3855
G01 X54.6987 Y30.3158
G01 X54.6829 Y30.3050
G01 X54.6506 Y30.2845
G01 X54.5664 Y30.2341
G01 X54.5331 Y30.2152
G01 X54.4989 Y30.1980
G01 X54.3928 Y30.1480
G01 X54.3574 Y30.1334
G01 X54.2441 Y30.0926
G01 X54.2092 Y30.0812
G01 X54.1738 Y30.0714
G01 X54.0786 Y30.0476
G01 X54.0413 Y30.0392
G01 X54.0035 Y30.0327
G01 X53.8875 Y30.0157
G01 X53.8494 Y30.0119
G01 X53.8303 Y30.0108
G01 X53.7131 Y30.0052
G01 X53.6749 Y30.0052
G01 X53.5386 Y30.0119
G01 X53.5005 Y30.0157
G01 X53.4583 Y30.0217
G01 X52.4230 Y28.9864
G01 X52.4530 Y28.9900
G01 X52.4721 Y28.9917
G01 X52.5157 Y28.9941
G01 X52.5540 Y28.9950
G01 X53.1790 Y28.9950
G01 X53.1981 Y28.9948
G01 X53.2418 Y28.9929
G01 X53.2800 Y28.9900
G01 X53.2990 Y28.9879
G01 X53.3422 Y28.9818
G01 X53.3799 Y28.9752
G01 X53.4173 Y28.9668
G01 X53.4596 Y28.9560
G01 X53.4962 Y28.9449
G01 X53.5374 Y28.9304
G01 X53.5554 Y28.9237
G01 X53.5908 Y28.9091
G01 X53.6475 Y28.8822
G01 X53.6813 Y28.8641
G01 X53.7352 Y28.8319
G01 X53.7670 Y28.8106
G01 X53.8175 Y28.7732
G01 X53.8471 Y28.7489
G01 X53.8936 Y28.7067
G01 X53.9207 Y28.6796
G01 X53.9629 Y28.6331
G01 X53.9872 Y28.6035
G01 X54.0246 Y28.5530
G01 X54.0459 Y28.5212
G01 X54.0781 Y28.4673
G01 X54.0962 Y28.4335
G01 X54.1231 Y28.3768
G01 X54.1377 Y28.3414
G01 X54.1589 Y28.2822
G01 X54.1700 Y28.2456
G01 X54.1852 Y28.1847
G01 X54.1927 Y28.1471
G01 X54.2019 Y28.0850
G01 X54.2057 Y28.0469
G01 X54.2088 Y27.9841
G01 X54.2088 Y26.6959
G01 X54.2060 Y26.6371
G01 X54.2043 Y26.6167
G01 X54.2021 Y26.5963
G01 X54.1994 Y26.5760
G01 X54.1927 Y26.5329
G01 X54.1852 Y26.4953
G01 X54.1749 Y26.4529
G01 X54.1646 Y26.4160
G01 X54.1589 Y26.3978
G01 X54.1444 Y26.3566
G01 X54.1306 Y26.3208
G01 X54.1231 Y26.3032
G01 X54.0962 Y26.2465
G01 X54.0874 Y26.2295
G01 X54.0685 Y26.1962
G01 X54.0459 Y26.1588
G01 X54.0354 Y26.1428
G01 X54.0134 Y26.1115
G01 X53.9872 Y26.0765
G01 X53.9629 Y26.0469
G01 X53.9502 Y26.0326
G01 X53.9207 Y26.0004
G01 X53.9073 Y25.9867
G01 X53.8796 Y25.9603
G01 X53.8471 Y25.9311
G01 X53.8175 Y25.9068
G01 X53.8022 Y25.8952
G01 X53.7670 Y25.8694
G01 X53.7512 Y25.8586
G01 X53.7189 Y25.8381
G01 X53.6813 Y25.8159
G01 X53.6475 Y25.7978
G01 X53.6303 Y25.7894
G01 X53.5908 Y25.7709
G01 X53.5732 Y25.7634
G01 X53.5374 Y25.7496
G01 X53.5005 Y25.7366
G01 X53.5237 Y25.7324
G01 X53.5611 Y25.7240
G01 X53.6082 Y25.7120
G01 X53.6266 Y25.7066
G01 X53.6629 Y25.6946
G01 X53.7081 Y25.6782
G01 X53.7260 Y25.6711
G01 X53.7614 Y25.6554
G01 X53.8052 Y25.6344
G01 X53.8222 Y25.6256
G01 X53.8555 Y25.6067
G01 X53.8971 Y25.5816
G01 X53.9131 Y25.5711
G01 X53.9444 Y25.5491
G01 X53.9833 Y25.5199
G01 X54.0087 Y25.4991
G01 X57.6939 Y25.4991
G01 X57.6939 Y26.0036
G01 X57.1853 Y26.5121
G01 X57.1555 Y26.4972
G01 X57.1289 Y26.4846
G01 X57.1051 Y26.4739
G01 X57.0950 Y26.4344
G01 X57.0896 Y26.4160
G01 X57.0776 Y26.3797
G01 X57.0627 Y26.3386
G01 X57.0481 Y26.3032
G01 X57.0296 Y26.2637
G01 X57.0212 Y26.2465
G01 X57.0031 Y26.2127
G01 X56.9809 Y26.1751
G01 X56.9604 Y26.1428
G01 X56.9384 Y26.1115
G01 X56.9122 Y26.0765
G01 X56.9002 Y26.0616
G01 X56.8752 Y26.0326
G01 X56.8457 Y26.0004
G01 X56.8186 Y25.9733
G01 X56.7864 Y25.9438
G01 X56.7574 Y25.9188
G01 X56.7425 Y25.9068
G01 X56.7075 Y25.8806
G01 X56.6762 Y25.8586
G01 X56.6602 Y25.8481
G01 X56.6228 Y25.8255
G01 X56.5895 Y25.8066
G01 X56.5553 Y25.7894
G01 X56.5158 Y25.7709
G01 X56.4982 Y25.7634
G01 X56.4624 Y25.7496
G01 X56.4212 Y25.7351
G01 X56.4030 Y25.7294
G01 X56.3661 Y25.7191
G01 X56.3237 Y25.7088
G01 X56.2861 Y25.7013
G01 X56.2672 Y25.6982
G01 X56.2240 Y25.6921
G01 X56.2050 Y25.6900
G01 X56.1859 Y25.6883
G01 X56.1423 Y25.6859
G01 X56.1040 Y25.6850
G01 X55.4599 Y25.6852
G01 X55.4162 Y25.6871
G01 X55.3807 Y25.6897
G01 X55.3603 Y25.6919
G01 X55.3400 Y25.6946
G01 X55.2969 Y25.7013
G01 X55.2781 Y25.7048
G01 X55.2407 Y25.7132
G01 X55.1984 Y25.7240
G01 X55.1618 Y25.7351
G01 X55.1206 Y25.7496
G01 X55.0848 Y25.7634
G01 X55.0498 Y25.7789
G01 X55.0105 Y25.7978
G01 X54.9935 Y25.8066
G01 X54.9602 Y25.8255
G01 X54.9228 Y25.8481
G01 X54.8910 Y25.8694
G01 X54.8558 Y25.8952
G01 X54.8256 Y25.9188
G01 X54.7966 Y25.9438
G01 X54.7644 Y25.9733
G01 X54.7373 Y26.0004
G01 X54.6951 Y26.0469
G01 X54.6708 Y26.0765
G01 X54.6334 Y26.1270
G01 X54.6121 Y26.1588
G01 X54.5799 Y26.2127
G01 X54.5618 Y26.2465
G01 X54.5429 Y26.2858
G01 X54.5274 Y26.3208
G01 X54.5136 Y26.3566
G01 X54.4991 Y26.3978
G01 X54.4934 Y26.4160
G01 X54.4831 Y26.4529
G01 X54.4728 Y26.4953
G01 X54.4653 Y26.5329
G01 X54.4561 Y26.5950
G01 X54.4523 Y26.6331
G01 X54.4499 Y26.6767
G01 X54.4490 Y26.7150
G01 X54.4490 Y27.9650
G01 X54.4492 Y27.9841
G01 X54.4511 Y28.0278
G01 X54.4523 Y28.0469
G01 X54.4561 Y28.0850
G01 X54.4653 Y28.1471
G01 X54.4728 Y28.1847
G01 X54.4880 Y28.2456
G01 X54.4991 Y28.2822
G01 X54.5203 Y28.3414
G01 X54.5349 Y28.3768
G01 X54.5618 Y28.4335
G01 X54.5799 Y28.4673
G01 X54.5895 Y28.4838
G01 X54.6121 Y28.5212
G01 X54.6226 Y28.5372
G01 X54.6334 Y28.5530
G01 X54.6592 Y28.5882
G01 X54.6828 Y28.6184
G01 X54.7078 Y28.6474
G01 X54.7373 Y28.6796
G01 X54.7507 Y28.6933
G01 X54.7644 Y28.7067
G01 X54.7966 Y28.7362
G01 X54.8256 Y28.7612
G01 X54.8405 Y28.7732
G01 X54.8910 Y28.8106
G01 X54.9228 Y28.8319
G01 X54.9767 Y28.8641
G01 X54.9935 Y28.8734
G01 X55.0277 Y28.8906
G01 X55.0672 Y28.9091
G01 X55.0848 Y28.9166
G01 X55.1026 Y28.9237
G01 X55.1437 Y28.9386
G01 X55.1618 Y28.9449
G01 X55.1984 Y28.9560
G01 X55.2593 Y28.9712
G01 X55.2969 Y28.9787
G01 X55.3590 Y28.9879
G01 X55.3971 Y28.9917
G01 X55.4599 Y28.9948
G01 X56.1040 Y28.9950
G01 X56.1423 Y28.9941
G01 X56.1859 Y28.9917
G01 X56.2240 Y28.9879
G01 X56.2861 Y28.9787
G01 X56.3237 Y28.9712
G01 X56.3846 Y28.9560
G01 X56.4212 Y28.9449
G01 X56.4804 Y28.9237
G01 X56.5158 Y28.9091
G01 X56.5696 Y28.8836
G01 X58.0234 Y30.3372
G01 X58.0736 Y30.3826
G01 X58.1032 Y30.4069
G01 X58.1576 Y30.4473
G01 X58.1894 Y30.4686
G01 X58.2475 Y30.5034
G01 X58.2813 Y30.5214
G01 X58.3425 Y30.5504
G01 X58.3779 Y30.5650
G01 X58.4236 Y30.5816
G01 X58.4599 Y30.5936
G01 X58.4783 Y30.5990
G01 X58.5254 Y30.6110
G01 X58.5628 Y30.6194
G01 X58.6005 Y30.6259
G01 X58.6486 Y30.6328
G01 X58.6867 Y30.6366
G01 X58.7352 Y30.6392
G01 X58.7735 Y30.6401
G01 X60.2322 Y30.6401
G01 X60.2172 Y30.6700
G01 X60.2046 Y30.6966
G01 X60.1966 Y30.7140
G01 X60.1830 Y30.7468
G01 X59.2128 Y31.7236
G01 X59.1883 Y31.7494
G01 X59.1559 Y31.7856
G01 X59.1316 Y31.8152
G01 X59.1024 Y31.8541
G01 X59.0900 Y31.8714
G01 X59.0696 Y31.9021
G01 X59.0351 Y31.9595
G01 X59.0171 Y31.9933
G01 X58.9881 Y32.0545
G01 X58.9735 Y32.0899
G01 X58.9506 Y32.1537
G01 X58.9449 Y32.1719
G01 X58.9347 Y32.2088
G01 X58.9231 Y32.2560
G01 X58.9191 Y32.2748
G01 X58.9126 Y32.3125
G01 X58.9057 Y32.3606
G01 X58.9036 Y32.3796
G01 X58.9007 Y32.4178
G01 X58.8986 Y32.4664
G01 X58.8984 Y32.4855
G01 X58.8984 Y33.1407
G01 X58.8821 Y33.1589
G01 X58.8578 Y33.1885
G01 X58.8204 Y33.2390
G01 X58.7991 Y33.2708
G01 X58.7765 Y33.3082
G01 X58.7576 Y33.3415
G01 X58.7404 Y33.3757
G01 X58.7219 Y33.4152
G01 X58.7073 Y33.4506
G01 X58.6924 Y33.4917
G01 X58.6804 Y33.5280
G01 X58.6701 Y33.5649
G01 X58.6598 Y33.6073
G01 X58.6523 Y33.6449
G01 X58.6456 Y33.6880
G01 X58.6410 Y33.7260
G01 X58.6393 Y33.7451
G01 X58.6369 Y33.7887
G01 X58.6360 Y33.8270
G01 X58.6360 Y35.0770
G01 X58.6369 Y35.1153
G01 X58.6393 Y35.1589
G01 X58.6410 Y35.1780
G01 X58.6456 Y35.2160
G01 X58.6523 Y35.2591
G01 X58.6556 Y35.2769
G01 X58.2054 Y35.2769
G01 X58.1271 Y35.1988
G01 X58.0769 Y35.1534
G01 X58.0473 Y35.1291
G01 X58.0084 Y35.0999
G01 X57.9911 Y35.0875
G01 X57.9604 Y35.0671
G01 X57.9030 Y35.0326
G01 X57.8692 Y35.0146
G01 X57.8080 Y34.9856
G01 X57.7726 Y34.9710
G01 X57.7088 Y34.9481
G01 X57.6722 Y34.9370
G01 X57.6065 Y34.9206
G01 X57.5689 Y34.9131
G01 X57.5019 Y34.9032
G01 X57.4638 Y34.8994
G01 X57.4153 Y34.8968
G01 X57.3770 Y34.8959
G01 X52.8714 Y34.8959
G01 X52.6151 Y34.6396
G01 X52.6149 Y34.4684
G01 X52.6116 Y34.4007
G01 X52.6078 Y34.3626
G01 X52.5979 Y34.2956
G01 X52.5904 Y34.2580
G01 X52.5788 Y34.2108
G01 X52.5686 Y34.1739
G01 X52.5629 Y34.1557
G01 X52.5400 Y34.0919
G01 X52.5254 Y34.0565
G01 X52.5048 Y34.0125
G01 X52.4964 Y33.9953
G01 X52.4784 Y33.9615
G01 X52.4536 Y33.9197
G01 X52.4331 Y33.8874
G01 X52.4111 Y33.8561
G01 X52.3819 Y33.8172
G01 X52.3576 Y33.7876
G01 X52.3252 Y33.7514
G01 X52.2988 Y33.7237
G01 X50.5995 Y32.0245
G01 X50.5967 Y31.9666
G01 X50.5939 Y31.9284
G01 X50.5892 Y31.8904
G01 X50.5791 Y31.8225
G01 X50.5761 Y31.8036
G01 X50.5686 Y31.7660
G01 X50.5426 Y31.6623
G01 X50.5315 Y31.6256
G01 X50.5253 Y31.6075
G01 X50.5021 Y31.5428
G01 X50.4883 Y31.5071
G01 X50.4728 Y31.4721
G01 X50.4435 Y31.4100
G01 X50.4351 Y31.3928
G01 X50.4170 Y31.3591
G01 X50.3620 Y31.2673
G01 X50.3516 Y31.2513
G01 X50.3295 Y31.2200
G01 X50.2886 Y31.1648
G01 X50.2651 Y31.1346
G01 X50.2400 Y31.1056
G01 X50.1809 Y31.0407
G01 X50.1538 Y31.0136
G01 X50.1398 Y31.0006
G01 X50.0889 Y30.9545
G01 X50.0599 Y30.9294
G01 X50.0297 Y30.9059
G01 X49.9590 Y30.8538
G01 X49.9432 Y30.8429
G01 X49.9126 Y30.8235
G00 Z2.0000
G00 X48.4233 Y31.5133
G01 F60.00
G01 Z-0.0500
G01 F120.00
G01 X48.4354 Y31.4985
G01 X48.4881 Y31.4406
G01 X48.5531 Y31.3818
G01 X48.6238 Y31.3293
G01 X48.6991 Y31.2842
G01 X48.7785 Y31.2466
G01 X48.8612 Y31.2170
G01 X48.9464 Y31.1957
G01 X49.0238 Y31.1840
G01 X49.0428 Y31.1821
G01 X49.1210 Y31.1785
G01 X49.1992 Y31.1821
G01 X49.2182 Y31.1840
G01 X49.2862 Y31.1941
G01 X49.3049 Y31.1978
G01 X49.3808 Y31.2170
G01 X49.4546 Y31.2432
G01 X49.4723 Y31.2505
G01 X49.5429 Y31.2842
G01 X49.6182 Y31.3293
G01 X49.6888 Y31.3817
G01 X49.7504 Y31.4373
G01 X49.7605 Y31.4476
G01 X49.8128 Y31.5057
G01 X49.8597 Y31.5684
G01 X49.8703 Y31.5844
G01 X49.9103 Y31.6516
G01 X49.9440 Y31.7222
G01 X49.9513 Y31.7399
G01 X49.9775 Y31.8137
G01 X49.9967 Y31.8896
G01 X50.0004 Y31.9083
G01 X50.0117 Y31.9858
G01 X50.0158 Y32.0639
G01 X50.0158 Y32.0831
G01 X50.0117 Y32.1612
G01 X50.0004 Y32.2387
G01 X49.9983 Y32.2505
G01 X51.8851 Y34.1374
G01 X51.9178 Y34.1734
G01 X51.9412 Y34.2046
G01 X51.9518 Y34.2205
G01 X51.9717 Y34.2541
G01 X51.9886 Y34.2893
G01 X51.9959 Y34.3069
G01 X52.0088 Y34.3438
G01 X52.0185 Y34.3816
G01 X52.0223 Y34.4003
G01 X52.0278 Y34.4390
G01 X52.0301 Y34.4827
G01 X52.0301 Y34.8819
G01 X52.6291 Y35.4809
G01 X57.3770 Y35.4809
G01 X57.4208 Y35.4828
G01 X57.4350 Y35.4844
G01 X57.4736 Y35.4904
G01 X57.5115 Y35.4996
G01 X57.5298 Y35.5052
G01 X57.5665 Y35.5185
G01 X57.6062 Y35.5371
G01 X57.6187 Y35.5440
G01 X57.6440 Y35.5592
G01 X57.6556 Y35.5667
G01 X57.6911 Y35.5932
G01 X57.7237 Y35.6225
G01 X57.9631 Y35.8619
G01 X59.5360 Y35.8619
G01 X59.5750 Y35.8635
G01 X59.5893 Y35.8648
G01 X59.6232 Y35.8697
G01 X59.6419 Y35.8735
G01 X59.6797 Y35.8832
G01 X59.7255 Y35.8995
G01 X59.7694 Y35.9203
G01 X59.8030 Y35.9402
G01 X59.8183 Y35.9504
G01 X59.8501 Y35.9742
G01 X59.8861 Y36.0069
G01 X64.4581 Y40.5789
G01 X64.4908 Y40.6149
G01 X64.5142 Y40.6461
G01 X64.5248 Y40.6620
G01 X64.5447 Y40.6956
G01 X64.5655 Y40.7395
G01 X64.5788 Y40.7762
G01 X64.5844 Y40.7945
G01 X64.5936 Y40.8324
G01 X64.5996 Y40.8710
G01 X64.6012 Y40.8852
G01 X64.6031 Y40.9242
G01 X64.6032 Y44.8789
G01 X71.7280 Y44.8789
G01 X71.7765 Y44.8812
G01 X71.8246 Y44.8884
G01 X71.8717 Y44.9002
G01 X71.9086 Y44.9131
G01 X71.9262 Y44.9204
G01 X71.9614 Y44.9373
G01 X72.0028 Y44.9621
G01 X72.0421 Y44.9912
G01 X72.0781 Y45.0239
G01 X74.3461 Y47.2919
G01 X78.2098 Y47.2919
G01 X78.2535 Y47.2942
G01 X78.2922 Y47.2997
G01 X78.3109 Y47.3035
G01 X78.3487 Y47.3132
G01 X78.3856 Y47.3261
G01 X78.4032 Y47.3334
G01 X78.4384 Y47.3503
G01 X78.4798 Y47.3751
G01 X78.5191 Y47.4042
G01 X78.5551 Y47.4369
G01 X79.0665 Y47.9483
G01 X79.0958 Y47.9809
G01 X79.1247 Y48.0199
G01 X79.1497 Y48.0616
G01 X79.1686 Y48.1011
G01 X79.1739 Y48.1144
G01 X79.1868 Y48.1513
G01 X79.1976 Y48.1937
G01 X79.2003 Y48.2078
G01 X79.2052 Y48.2417
G01 X79.2065 Y48.2560
G01 X79.2079 Y48.2854
G01 X79.2081 Y49.0519
G01 X79.2966 Y49.0300
G01 X79.4068 Y49.0137
G01 X79.5180 Y49.0082
G01 X79.6197 Y49.0130
G01 X79.6387 Y49.0148
G01 X79.7300 Y49.0284
G01 X79.7487 Y49.0321
G01 X79.8474 Y49.0571
G01 X79.9478 Y49.0928
G01 X79.9610 Y49.0985
G01 X80.0444 Y49.1379
G01 X80.0613 Y49.1469
G01 X80.1485 Y49.1994
G01 X80.2379 Y49.2658
G01 X80.3204 Y49.3406
G01 X80.3890 Y49.4158
G01 X80.4011 Y49.4306
G01 X80.4560 Y49.5047
G01 X80.4667 Y49.5206
G01 X80.5188 Y49.6081
G01 X80.5625 Y49.7000
G01 X80.5699 Y49.7177
G01 X80.6039 Y49.8136
G01 X80.6289 Y49.9123
G01 X80.6326 Y49.9310
G01 X80.6473 Y50.0318
G01 X80.6526 Y50.1334
G01 X80.6526 Y50.1526
G01 X80.6473 Y50.2542
G01 X80.6326 Y50.3550
G01 X80.6289 Y50.3737
G01 X80.6039 Y50.4724
G01 X80.5699 Y50.5683
G01 X80.5625 Y50.5860
G01 X80.5231 Y50.6694
G01 X80.5141 Y50.6863
G01 X80.4616 Y50.7735
G01 X80.3952 Y50.8629
G01 X80.3204 Y50.9454
G01 X80.2381 Y51.0201
G01 X80.1485 Y51.0866
G01 X80.0529 Y51.1438
G01 X79.9523 Y51.1914
G01 X79.8474 Y51.2289
G01 X79.7394 Y51.2560
G01 X79.6292 Y51.2723
G01 X79.5180 Y51.2778
G01 X79.4068 Y51.2723
G01 X79.2966 Y51.2560
G01 X79.1886 Y51.2289
G01 X79.0837 Y51.1914
G01 X78.9831 Y51.1438
G01 X78.8875 Y51.0866
G01 X78.7981 Y51.0202
