(G-CODE GENERATED BY FLATCAM v8.994 - www.flatcam.org - Version Date: 2020/11/7)
(Name: AFPI Device V1.1-F_Paste.gbr_iso_combined_cnc)
(Type: G-code from Geometry)
(Units: MM)
(Created on Sunday, 11 August 2024 at 19:42)
(This preprocessor is the default preprocessor used by FlatCAM.)
(It is made to work with MACH3 compatible motion controllers.)
(TOOL DIAMETER: 0.2 mm)
(Feedrate_XY: 300.0 mm/min)
(Feedrate_Z: 60.0 mm/min)
(Feedrate rapids 1500.0 mm/min)
(Z_Cut: -0.2 mm)
(Z_Move: 2.0 mm)
(Z Start: None mm)
(Z End: 15.0 mm)
(X,Y End: 0.0000, 0.0000 mm)
(Steps per circle: 64)
(Preprocessor Geometry: default)
(X range:    1.8310 ...   79.7160  mm)
(Y range:  -39.5830 ...   -5.8580  mm)
(Spindle Speed: 10000.0 RPM)
G21
G90
G94
G01 F300.00
M5
G00 Z15.0000
G00 X0.0000 Y0.0000
T1
M6
G00 Z15.0000
M03 S10000.0
G01 F300.00
G00 X5.7640 Y-9.9800
G01 F60.00
G01 Z-0.2000
G01 F300.00
G01 X9.5640 Y-9.9800
G01 X9.5714 Y-9.9797
G01 X9.5787 Y-9.9789
G01 X9.5907 Y-9.9764
G01 X9.6023 Y-9.9724
G01 X9.6133 Y-9.9670
G01 X9.6196 Y-9.9631
G01 X9.6255 Y-9.9588
G01 X9.6347 Y-9.9507
G01 X9.6428 Y-9.9415
G01 X9.6498 Y-9.9314
G01 X9.6533 Y-9.9250
G01 X9.6564 Y-9.9183
G01 X9.6604 Y-9.9067
G01 X9.6629 Y-9.8947
G01 X9.6640 Y-9.8825
G01 X9.6640 Y-7.8800
G01 X9.6632 Y-7.8678
G01 X9.6621 Y-7.8605
G01 X9.6604 Y-7.8533
G01 X9.6564 Y-7.8417
G01 X9.6510 Y-7.8307
G01 X9.6443 Y-7.8204
G01 X9.6364 Y-7.8110
G01 X9.6274 Y-7.8027
G01 X9.6216 Y-7.7982
G01 X9.6154 Y-7.7942
G01 X9.6045 Y-7.7886
G01 X9.5977 Y-7.7858
G01 X9.5907 Y-7.7836
G01 X9.5787 Y-7.7811
G01 X9.5714 Y-7.7803
G01 X9.5640 Y-7.7800
G01 X5.7640 Y-7.7800
G01 X5.7566 Y-7.7803
G01 X5.7493 Y-7.7811
G01 X5.7373 Y-7.7836
G01 X5.7257 Y-7.7876
G01 X5.7147 Y-7.7930
G01 X5.7044 Y-7.7997
G01 X5.6987 Y-7.8043
G01 X5.6933 Y-7.8093
G01 X5.6852 Y-7.8185
G01 X5.6782 Y-7.8286
G01 X5.6726 Y-7.8395
G01 X5.6698 Y-7.8463
G01 X5.6676 Y-7.8533
G01 X5.6651 Y-7.8653
G01 X5.6640 Y-7.8775
G01 X5.6640 Y-9.8825
G01 X5.6648 Y-9.8922
G01 X5.6664 Y-9.9019
G01 X5.6690 Y-9.9114
G01 X5.6726 Y-9.9205
G01 X5.6770 Y-9.9293
G01 X5.6809 Y-9.9356
G01 X5.6867 Y-9.9434
G01 X5.6933 Y-9.9507
G01 X5.7006 Y-9.9573
G01 X5.7084 Y-9.9631
G01 X5.7169 Y-9.9682
G01 X5.7257 Y-9.9724
G01 X5.7350 Y-9.9757
G01 X5.7445 Y-9.9781
G01 X5.7542 Y-9.9795
G01 X5.7640 Y-9.9800
G00 Z2.0000
G00 X4.6140 Y-16.2800
G01 F60.00
G01 Z-0.2000
G01 F300.00
G01 X6.1165 Y-16.2800
G01 X6.1287 Y-16.2789
G01 X6.1407 Y-16.2764
G01 X6.1523 Y-16.2724
G01 X6.1611 Y-16.2682
G01 X6.1696 Y-16.2631
G01 X6.1793 Y-16.2557
G01 X6.1881 Y-16.2472
G01 X6.1958 Y-16.2376
G01 X6.1998 Y-16.2314
G01 X6.2033 Y-16.2250
G01 X6.2064 Y-16.2183
G01 X6.2097 Y-16.2090
G01 X6.2116 Y-16.2019
G01 X6.2129 Y-16.1947
G01 X6.2137 Y-16.1874
G01 X6.2140 Y-16.1800
G01 X6.2140 Y-14.1800
G01 X6.2132 Y-14.1678
G01 X6.2110 Y-14.1557
G01 X6.2073 Y-14.1440
G01 X6.2022 Y-14.1329
G01 X6.1958 Y-14.1224
G01 X6.1897 Y-14.1147
G01 X6.1812 Y-14.1059
G01 X6.1716 Y-14.0982
G01 X6.1654 Y-14.0942
G01 X6.1568 Y-14.0896
G01 X6.1500 Y-14.0867
G01 X6.1430 Y-14.0843
G01 X6.1359 Y-14.0824
G01 X6.1287 Y-14.0811
G01 X6.1214 Y-14.0803
G01 X6.1140 Y-14.0800
G01 X4.6115 Y-14.0800
G01 X4.5993 Y-14.0811
G01 X4.5897 Y-14.0830
G01 X4.5780 Y-14.0867
G01 X4.5669 Y-14.0918
G01 X4.5564 Y-14.0982
G01 X4.5487 Y-14.1043
G01 X4.5399 Y-14.1128
G01 X4.5322 Y-14.1224
G01 X4.5282 Y-14.1286
G01 X4.5247 Y-14.1350
G01 X4.5207 Y-14.1440
G01 X4.5183 Y-14.1510
G01 X4.5164 Y-14.1581
G01 X4.5151 Y-14.1653
G01 X4.5143 Y-14.1726
G01 X4.5140 Y-14.1800
G01 X4.5141 Y-16.1849
G01 X4.5148 Y-16.1922
G01 X4.5164 Y-16.2019
G01 X4.5190 Y-16.2114
G01 X4.5226 Y-16.2205
G01 X4.5270 Y-16.2293
G01 X4.5322 Y-16.2376
G01 X4.5383 Y-16.2453
G01 X4.5450 Y-16.2524
G01 X4.5525 Y-16.2588
G01 X4.5605 Y-16.2645
G01 X4.5690 Y-16.2693
G01 X4.5780 Y-16.2733
G01 X4.5873 Y-16.2764
G01 X4.5969 Y-16.2785
G01 X4.6066 Y-16.2797
G01 X4.6140 Y-16.2800
G00 Z2.0000
G00 X4.7810 Y-17.3490
G01 F60.00
G01 Z-0.2000
G01 F300.00
G01 X4.7810 Y-18.6490
G01 X4.7823 Y-18.6784
G01 X4.7830 Y-18.6857
G01 X4.7869 Y-18.7124
G01 X4.7888 Y-18.7221
G01 X4.7961 Y-18.7506
G01 X4.8076 Y-18.7829
G01 X4.8201 Y-18.8096
G01 X4.8247 Y-18.8183
G01 X4.8400 Y-18.8434
G01 X4.8589 Y-18.8691
G01 X4.8835 Y-18.8965
G01 X4.9090 Y-18.9196
G01 X4.9366 Y-18.9400
G01 X4.9617 Y-18.9553
G01 X4.9704 Y-18.9599
G01 X4.9971 Y-18.9724
G01 X5.0247 Y-18.9824
G01 X5.0318 Y-18.9846
G01 X5.0579 Y-18.9912
G01 X5.0676 Y-18.9931
G01 X5.0943 Y-18.9970
G01 X5.1261 Y-18.9989
G01 X5.7810 Y-18.9990
G01 X5.8153 Y-18.9973
G01 X5.8493 Y-18.9923
G01 X5.8779 Y-18.9852
G01 X5.8873 Y-18.9824
G01 X5.9149 Y-18.9724
G01 X5.9416 Y-18.9599
G01 X5.9503 Y-18.9553
G01 X5.9754 Y-18.9400
G01 X6.0011 Y-18.9211
G01 X6.0285 Y-18.8965
G01 X6.0516 Y-18.8710
G01 X6.0720 Y-18.8434
G01 X6.0873 Y-18.8183
G01 X6.0919 Y-18.8096
G01 X6.1044 Y-18.7829
G01 X6.1144 Y-18.7553
G01 X6.1166 Y-18.7482
G01 X6.1232 Y-18.7221
G01 X6.1251 Y-18.7124
G01 X6.1293 Y-18.6833
G01 X6.1310 Y-18.6515
G01 X6.1310 Y-17.3490
G01 X6.1297 Y-17.3196
G01 X6.1290 Y-17.3123
G01 X6.1251 Y-17.2856
G01 X6.1232 Y-17.2759
G01 X6.1159 Y-17.2474
G01 X6.1044 Y-17.2151
G01 X6.0919 Y-17.1884
G01 X6.0873 Y-17.1797
G01 X6.0720 Y-17.1546
G01 X6.0531 Y-17.1289
G01 X6.0285 Y-17.1015
G01 X6.0030 Y-17.0784
G01 X5.9754 Y-17.0580
G01 X5.9460 Y-17.0403
G01 X5.9149 Y-17.0256
G01 X5.8826 Y-17.0141
G01 X5.8493 Y-17.0057
G01 X5.8177 Y-17.0010
G01 X5.7810 Y-16.9990
G01 X5.1310 Y-16.9990
G01 X5.0967 Y-17.0007
G01 X5.0651 Y-17.0053
G01 X5.0294 Y-17.0141
G01 X5.0016 Y-17.0239
G01 X4.9948 Y-17.0266
G01 X4.9704 Y-17.0381
G01 X4.9617 Y-17.0427
G01 X4.9366 Y-17.0580
G01 X4.9090 Y-17.0784
G01 X4.8835 Y-17.1015
G01 X4.8604 Y-17.1270
G01 X4.8400 Y-17.1546
G01 X4.8223 Y-17.1840
G01 X4.8076 Y-17.2151
G01 X4.7976 Y-17.2427
G01 X4.7948 Y-17.2521
G01 X4.7882 Y-17.2783
G01 X4.7869 Y-17.2856
G01 X4.7827 Y-17.3147
G01 X4.7810 Y-17.3490
G00 Z2.0000
G00 X6.9140 Y-16.2800
G01 F60.00
G01 Z-0.2000
G01 F300.00
G01 X8.4165 Y-16.2800
G01 X8.4262 Y-16.2792
G01 X8.4383 Y-16.2770
G01 X8.4500 Y-16.2733
G01 X8.4611 Y-16.2682
G01 X8.4696 Y-16.2631
G01 X8.4793 Y-16.2557
G01 X8.4881 Y-16.2472
G01 X8.4958 Y-16.2376
G01 X8.5010 Y-16.2293
G01 X8.5044 Y-16.2228
G01 X8.5073 Y-16.2160
G01 X8.5097 Y-16.2090
G01 X8.5116 Y-16.2019
G01 X8.5129 Y-16.1947
G01 X8.5137 Y-16.1874
G01 X8.5140 Y-16.1800
G01 X8.5140 Y-14.1800
G01 X8.5132 Y-14.1678
G01 X8.5110 Y-14.1557
G01 X8.5073 Y-14.1440
G01 X8.5022 Y-14.1329
G01 X8.4958 Y-14.1224
G01 X8.4897 Y-14.1147
G01 X8.4812 Y-14.1059
G01 X8.4716 Y-14.0982
G01 X8.4654 Y-14.0942
G01 X8.4590 Y-14.0907
G01 X8.4523 Y-14.0876
G01 X8.4454 Y-14.0850
G01 X8.4383 Y-14.0830
G01 X8.4311 Y-14.0815
G01 X8.4238 Y-14.0805
G01 X8.4140 Y-14.0800
G01 X6.9115 Y-14.0800
G01 X6.8993 Y-14.0811
G01 X6.8897 Y-14.0830
G01 X6.8780 Y-14.0867
G01 X6.8669 Y-14.0918
G01 X6.8564 Y-14.0982
G01 X6.8487 Y-14.1043
G01 X6.8399 Y-14.1128
G01 X6.8322 Y-14.1224
G01 X6.8282 Y-14.1286
G01 X6.8247 Y-14.1350
G01 X6.8207 Y-14.1440
G01 X6.8183 Y-14.1510
G01 X6.8164 Y-14.1581
G01 X6.8151 Y-14.1653
G01 X6.8143 Y-14.1726
G01 X6.8140 Y-14.1800
G01 X6.8141 Y-16.1849
G01 X6.8148 Y-16.1922
G01 X6.8164 Y-16.2019
G01 X6.8190 Y-16.2114
G01 X6.8226 Y-16.2205
G01 X6.8270 Y-16.2293
G01 X6.8322 Y-16.2376
G01 X6.8383 Y-16.2453
G01 X6.8450 Y-16.2524
G01 X6.8525 Y-16.2588
G01 X6.8605 Y-16.2645
G01 X6.8690 Y-16.2693
G01 X6.8780 Y-16.2733
G01 X6.8873 Y-16.2764
G01 X6.8969 Y-16.2785
G01 X6.9066 Y-16.2797
G01 X6.9140 Y-16.2800
G00 Z2.0000
G00 X9.2140 Y-16.2800
G01 F60.00
G01 Z-0.2000
G01 F300.00
G01 X10.7165 Y-16.2800
G01 X10.7262 Y-16.2792
G01 X10.7383 Y-16.2770
G01 X10.7500 Y-16.2733
G01 X10.7611 Y-16.2682
G01 X10.7696 Y-16.2631
G01 X10.7793 Y-16.2557
G01 X10.7881 Y-16.2472
G01 X10.7958 Y-16.2376
G01 X10.8010 Y-16.2293
G01 X10.8044 Y-16.2228
G01 X10.8073 Y-16.2160
G01 X10.8097 Y-16.2090
G01 X10.8116 Y-16.2019
G01 X10.8129 Y-16.1947
G01 X10.8137 Y-16.1874
G01 X10.8140 Y-16.1800
G01 X10.8140 Y-14.1800
G01 X10.8132 Y-14.1678
G01 X10.8110 Y-14.1557
G01 X10.8073 Y-14.1440
G01 X10.8022 Y-14.1329
G01 X10.7958 Y-14.1224
G01 X10.7897 Y-14.1147
G01 X10.7812 Y-14.1059
G01 X10.7716 Y-14.0982
G01 X10.7654 Y-14.0942
G01 X10.7590 Y-14.0907
G01 X10.7523 Y-14.0876
G01 X10.7454 Y-14.0850
G01 X10.7383 Y-14.0830
G01 X10.7311 Y-14.0815
G01 X10.7238 Y-14.0805
G01 X10.7140 Y-14.0800
G01 X9.2115 Y-14.0800
G01 X9.1993 Y-14.0811
G01 X9.1873 Y-14.0836
G01 X9.1780 Y-14.0867
G01 X9.1669 Y-14.0918
G01 X9.1564 Y-14.0982
G01 X9.1468 Y-14.1059
G01 X9.1399 Y-14.1128
G01 X9.1322 Y-14.1224
G01 X9.1282 Y-14.1286
G01 X9.1247 Y-14.1350
G01 X9.1216 Y-14.1417
G01 X9.1190 Y-14.1486
G01 X9.1164 Y-14.1581
G01 X9.1151 Y-14.1653
G01 X9.1143 Y-14.1726
G01 X9.1140 Y-14.1800
G01 X9.1141 Y-16.1849
G01 X9.1151 Y-16.1947
G01 X9.1170 Y-16.2043
G01 X9.1190 Y-16.2114
G01 X9.1226 Y-16.2205
G01 X9.1270 Y-16.2293
G01 X9.1322 Y-16.2376
G01 X9.1383 Y-16.2453
G01 X9.1450 Y-16.2524
G01 X9.1525 Y-16.2588
G01 X9.1605 Y-16.2645
G01 X9.1690 Y-16.2693
G01 X9.1780 Y-16.2733
G01 X9.1873 Y-16.2764
G01 X9.1945 Y-16.2781
G01 X9.2042 Y-16.2795
G01 X9.2140 Y-16.2800
G00 Z2.0000
G00 X8.5150 Y-18.6490
G01 F60.00
G01 Z-0.2000
G01 F300.00
G01 X8.5150 Y-17.3490
G01 X8.5137 Y-17.3196
G01 X8.5130 Y-17.3123
G01 X8.5091 Y-17.2856
G01 X8.5072 Y-17.2759
G01 X8.4999 Y-17.2474
G01 X8.4884 Y-17.2151
G01 X8.4759 Y-17.1884
G01 X8.4713 Y-17.1797
G01 X8.4560 Y-17.1546
G01 X8.4371 Y-17.1289
G01 X8.4125 Y-17.1015
G01 X8.3870 Y-17.0784
G01 X8.3594 Y-17.0580
G01 X8.3343 Y-17.0427
G01 X8.3256 Y-17.0381
G01 X8.2989 Y-17.0256
G01 X8.2713 Y-17.0156
G01 X8.2642 Y-17.0134
G01 X8.2381 Y-17.0068
G01 X8.2284 Y-17.0049
G01 X8.2017 Y-17.0010
G01 X8.1699 Y-16.9991
G01 X7.5150 Y-16.9990
G01 X7.4807 Y-17.0007
G01 X7.4467 Y-17.0057
G01 X7.4181 Y-17.0128
G01 X7.4087 Y-17.0156
G01 X7.3811 Y-17.0256
G01 X7.3544 Y-17.0381
G01 X7.3457 Y-17.0427
G01 X7.3206 Y-17.0580
G01 X7.2949 Y-17.0769
G01 X7.2675 Y-17.1015
G01 X7.2444 Y-17.1270
G01 X7.2240 Y-17.1546
G01 X7.2087 Y-17.1797
G01 X7.2041 Y-17.1884
G01 X7.1916 Y-17.2151
G01 X7.1816 Y-17.2427
G01 X7.1794 Y-17.2498
G01 X7.1728 Y-17.2759
G01 X7.1709 Y-17.2856
G01 X7.1667 Y-17.3147
G01 X7.1650 Y-17.3465
G01 X7.1650 Y-18.6490
G01 X7.1663 Y-18.6784
G01 X7.1670 Y-18.6857
G01 X7.1709 Y-18.7124
G01 X7.1728 Y-18.7221
G01 X7.1801 Y-18.7506
G01 X7.1916 Y-18.7829
G01 X7.2041 Y-18.8096
G01 X7.2087 Y-18.8183
G01 X7.2240 Y-18.8434
G01 X7.2429 Y-18.8691
G01 X7.2675 Y-18.8965
G01 X7.2930 Y-18.9196
G01 X7.3206 Y-18.9400
G01 X7.3500 Y-18.9577
G01 X7.3811 Y-18.9724
G01 X7.4134 Y-18.9839
G01 X7.4467 Y-18.9923
G01 X7.4783 Y-18.9970
G01 X7.5150 Y-18.9990
G01 X8.1650 Y-18.9990
G01 X8.1993 Y-18.9973
G01 X8.2309 Y-18.9927
G01 X8.2666 Y-18.9839
G01 X8.2944 Y-18.9741
G01 X8.3012 Y-18.9714
G01 X8.3256 Y-18.9599
G01 X8.3343 Y-18.9553
G01 X8.3594 Y-18.9400
G01 X8.3870 Y-18.9196
G01 X8.4125 Y-18.8965
G01 X8.4356 Y-18.8710
G01 X8.4560 Y-18.8434
G01 X8.4737 Y-18.8140
G01 X8.4884 Y-18.7829
G01 X8.4984 Y-18.7553
G01 X8.5012 Y-18.7459
G01 X8.5078 Y-18.7197
G01 X8.5091 Y-18.7124
G01 X8.5133 Y-18.6833
G01 X8.5150 Y-18.6490
G00 Z2.0000
G00 X11.4650 Y-18.6490
G01 F60.00
G01 Z-0.2000
G01 F300.00
G01 X11.4650 Y-17.3490
G01 X11.4637 Y-17.3196
G01 X11.4630 Y-17.3123
G01 X11.4591 Y-17.2856
G01 X11.4572 Y-17.2759
G01 X11.4499 Y-17.2474
G01 X11.4384 Y-17.2151
G01 X11.4259 Y-17.1884
G01 X11.4213 Y-17.1797
G01 X11.4060 Y-17.1546
G01 X11.3871 Y-17.1289
G01 X11.3625 Y-17.1015
G01 X11.3370 Y-17.0784
G01 X11.3094 Y-17.0580
G01 X11.2843 Y-17.0427
G01 X11.2756 Y-17.0381
G01 X11.2489 Y-17.0256
G01 X11.2213 Y-17.0156
G01 X11.2142 Y-17.0134
G01 X11.1881 Y-17.0068
G01 X11.1784 Y-17.0049
G01 X11.1517 Y-17.0010
G01 X11.1199 Y-16.9991
G01 X10.4650 Y-16.9990
G01 X10.4307 Y-17.0007
G01 X10.3967 Y-17.0057
G01 X10.3681 Y-17.0128
G01 X10.3587 Y-17.0156
G01 X10.3311 Y-17.0256
G01 X10.3044 Y-17.0381
G01 X10.2957 Y-17.0427
G01 X10.2706 Y-17.0580
G01 X10.2449 Y-17.0769
G01 X10.2175 Y-17.1015
G01 X10.1944 Y-17.1270
G01 X10.1740 Y-17.1546
G01 X10.1587 Y-17.1797
G01 X10.1541 Y-17.1884
G01 X10.1416 Y-17.2151
G01 X10.1316 Y-17.2427
G01 X10.1294 Y-17.2498
G01 X10.1228 Y-17.2759
G01 X10.1209 Y-17.2856
G01 X10.1167 Y-17.3147
G01 X10.1150 Y-17.3465
G01 X10.1150 Y-18.6490
G01 X10.1163 Y-18.6784
G01 X10.1170 Y-18.6857
G01 X10.1209 Y-18.7124
G01 X10.1228 Y-18.7221
G01 X10.1301 Y-18.7506
G01 X10.1416 Y-18.7829
G01 X10.1541 Y-18.8096
G01 X10.1587 Y-18.8183
G01 X10.1740 Y-18.8434
G01 X10.1929 Y-18.8691
G01 X10.2175 Y-18.8965
G01 X10.2430 Y-18.9196
G01 X10.2706 Y-18.9400
G01 X10.3000 Y-18.9577
G01 X10.3311 Y-18.9724
G01 X10.3634 Y-18.9839
G01 X10.3967 Y-18.9923
G01 X10.4283 Y-18.9970
G01 X10.4650 Y-18.9990
G01 X11.1150 Y-18.9990
G01 X11.1493 Y-18.9973
G01 X11.1809 Y-18.9927
G01 X11.2166 Y-18.9839
G01 X11.2444 Y-18.9741
G01 X11.2512 Y-18.9714
G01 X11.2756 Y-18.9599
G01 X11.2843 Y-18.9553
G01 X11.3094 Y-18.9400
G01 X11.3370 Y-18.9196
G01 X11.3625 Y-18.8965
G01 X11.3856 Y-18.8710
G01 X11.4060 Y-18.8434
G01 X11.4237 Y-18.8140
G01 X11.4384 Y-18.7829
G01 X11.4484 Y-18.7553
G01 X11.4512 Y-18.7459
G01 X11.4578 Y-18.7197
G01 X11.4591 Y-18.7124
G01 X11.4633 Y-18.6833
G01 X11.4650 Y-18.6490
G00 Z2.0000
G00 X1.8310 Y-17.3490
G01 F60.00
G01 Z-0.2000
G01 F300.00
G01 X1.8310 Y-18.6490
G01 X1.8323 Y-18.6784
G01 X1.8330 Y-18.6857
G01 X1.8369 Y-18.7124
G01 X1.8388 Y-18.7221
G01 X1.8461 Y-18.7506
G01 X1.8576 Y-18.7829
G01 X1.8701 Y-18.8096
G01 X1.8747 Y-18.8183
G01 X1.8900 Y-18.8434
G01 X1.9089 Y-18.8691
G01 X1.9335 Y-18.8965
G01 X1.9590 Y-18.9196
G01 X1.9866 Y-18.9400
G01 X2.0117 Y-18.9553
G01 X2.0204 Y-18.9599
G01 X2.0471 Y-18.9724
G01 X2.0747 Y-18.9824
G01 X2.0818 Y-18.9846
G01 X2.1079 Y-18.9912
G01 X2.1176 Y-18.9931
G01 X2.1443 Y-18.9970
G01 X2.1761 Y-18.9989
G01 X2.8310 Y-18.9990
G01 X2.8653 Y-18.9973
G01 X2.8993 Y-18.9923
G01 X2.9279 Y-18.9852
G01 X2.9373 Y-18.9824
G01 X2.9649 Y-18.9724
G01 X2.9916 Y-18.9599
G01 X3.0003 Y-18.9553
G01 X3.0254 Y-18.9400
G01 X3.0511 Y-18.9211
G01 X3.0785 Y-18.8965
G01 X3.1016 Y-18.8710
G01 X3.1220 Y-18.8434
G01 X3.1373 Y-18.8183
G01 X3.1419 Y-18.8096
G01 X3.1544 Y-18.7829
G01 X3.1644 Y-18.7553
G01 X3.1666 Y-18.7482
G01 X3.1732 Y-18.7221
G01 X3.1751 Y-18.7124
G01 X3.1793 Y-18.6833
G01 X3.1810 Y-18.6515
G01 X3.1810 Y-17.3490
G01 X3.1797 Y-17.3196
G01 X3.1790 Y-17.3123
G01 X3.1751 Y-17.2856
G01 X3.1732 Y-17.2759
G01 X3.1659 Y-17.2474
G01 X3.1544 Y-17.2151
G01 X3.1419 Y-17.1884
G01 X3.1373 Y-17.1797
G01 X3.1220 Y-17.1546
G01 X3.1031 Y-17.1289
G01 X3.0785 Y-17.1015
G01 X3.0530 Y-17.0784
G01 X3.0254 Y-17.0580
G01 X2.9960 Y-17.0403
G01 X2.9649 Y-17.0256
G01 X2.9326 Y-17.0141
G01 X2.8993 Y-17.0057
G01 X2.8677 Y-17.0010
G01 X2.8310 Y-16.9990
G01 X2.1810 Y-16.9990
G01 X2.1467 Y-17.0007
G01 X2.1151 Y-17.0053
G01 X2.0794 Y-17.0141
G01 X2.0516 Y-17.0239
G01 X2.0448 Y-17.0266
G01 X2.0204 Y-17.0381
G01 X2.0117 Y-17.0427
G01 X1.9866 Y-17.0580
G01 X1.9590 Y-17.0784
G01 X1.9335 Y-17.1015
G01 X1.9104 Y-17.1270
G01 X1.8900 Y-17.1546
G01 X1.8723 Y-17.1840
G01 X1.8576 Y-17.2151
G01 X1.8476 Y-17.2427
G01 X1.8448 Y-17.2521
G01 X1.8382 Y-17.2783
G01 X1.8369 Y-17.2856
G01 X1.8327 Y-17.3147
G01 X1.8310 Y-17.3490
G00 Z2.0000
G00 X51.9360 Y-39.1230
G01 F60.00
G01 Z-0.2000
G01 F300.00
G01 X51.9360 Y-38.0230
G01 X51.9343 Y-37.9887
G01 X51.9301 Y-37.9596
G01 X51.9282 Y-37.9499
G01 X51.9209 Y-37.9214
G01 X51.9111 Y-37.8936
G01 X51.9074 Y-37.8846
G01 X51.8947 Y-37.8580
G01 X51.8796 Y-37.8327
G01 X51.8742 Y-37.8245
G01 X51.8566 Y-37.8010
G01 X51.8369 Y-37.7791
G01 X51.8299 Y-37.7721
G01 X51.8080 Y-37.7524
G01 X51.7845 Y-37.7348
G01 X51.7763 Y-37.7294
G01 X51.7510 Y-37.7143
G01 X51.7177 Y-37.6987
G01 X51.6876 Y-37.6881
G01 X51.6543 Y-37.6797
G01 X51.6203 Y-37.6747
G01 X51.5860 Y-37.6730
G01 X49.0860 Y-37.6730
G01 X49.0541 Y-37.6745
G01 X49.0226 Y-37.6789
G01 X49.0129 Y-37.6808
G01 X48.9844 Y-37.6881
G01 X48.9566 Y-37.6979
G01 X48.9476 Y-37.7016
G01 X48.9210 Y-37.7143
G01 X48.8957 Y-37.7294
G01 X48.8875 Y-37.7348
G01 X48.8640 Y-37.7524
G01 X48.8421 Y-37.7721
G01 X48.8351 Y-37.7791
G01 X48.8154 Y-37.8010
G01 X48.7950 Y-37.8286
G01 X48.7797 Y-37.8537
G01 X48.7751 Y-37.8624
G01 X48.7617 Y-37.8913
G01 X48.7511 Y-37.9214
G01 X48.7427 Y-37.9547
G01 X48.7377 Y-37.9887
G01 X48.7360 Y-38.0205
G01 X48.7360 Y-39.1230
G01 X48.7380 Y-39.1597
G01 X48.7427 Y-39.1913
G01 X48.7498 Y-39.2199
G01 X48.7526 Y-39.2293
G01 X48.7626 Y-39.2569
G01 X48.7751 Y-39.2836
G01 X48.7797 Y-39.2923
G01 X48.7950 Y-39.3174
G01 X48.8124 Y-39.3412
G01 X48.8187 Y-39.3488
G01 X48.8385 Y-39.3705
G01 X48.8602 Y-39.3903
G01 X48.8678 Y-39.3966
G01 X48.8916 Y-39.4140
G01 X48.9167 Y-39.4293
G01 X48.9254 Y-39.4339
G01 X48.9543 Y-39.4473
G01 X48.9844 Y-39.4579
G01 X49.0177 Y-39.4663
G01 X49.0517 Y-39.4713
G01 X49.0860 Y-39.4730
G01 X51.5860 Y-39.4730
G01 X51.6203 Y-39.4713
G01 X51.6543 Y-39.4663
G01 X51.6876 Y-39.4579
G01 X51.7199 Y-39.4464
G01 X51.7510 Y-39.4317
G01 X51.7804 Y-39.4140
G01 X51.8080 Y-39.3936
G01 X51.8335 Y-39.3705
G01 X51.8533 Y-39.3488
G01 X51.8596 Y-39.3412
G01 X51.8756 Y-39.3195
G01 X51.8923 Y-39.2923
G01 X51.8958 Y-39.2858
G01 X51.9074 Y-39.2614
G01 X51.9111 Y-39.2524
G01 X51.9209 Y-39.2246
G01 X51.9293 Y-39.1913
G01 X51.9343 Y-39.1573
G01 X51.9360 Y-39.1230
G00 Z2.0000
G00 X56.3360 Y-39.1230
G01 F60.00
G01 Z-0.2000
G01 F300.00
G01 X56.3360 Y-38.0230
G01 X56.3343 Y-37.9887
G01 X56.3301 Y-37.9596
G01 X56.3282 Y-37.9499
G01 X56.3209 Y-37.9214
G01 X56.3111 Y-37.8936
G01 X56.3074 Y-37.8846
G01 X56.2947 Y-37.8580
G01 X56.2796 Y-37.8327
G01 X56.2742 Y-37.8245
G01 X56.2566 Y-37.8010
G01 X56.2369 Y-37.7791
G01 X56.2299 Y-37.7721
G01 X56.2080 Y-37.7524
G01 X56.1845 Y-37.7348
G01 X56.1763 Y-37.7294
G01 X56.1510 Y-37.7143
G01 X56.1177 Y-37.6987
G01 X56.0876 Y-37.6881
G01 X56.0543 Y-37.6797
G01 X56.0203 Y-37.6747
G01 X55.9860 Y-37.6730
G01 X53.4860 Y-37.6730
G01 X53.4541 Y-37.6745
G01 X53.4226 Y-37.6789
G01 X53.4129 Y-37.6808
G01 X53.3844 Y-37.6881
G01 X53.3566 Y-37.6979
G01 X53.3476 Y-37.7016
G01 X53.3210 Y-37.7143
G01 X53.2957 Y-37.7294
G01 X53.2875 Y-37.7348
G01 X53.2640 Y-37.7524
G01 X53.2421 Y-37.7721
G01 X53.2351 Y-37.7791
G01 X53.2154 Y-37.8010
G01 X53.1950 Y-37.8286
G01 X53.1797 Y-37.8537
G01 X53.1751 Y-37.8624
G01 X53.1617 Y-37.8913
G01 X53.1511 Y-37.9214
G01 X53.1427 Y-37.9547
G01 X53.1377 Y-37.9887
G01 X53.1360 Y-38.0205
G01 X53.1360 Y-39.1230
G01 X53.1380 Y-39.1597
G01 X53.1427 Y-39.1913
G01 X53.1498 Y-39.2199
G01 X53.1526 Y-39.2293
G01 X53.1626 Y-39.2569
G01 X53.1751 Y-39.2836
G01 X53.1797 Y-39.2923
G01 X53.1950 Y-39.3174
G01 X53.2124 Y-39.3412
G01 X53.2187 Y-39.3488
G01 X53.2385 Y-39.3705
G01 X53.2602 Y-39.3903
G01 X53.2678 Y-39.3966
G01 X53.2916 Y-39.4140
G01 X53.3167 Y-39.4293
G01 X53.3254 Y-39.4339
G01 X53.3543 Y-39.4473
G01 X53.3844 Y-39.4579
G01 X53.4177 Y-39.4663
G01 X53.4517 Y-39.4713
G01 X53.4860 Y-39.4730
G01 X55.9860 Y-39.4730
G01 X56.0203 Y-39.4713
G01 X56.0543 Y-39.4663
G01 X56.0876 Y-39.4579
G01 X56.1199 Y-39.4464
G01 X56.1510 Y-39.4317
G01 X56.1804 Y-39.4140
G01 X56.2080 Y-39.3936
G01 X56.2335 Y-39.3705
G01 X56.2533 Y-39.3488
G01 X56.2596 Y-39.3412
G01 X56.2756 Y-39.3195
G01 X56.2923 Y-39.2923
G01 X56.2958 Y-39.2858
G01 X56.3074 Y-39.2614
G01 X56.3111 Y-39.2524
G01 X56.3209 Y-39.2246
G01 X56.3293 Y-39.1913
G01 X56.3343 Y-39.1573
G01 X56.3360 Y-39.1230
G00 Z2.0000
G00 X57.4020 Y-37.9330
G01 F60.00
G01 Z-0.2000
G01 F300.00
G01 X57.4020 Y-39.2330
G01 X57.4033 Y-39.2624
G01 X57.4043 Y-39.2722
G01 X57.4083 Y-39.2989
G01 X57.4098 Y-39.3061
G01 X57.4171 Y-39.3346
G01 X57.4286 Y-39.3669
G01 X57.4411 Y-39.3936
G01 X57.4457 Y-39.4023
G01 X57.4610 Y-39.4274
G01 X57.4799 Y-39.4531
G01 X57.5045 Y-39.4805
G01 X57.5300 Y-39.5036
G01 X57.5576 Y-39.5240
G01 X57.5827 Y-39.5393
G01 X57.5914 Y-39.5439
G01 X57.6158 Y-39.5554
G01 X57.6226 Y-39.5581
G01 X57.6504 Y-39.5679
G01 X57.6789 Y-39.5752
G01 X57.6886 Y-39.5771
G01 X57.7153 Y-39.5810
G01 X57.7471 Y-39.5829
G01 X58.4020 Y-39.5830
G01 X58.4363 Y-39.5813
G01 X58.4654 Y-39.5771
G01 X58.4751 Y-39.5752
G01 X58.5036 Y-39.5679
G01 X58.5359 Y-39.5564
G01 X58.5626 Y-39.5439
G01 X58.5713 Y-39.5393
G01 X58.5964 Y-39.5240
G01 X58.6221 Y-39.5051
G01 X58.6495 Y-39.4805
G01 X58.6726 Y-39.4550
G01 X58.6930 Y-39.4274
G01 X58.7083 Y-39.4023
G01 X58.7129 Y-39.3936
G01 X58.7244 Y-39.3692
G01 X58.7271 Y-39.3624
G01 X58.7369 Y-39.3346
G01 X58.7442 Y-39.3061
G01 X58.7461 Y-39.2964
G01 X58.7503 Y-39.2673
G01 X58.7520 Y-39.2355
G01 X58.7520 Y-37.9330
G01 X58.7507 Y-37.9036
G01 X58.7497 Y-37.8938
G01 X58.7457 Y-37.8671
G01 X58.7442 Y-37.8599
G01 X58.7369 Y-37.8314
G01 X58.7254 Y-37.7991
G01 X58.7129 Y-37.7724
G01 X58.7083 Y-37.7637
G01 X58.6930 Y-37.7386
G01 X58.6741 Y-37.7129
G01 X58.6495 Y-37.6855
G01 X58.6240 Y-37.6624
G01 X58.5964 Y-37.6420
G01 X58.5670 Y-37.6243
G01 X58.5359 Y-37.6096
G01 X58.5036 Y-37.5981
G01 X58.4703 Y-37.5897
G01 X58.4387 Y-37.5850
G01 X58.4020 Y-37.5830
G01 X57.7520 Y-37.5830
G01 X57.7177 Y-37.5847
G01 X57.6861 Y-37.5893
G01 X57.6504 Y-37.5981
G01 X57.6226 Y-37.6079
G01 X57.6136 Y-37.6116
G01 X57.5892 Y-37.6232
G01 X57.5827 Y-37.6267
G01 X57.5576 Y-37.6420
G01 X57.5300 Y-37.6624
G01 X57.5045 Y-37.6855
G01 X57.4814 Y-37.7110
G01 X57.4610 Y-37.7386
G01 X57.4433 Y-37.7680
G01 X57.4286 Y-37.7991
G01 X57.4186 Y-37.8267
G01 X57.4164 Y-37.8338
G01 X57.4098 Y-37.8599
G01 X57.4079 Y-37.8696
G01 X57.4037 Y-37.8987
G01 X57.4020 Y-37.9330
G00 Z2.0000
G00 X60.3520 Y-37.9330
G01 F60.00
G01 Z-0.2000
G01 F300.00
G01 X60.3520 Y-39.2330
G01 X60.3533 Y-39.2624
G01 X60.3543 Y-39.2722
G01 X60.3583 Y-39.2989
G01 X60.3598 Y-39.3061
G01 X60.3671 Y-39.3346
G01 X60.3786 Y-39.3669
G01 X60.3911 Y-39.3936
G01 X60.3957 Y-39.4023
G01 X60.4110 Y-39.4274
G01 X60.4299 Y-39.4531
G01 X60.4545 Y-39.4805
G01 X60.4800 Y-39.5036
G01 X60.5076 Y-39.5240
G01 X60.5327 Y-39.5393
G01 X60.5414 Y-39.5439
G01 X60.5658 Y-39.5554
G01 X60.5726 Y-39.5581
G01 X60.6004 Y-39.5679
G01 X60.6289 Y-39.5752
G01 X60.6386 Y-39.5771
G01 X60.6653 Y-39.5810
G01 X60.6971 Y-39.5829
G01 X61.3520 Y-39.5830
G01 X61.3863 Y-39.5813
G01 X61.4154 Y-39.5771
G01 X61.4251 Y-39.5752
G01 X61.4536 Y-39.5679
G01 X61.4859 Y-39.5564
G01 X61.5126 Y-39.5439
G01 X61.5213 Y-39.5393
G01 X61.5464 Y-39.5240
G01 X61.5721 Y-39.5051
G01 X61.5995 Y-39.4805
G01 X61.6226 Y-39.4550
G01 X61.6430 Y-39.4274
G01 X61.6583 Y-39.4023
G01 X61.6629 Y-39.3936
G01 X61.6744 Y-39.3692
G01 X61.6771 Y-39.3624
G01 X61.6869 Y-39.3346
G01 X61.6942 Y-39.3061
G01 X61.6961 Y-39.2964
G01 X61.7003 Y-39.2673
G01 X61.7020 Y-39.2355
G01 X61.7020 Y-37.9330
G01 X61.7007 Y-37.9036
G01 X61.6997 Y-37.8938
G01 X61.6957 Y-37.8671
G01 X61.6942 Y-37.8599
G01 X61.6869 Y-37.8314
G01 X61.6754 Y-37.7991
G01 X61.6629 Y-37.7724
G01 X61.6583 Y-37.7637
G01 X61.6430 Y-37.7386
G01 X61.6241 Y-37.7129
G01 X61.5995 Y-37.6855
G01 X61.5740 Y-37.6624
G01 X61.5464 Y-37.6420
G01 X61.5170 Y-37.6243
G01 X61.4859 Y-37.6096
G01 X61.4536 Y-37.5981
G01 X61.4203 Y-37.5897
G01 X61.3887 Y-37.5850
G01 X61.3520 Y-37.5830
G01 X60.7020 Y-37.5830
G01 X60.6677 Y-37.5847
G01 X60.6361 Y-37.5893
G01 X60.6004 Y-37.5981
G01 X60.5726 Y-37.6079
G01 X60.5636 Y-37.6116
G01 X60.5392 Y-37.6232
G01 X60.5327 Y-37.6267
G01 X60.5076 Y-37.6420
G01 X60.4800 Y-37.6624
G01 X60.4545 Y-37.6855
G01 X60.4314 Y-37.7110
G01 X60.4110 Y-37.7386
G01 X60.3933 Y-37.7680
G01 X60.3786 Y-37.7991
G01 X60.3686 Y-37.8267
G01 X60.3664 Y-37.8338
G01 X60.3598 Y-37.8599
G01 X60.3579 Y-37.8696
G01 X60.3537 Y-37.8987
G01 X60.3520 Y-37.9330
G00 Z2.0000
G00 X63.7890 Y-39.2080
G01 F60.00
G01 Z-0.2000
G01 F300.00
G01 X63.7890 Y-37.9580
G01 X63.7877 Y-37.9286
G01 X63.7867 Y-37.9188
G01 X63.7827 Y-37.8921
G01 X63.7812 Y-37.8849
G01 X63.7739 Y-37.8564
G01 X63.7624 Y-37.8241
G01 X63.7499 Y-37.7974
G01 X63.7453 Y-37.7887
G01 X63.7300 Y-37.7636
G01 X63.7111 Y-37.7379
G01 X63.6865 Y-37.7105
G01 X63.6610 Y-37.6874
G01 X63.6334 Y-37.6670
G01 X63.6083 Y-37.6517
G01 X63.5996 Y-37.6471
G01 X63.5752 Y-37.6356
G01 X63.5684 Y-37.6329
G01 X63.5406 Y-37.6231
G01 X63.5121 Y-37.6158
G01 X63.5024 Y-37.6139
G01 X63.4757 Y-37.6100
G01 X63.4439 Y-37.6081
G01 X62.8140 Y-37.6080
G01 X62.7797 Y-37.6097
G01 X62.7457 Y-37.6147
G01 X62.7171 Y-37.6218
G01 X62.7077 Y-37.6246
G01 X62.6801 Y-37.6346
G01 X62.6534 Y-37.6471
G01 X62.6447 Y-37.6517
G01 X62.6196 Y-37.6670
G01 X62.5939 Y-37.6859
G01 X62.5665 Y-37.7105
G01 X62.5434 Y-37.7360
G01 X62.5230 Y-37.7636
G01 X62.5077 Y-37.7887
G01 X62.5031 Y-37.7974
G01 X62.4916 Y-37.8218
G01 X62.4889 Y-37.8286
G01 X62.4791 Y-37.8564
G01 X62.4718 Y-37.8849
G01 X62.4699 Y-37.8946
G01 X62.4657 Y-37.9237
G01 X62.4640 Y-37.9555
G01 X62.4640 Y-39.2080
G01 X62.4653 Y-39.2374
G01 X62.4663 Y-39.2472
G01 X62.4703 Y-39.2739
G01 X62.4718 Y-39.2811
G01 X62.4791 Y-39.3096
G01 X62.4906 Y-39.3419
G01 X62.5031 Y-39.3686
G01 X62.5077 Y-39.3773
G01 X62.5230 Y-39.4024
G01 X62.5419 Y-39.4281
G01 X62.5665 Y-39.4555
G01 X62.5920 Y-39.4786
G01 X62.6196 Y-39.4990
G01 X62.6490 Y-39.5167
G01 X62.6801 Y-39.5314
G01 X62.7124 Y-39.5429
G01 X62.7457 Y-39.5513
G01 X62.7773 Y-39.5560
G01 X62.8140 Y-39.5580
G01 X63.4390 Y-39.5580
G01 X63.4733 Y-39.5563
G01 X63.5049 Y-39.5517
G01 X63.5406 Y-39.5429
G01 X63.5684 Y-39.5331
G01 X63.5774 Y-39.5294
G01 X63.6018 Y-39.5178
G01 X63.6083 Y-39.5143
G01 X63.6334 Y-39.4990
G01 X63.6610 Y-39.4786
G01 X63.6865 Y-39.4555
G01 X63.7096 Y-39.4300
G01 X63.7300 Y-39.4024
G01 X63.7477 Y-39.3730
G01 X63.7624 Y-39.3419
G01 X63.7724 Y-39.3143
G01 X63.7746 Y-39.3072
G01 X63.7812 Y-39.2811
G01 X63.7831 Y-39.2714
G01 X63.7873 Y-39.2423
G01 X63.7890 Y-39.2080
G00 Z2.0000
G00 X66.7140 Y-39.2080
G01 F60.00
G01 Z-0.2000
G01 F300.00
G01 X66.7140 Y-37.9580
G01 X66.7127 Y-37.9286
G01 X66.7117 Y-37.9188
G01 X66.7077 Y-37.8921
G01 X66.7062 Y-37.8849
G01 X66.6989 Y-37.8564
G01 X66.6874 Y-37.8241
G01 X66.6749 Y-37.7974
G01 X66.6703 Y-37.7887
G01 X66.6550 Y-37.7636
G01 X66.6361 Y-37.7379
G01 X66.6115 Y-37.7105
G01 X66.5860 Y-37.6874
G01 X66.5584 Y-37.6670
G01 X66.5333 Y-37.6517
G01 X66.5246 Y-37.6471
G01 X66.5002 Y-37.6356
G01 X66.4934 Y-37.6329
G01 X66.4656 Y-37.6231
G01 X66.4371 Y-37.6158
G01 X66.4274 Y-37.6139
G01 X66.4007 Y-37.6100
G01 X66.3689 Y-37.6081
G01 X65.7390 Y-37.6080
G01 X65.7047 Y-37.6097
G01 X65.6707 Y-37.6147
G01 X65.6421 Y-37.6218
G01 X65.6327 Y-37.6246
G01 X65.6051 Y-37.6346
G01 X65.5784 Y-37.6471
G01 X65.5697 Y-37.6517
G01 X65.5446 Y-37.6670
G01 X65.5189 Y-37.6859
G01 X65.4915 Y-37.7105
G01 X65.4684 Y-37.7360
G01 X65.4480 Y-37.7636
G01 X65.4327 Y-37.7887
G01 X65.4281 Y-37.7974
G01 X65.4166 Y-37.8218
G01 X65.4139 Y-37.8286
G01 X65.4041 Y-37.8564
G01 X65.3968 Y-37.8849
G01 X65.3949 Y-37.8946
G01 X65.3907 Y-37.9237
G01 X65.3890 Y-37.9555
G01 X65.3890 Y-39.2080
G01 X65.3903 Y-39.2374
G01 X65.3913 Y-39.2472
G01 X65.3953 Y-39.2739
G01 X65.3968 Y-39.2811
G01 X65.4041 Y-39.3096
G01 X65.4156 Y-39.3419
G01 X65.4281 Y-39.3686
G01 X65.4327 Y-39.3773
G01 X65.4480 Y-39.4024
G01 X65.4669 Y-39.4281
G01 X65.4915 Y-39.4555
G01 X65.5170 Y-39.4786
G01 X65.5446 Y-39.4990
G01 X65.5740 Y-39.5167
G01 X65.6051 Y-39.5314
G01 X65.6374 Y-39.5429
G01 X65.6707 Y-39.5513
G01 X65.7023 Y-39.5560
G01 X65.7390 Y-39.5580
G01 X66.3640 Y-39.5580
G01 X66.3983 Y-39.5563
G01 X66.4299 Y-39.5517
G01 X66.4656 Y-39.5429
G01 X66.4934 Y-39.5331
G01 X66.5024 Y-39.5294
G01 X66.5268 Y-39.5178
G01 X66.5333 Y-39.5143
G01 X66.5584 Y-39.4990
G01 X66.5860 Y-39.4786
G01 X66.6115 Y-39.4555
G01 X66.6346 Y-39.4300
G01 X66.6550 Y-39.4024
G01 X66.6727 Y-39.3730
G01 X66.6874 Y-39.3419
G01 X66.6974 Y-39.3143
G01 X66.6996 Y-39.3072
G01 X66.7062 Y-39.2811
G01 X66.7081 Y-39.2714
G01 X66.7123 Y-39.2423
G01 X66.7140 Y-39.2080
G00 Z2.0000
G00 X66.4330 Y-33.6720
G01 F60.00
G01 Z-0.2000
G01 F300.00
G01 X66.4330 Y-32.5720
G01 X66.4313 Y-32.5377
G01 X66.4267 Y-32.5061
G01 X66.4192 Y-32.4751
G01 X66.4164 Y-32.4657
G01 X66.4064 Y-32.4381
G01 X66.3939 Y-32.4114
G01 X66.3893 Y-32.4027
G01 X66.3740 Y-32.3776
G01 X66.3566 Y-32.3538
G01 X66.3503 Y-32.3462
G01 X66.3305 Y-32.3245
G01 X66.3088 Y-32.3047
G01 X66.3012 Y-32.2984
G01 X66.2774 Y-32.2810
G01 X66.2523 Y-32.2657
G01 X66.2436 Y-32.2611
G01 X66.2169 Y-32.2486
G01 X66.1869 Y-32.2378
G01 X66.1561 Y-32.2298
G01 X66.1464 Y-32.2279
G01 X66.1173 Y-32.2237
G01 X66.0830 Y-32.2220
G01 X63.0830 Y-32.2220
G01 X63.0511 Y-32.2235
G01 X63.0196 Y-32.2279
G01 X63.0099 Y-32.2298
G01 X62.9814 Y-32.2371
G01 X62.9491 Y-32.2486
G01 X62.9224 Y-32.2611
G01 X62.9137 Y-32.2657
G01 X62.8886 Y-32.2810
G01 X62.8610 Y-32.3014
G01 X62.8355 Y-32.3245
G01 X62.8157 Y-32.3462
G01 X62.8094 Y-32.3538
G01 X62.7920 Y-32.3776
G01 X62.7767 Y-32.4027
G01 X62.7721 Y-32.4114
G01 X62.7596 Y-32.4381
G01 X62.7488 Y-32.4681
G01 X62.7408 Y-32.4989
G01 X62.7389 Y-32.5086
G01 X62.7347 Y-32.5377
G01 X62.7330 Y-32.5720
G01 X62.7330 Y-33.6720
G01 X62.7347 Y-33.7063
G01 X62.7389 Y-33.7354
G01 X62.7408 Y-33.7451
G01 X62.7481 Y-33.7736
G01 X62.7579 Y-33.8014
G01 X62.7616 Y-33.8104
G01 X62.7743 Y-33.8370
G01 X62.7906 Y-33.8644
G01 X62.8094 Y-33.8902
G01 X62.8157 Y-33.8978
G01 X62.8355 Y-33.9195
G01 X62.8572 Y-33.9393
G01 X62.8648 Y-33.9456
G01 X62.8886 Y-33.9630
G01 X62.9137 Y-33.9783
G01 X62.9224 Y-33.9829
G01 X62.9491 Y-33.9954
G01 X62.9791 Y-34.0062
G01 X63.0099 Y-34.0142
G01 X63.0196 Y-34.0161
G01 X63.0487 Y-34.0203
G01 X63.0830 Y-34.0220
G01 X66.0830 Y-34.0220
G01 X66.1173 Y-34.0203
G01 X66.1513 Y-34.0153
G01 X66.1846 Y-34.0069
G01 X66.2169 Y-33.9954
G01 X66.2480 Y-33.9807
G01 X66.2774 Y-33.9630
G01 X66.3050 Y-33.9426
G01 X66.3305 Y-33.9195
G01 X66.3503 Y-33.8978
G01 X66.3566 Y-33.8902
G01 X66.3726 Y-33.8685
G01 X66.3893 Y-33.8413
G01 X66.3928 Y-33.8348
G01 X66.4044 Y-33.8104
G01 X66.4081 Y-33.8014
G01 X66.4179 Y-33.7736
G01 X66.4263 Y-33.7403
G01 X66.4313 Y-33.7063
G01 X66.4330 Y-33.6720
G00 Z2.0000
G00 X67.7160 Y-33.6460
G01 F60.00
G01 Z-0.2000
G01 F300.00
G01 X67.7160 Y-35.6460
G01 X67.7177 Y-35.6803
G01 X67.7219 Y-35.7094
G01 X67.7238 Y-35.7191
G01 X67.7311 Y-35.7476
G01 X67.7409 Y-35.7754
G01 X67.7446 Y-35.7844
G01 X67.7573 Y-35.8110
G01 X67.7724 Y-35.8363
G01 X67.7778 Y-35.8445
G01 X67.7954 Y-35.8680
G01 X67.8151 Y-35.8899
G01 X67.8221 Y-35.8969
G01 X67.8440 Y-35.9166
G01 X67.8675 Y-35.9342
G01 X67.8757 Y-35.9396
G01 X67.9010 Y-35.9547
G01 X67.9276 Y-35.9674
G01 X67.9366 Y-35.9711
G01 X67.9644 Y-35.9809
G01 X67.9977 Y-35.9893
G01 X68.0317 Y-35.9943
G01 X68.0660 Y-35.9960
G01 X71.9709 Y-35.9959
G01 X72.0003 Y-35.9943
G01 X72.0294 Y-35.9901
G01 X72.0391 Y-35.9882
G01 X72.0676 Y-35.9809
G01 X72.0954 Y-35.9711
G01 X72.1044 Y-35.9674
G01 X72.1310 Y-35.9547
G01 X72.1604 Y-35.9370
G01 X72.1880 Y-35.9166
G01 X72.2099 Y-35.8969
G01 X72.2169 Y-35.8899
G01 X72.2366 Y-35.8680
G01 X72.2542 Y-35.8445
G01 X72.2596 Y-35.8363
G01 X72.2747 Y-35.8110
G01 X72.2874 Y-35.7844
G01 X72.2911 Y-35.7754
G01 X72.3009 Y-35.7476
G01 X72.3093 Y-35.7143
G01 X72.3143 Y-35.6803
G01 X72.3160 Y-35.6485
G01 X72.3160 Y-33.6460
G01 X72.3145 Y-33.6141
G01 X72.3101 Y-33.5826
G01 X72.3082 Y-33.5729
G01 X72.3009 Y-33.5444
G01 X72.2911 Y-33.5166
G01 X72.2874 Y-33.5076
G01 X72.2747 Y-33.4810
G01 X72.2596 Y-33.4557
G01 X72.2542 Y-33.4475
G01 X72.2366 Y-33.4240
G01 X72.2169 Y-33.4021
G01 X72.2099 Y-33.3951
G01 X72.1880 Y-33.3754
G01 X72.1645 Y-33.3578
G01 X72.1563 Y-33.3524
G01 X72.1310 Y-33.3373
G01 X72.1044 Y-33.3246
G01 X72.0954 Y-33.3209
G01 X72.0676 Y-33.3111
G01 X72.0343 Y-33.3027
G01 X72.0003 Y-33.2977
G01 X71.9660 Y-33.2960
G01 X68.0660 Y-33.2960
G01 X68.0341 Y-33.2975
G01 X67.9977 Y-33.3027
G01 X67.9644 Y-33.3111
G01 X67.9321 Y-33.3226
G01 X67.9054 Y-33.3351
G01 X67.8989 Y-33.3385
G01 X67.8757 Y-33.3524
G01 X67.8675 Y-33.3578
G01 X67.8421 Y-33.3770
G01 X67.8221 Y-33.3951
G01 X67.8151 Y-33.4021
G01 X67.7954 Y-33.4240
G01 X67.7750 Y-33.4516
G01 X67.7573 Y-33.4810
G01 X67.7426 Y-33.5121
G01 X67.7311 Y-33.5444
G01 X67.7227 Y-33.5777
G01 X67.7177 Y-33.6117
G01 X67.7160 Y-33.6460
G00 Z2.0000
G00 X61.0330 Y-33.6720
G01 F60.00
G01 Z-0.2000
G01 F300.00
G01 X61.0330 Y-32.5720
G01 X61.0313 Y-32.5377
G01 X61.0267 Y-32.5061
G01 X61.0192 Y-32.4751
G01 X61.0164 Y-32.4657
G01 X61.0064 Y-32.4381
G01 X60.9939 Y-32.4114
G01 X60.9893 Y-32.4027
G01 X60.9740 Y-32.3776
G01 X60.9566 Y-32.3538
G01 X60.9503 Y-32.3462
G01 X60.9305 Y-32.3245
G01 X60.9088 Y-32.3047
G01 X60.9012 Y-32.2984
G01 X60.8774 Y-32.2810
G01 X60.8523 Y-32.2657
G01 X60.8436 Y-32.2611
G01 X60.8169 Y-32.2486
G01 X60.7869 Y-32.2378
G01 X60.7561 Y-32.2298
G01 X60.7464 Y-32.2279
G01 X60.7173 Y-32.2237
G01 X60.6830 Y-32.2220
G01 X57.6830 Y-32.2220
G01 X57.6511 Y-32.2235
G01 X57.6196 Y-32.2279
G01 X57.6099 Y-32.2298
G01 X57.5814 Y-32.2371
G01 X57.5491 Y-32.2486
G01 X57.5224 Y-32.2611
G01 X57.5137 Y-32.2657
G01 X57.4886 Y-32.2810
G01 X57.4610 Y-32.3014
G01 X57.4355 Y-32.3245
G01 X57.4157 Y-32.3462
G01 X57.4094 Y-32.3538
G01 X57.3920 Y-32.3776
G01 X57.3767 Y-32.4027
G01 X57.3721 Y-32.4114
G01 X57.3596 Y-32.4381
G01 X57.3488 Y-32.4681
G01 X57.3408 Y-32.4989
G01 X57.3389 Y-32.5086
G01 X57.3347 Y-32.5377
G01 X57.3330 Y-32.5720
G01 X57.3330 Y-33.6720
G01 X57.3347 Y-33.7063
G01 X57.3389 Y-33.7354
G01 X57.3408 Y-33.7451
G01 X57.3481 Y-33.7736
G01 X57.3579 Y-33.8014
G01 X57.3616 Y-33.8104
G01 X57.3743 Y-33.8370
G01 X57.3906 Y-33.8644
G01 X57.4094 Y-33.8902
G01 X57.4157 Y-33.8978
G01 X57.4355 Y-33.9195
G01 X57.4572 Y-33.9393
G01 X57.4648 Y-33.9456
G01 X57.4886 Y-33.9630
G01 X57.5137 Y-33.9783
G01 X57.5224 Y-33.9829
G01 X57.5491 Y-33.9954
G01 X57.5791 Y-34.0062
G01 X57.6099 Y-34.0142
G01 X57.6196 Y-34.0161
G01 X57.6487 Y-34.0203
G01 X57.6830 Y-34.0220
G01 X60.6830 Y-34.0220
G01 X60.7173 Y-34.0203
G01 X60.7513 Y-34.0153
G01 X60.7846 Y-34.0069
G01 X60.8169 Y-33.9954
G01 X60.8480 Y-33.9807
G01 X60.8774 Y-33.9630
G01 X60.9050 Y-33.9426
G01 X60.9305 Y-33.9195
G01 X60.9503 Y-33.8978
G01 X60.9566 Y-33.8902
G01 X60.9726 Y-33.8685
G01 X60.9893 Y-33.8413
G01 X60.9928 Y-33.8348
G01 X61.0044 Y-33.8104
G01 X61.0081 Y-33.8014
G01 X61.0179 Y-33.7736
G01 X61.0263 Y-33.7403
G01 X61.0313 Y-33.7063
G01 X61.0330 Y-33.6720
G00 Z2.0000
G00 X58.6687 Y-26.2916
G01 F60.00
G01 Z-0.2000
G01 F300.00
G01 X58.6411 Y-26.3016
G01 X58.6144 Y-26.3141
G01 X58.6057 Y-26.3187
G01 X58.5806 Y-26.3340
G01 X58.5530 Y-26.3544
G01 X58.5311 Y-26.3741
G01 X58.5241 Y-26.3811
G01 X58.5044 Y-26.4030
G01 X58.4840 Y-26.4306
G01 X58.4687 Y-26.4557
G01 X58.4641 Y-26.4644
G01 X58.4516 Y-26.4911
G01 X58.4401 Y-26.5234
G01 X58.4328 Y-26.5519
G01 X58.4309 Y-26.5616
G01 X58.4265 Y-26.5931
G01 X58.4250 Y-26.6250
G01 X58.4250 Y-27.2750
G01 X58.4267 Y-27.3093
G01 X58.4309 Y-27.3384
G01 X58.4328 Y-27.3481
G01 X58.4401 Y-27.3766
G01 X58.4516 Y-27.4089
G01 X58.4663 Y-27.4400
G01 X58.4840 Y-27.4694
G01 X58.5044 Y-27.4970
G01 X58.5275 Y-27.5225
G01 X58.5530 Y-27.5456
G01 X58.5785 Y-27.5646
G01 X58.6057 Y-27.5813
G01 X58.6144 Y-27.5859
G01 X58.6411 Y-27.5984
G01 X58.6734 Y-27.6099
G01 X58.7019 Y-27.6172
G01 X58.7116 Y-27.6191
G01 X58.7407 Y-27.6233
G01 X58.7701 Y-27.6249
G01 X60.0750 Y-27.6250
G01 X60.1044 Y-27.6237
G01 X60.1142 Y-27.6227
G01 X60.1433 Y-27.6183
G01 X60.1766 Y-27.6099
G01 X60.2089 Y-27.5984
G01 X60.2356 Y-27.5859
G01 X60.2443 Y-27.5813
G01 X60.2674 Y-27.5674
G01 X60.2735 Y-27.5632
G01 X60.2970 Y-27.5456
G01 X60.3189 Y-27.5259
G01 X60.3259 Y-27.5189
G01 X60.3456 Y-27.4970
G01 X60.3646 Y-27.4715
G01 X60.3837 Y-27.4400
G01 X60.3964 Y-27.4134
G01 X60.4001 Y-27.4044
G01 X60.4099 Y-27.3766
G01 X60.4172 Y-27.3481
G01 X60.4191 Y-27.3384
G01 X60.4235 Y-27.3069
G01 X60.4250 Y-27.2750
G01 X60.4250 Y-26.6250
G01 X60.4235 Y-26.5931
G01 X60.4183 Y-26.5567
G01 X60.4099 Y-26.5234
G01 X60.3984 Y-26.4911
G01 X60.3859 Y-26.4644
G01 X60.3813 Y-26.4557
G01 X60.3674 Y-26.4326
G01 X60.3632 Y-26.4265
G01 X60.3456 Y-26.4030
G01 X60.3259 Y-26.3811
G01 X60.3189 Y-26.3741
G01 X60.2970 Y-26.3544
G01 X60.2715 Y-26.3354
G01 X60.2443 Y-26.3187
G01 X60.2356 Y-26.3141
G01 X60.2089 Y-26.3016
G01 X60.1766 Y-26.2901
G01 X60.1481 Y-26.2828
G01 X60.1384 Y-26.2809
G01 X60.1093 Y-26.2767
G01 X60.0775 Y-26.2750
G01 X58.7750 Y-26.2750
G01 X58.7407 Y-26.2767
G01 X58.7116 Y-26.2809
G01 X58.7043 Y-26.2822
G01 X58.6781 Y-26.2888
G01 X58.6687 Y-26.2916
G00 Z2.0000
G00 X58.6456 Y-24.6501
G01 F60.00
G01 Z-0.2000
G01 F300.00
G01 X58.6734 Y-24.6599
G01 X58.7067 Y-24.6683
G01 X58.7407 Y-24.6733
G01 X58.7725 Y-24.6750
G01 X60.0775 Y-24.6750
G01 X60.1093 Y-24.6733
G01 X60.1384 Y-24.6691
G01 X60.1481 Y-24.6672
G01 X60.1766 Y-24.6599
G01 X60.2089 Y-24.6484
G01 X60.2356 Y-24.6359
G01 X60.2443 Y-24.6313
G01 X60.2694 Y-24.6160
G01 X60.2970 Y-24.5956
G01 X60.3189 Y-24.5759
G01 X60.3259 Y-24.5689
G01 X60.3440 Y-24.5489
G01 X60.3486 Y-24.5432
G01 X60.3660 Y-24.5194
G01 X60.3813 Y-24.4943
G01 X60.3859 Y-24.4856
G01 X60.3984 Y-24.4589
G01 X60.4099 Y-24.4266
G01 X60.4183 Y-24.3933
G01 X60.4235 Y-24.3569
G01 X60.4250 Y-24.3250
G01 X60.4250 Y-23.6750
G01 X60.4235 Y-23.6431
G01 X60.4183 Y-23.6067
G01 X60.4112 Y-23.5781
G01 X60.4084 Y-23.5687
G01 X60.3984 Y-23.5411
G01 X60.3859 Y-23.5144
G01 X60.3813 Y-23.5057
G01 X60.3660 Y-23.4806
G01 X60.3456 Y-23.4530
G01 X60.3259 Y-23.4311
G01 X60.3189 Y-23.4241
G01 X60.2970 Y-23.4044
G01 X60.2735 Y-23.3868
G01 X60.2674 Y-23.3826
G01 X60.2443 Y-23.3687
G01 X60.2356 Y-23.3641
G01 X60.2089 Y-23.3516
G01 X60.1766 Y-23.3401
G01 X60.1433 Y-23.3317
G01 X60.1142 Y-23.3273
G01 X60.1044 Y-23.3263
G01 X60.0750 Y-23.3250
G01 X58.7701 Y-23.3251
G01 X58.7407 Y-23.3267
G01 X58.7116 Y-23.3309
G01 X58.7019 Y-23.3328
G01 X58.6734 Y-23.3401
G01 X58.6411 Y-23.3516
G01 X58.6144 Y-23.3641
G01 X58.6057 Y-23.3687
G01 X58.5806 Y-23.3840
G01 X58.5530 Y-23.4044
G01 X58.5275 Y-23.4275
G01 X58.5044 Y-23.4530
G01 X58.4840 Y-23.4806
G01 X58.4663 Y-23.5100
G01 X58.4516 Y-23.5411
G01 X58.4401 Y-23.5734
G01 X58.4328 Y-23.6019
G01 X58.4309 Y-23.6116
G01 X58.4267 Y-23.6407
G01 X58.4250 Y-23.6750
G01 X58.4250 Y-24.3250
G01 X58.4263 Y-24.3544
G01 X58.4273 Y-24.3642
G01 X58.4317 Y-24.3933
G01 X58.4388 Y-24.4219
G01 X58.4416 Y-24.4313
G01 X58.4516 Y-24.4589
G01 X58.4652 Y-24.4878
G01 X58.4814 Y-24.5153
G01 X58.4868 Y-24.5235
G01 X58.5044 Y-24.5470
G01 X58.5241 Y-24.5689
G01 X58.5311 Y-24.5759
G01 X58.5549 Y-24.5971
G01 X58.5806 Y-24.6160
G01 X58.6057 Y-24.6313
G01 X58.6122 Y-24.6348
G01 X58.6366 Y-24.6464
G01 X58.6456 Y-24.6501
G00 Z2.0000
G00 X64.5126 Y-10.3401
G01 F60.00
G01 Z-0.2000
G01 F300.00
G01 X64.5404 Y-10.3499
G01 X64.5737 Y-10.3583
G01 X64.6077 Y-10.3633
G01 X64.6395 Y-10.3650
G01 X65.8945 Y-10.3650
G01 X65.9263 Y-10.3633
G01 X65.9554 Y-10.3591
G01 X65.9651 Y-10.3572
G01 X65.9936 Y-10.3499
G01 X66.0259 Y-10.3384
G01 X66.0526 Y-10.3259
G01 X66.0613 Y-10.3213
G01 X66.0885 Y-10.3046
G01 X66.1140 Y-10.2856
G01 X66.1359 Y-10.2659
G01 X66.1429 Y-10.2589
G01 X66.1610 Y-10.2389
G01 X66.1656 Y-10.2332
G01 X66.1830 Y-10.2094
G01 X66.1983 Y-10.1843
G01 X66.2029 Y-10.1756
G01 X66.2154 Y-10.1489
G01 X66.2269 Y-10.1166
G01 X66.2353 Y-10.0833
G01 X66.2405 Y-10.0469
G01 X66.2420 Y-10.0150
G01 X66.2420 Y-9.3900
G01 X66.2405 Y-9.3581
G01 X66.2353 Y-9.3217
G01 X66.2282 Y-9.2931
G01 X66.2254 Y-9.2837
G01 X66.2154 Y-9.2561
G01 X66.2029 Y-9.2294
G01 X66.1983 Y-9.2207
G01 X66.1816 Y-9.1935
G01 X66.1626 Y-9.1680
G01 X66.1429 Y-9.1461
G01 X66.1359 Y-9.1391
G01 X66.1140 Y-9.1194
G01 X66.0905 Y-9.1018
G01 X66.0844 Y-9.0976
G01 X66.0613 Y-9.0837
G01 X66.0526 Y-9.0791
G01 X66.0259 Y-9.0666
G01 X65.9936 Y-9.0551
G01 X65.9603 Y-9.0467
G01 X65.9312 Y-9.0423
G01 X65.9214 Y-9.0413
G01 X65.8920 Y-9.0400
G01 X64.6371 Y-9.0401
G01 X64.6077 Y-9.0417
G01 X64.5786 Y-9.0459
G01 X64.5689 Y-9.0478
G01 X64.5404 Y-9.0551
G01 X64.5081 Y-9.0666
G01 X64.4814 Y-9.0791
G01 X64.4727 Y-9.0837
G01 X64.4455 Y-9.1004
G01 X64.4200 Y-9.1194
G01 X64.3945 Y-9.1425
G01 X64.3714 Y-9.1680
G01 X64.3510 Y-9.1956
G01 X64.3333 Y-9.2250
G01 X64.3186 Y-9.2561
G01 X64.3071 Y-9.2884
G01 X64.2983 Y-9.3241
G01 X64.2937 Y-9.3557
G01 X64.2920 Y-9.3900
G01 X64.2920 Y-10.0150
G01 X64.2933 Y-10.0444
G01 X64.2943 Y-10.0542
G01 X64.2987 Y-10.0833
G01 X64.3058 Y-10.1119
G01 X64.3086 Y-10.1213
G01 X64.3186 Y-10.1489
G01 X64.3322 Y-10.1778
G01 X64.3484 Y-10.2053
G01 X64.3538 Y-10.2135
G01 X64.3714 Y-10.2370
G01 X64.3911 Y-10.2589
G01 X64.3981 Y-10.2659
G01 X64.4219 Y-10.2871
G01 X64.4476 Y-10.3060
G01 X64.4727 Y-10.3213
G01 X64.4792 Y-10.3248
G01 X64.5036 Y-10.3364
G01 X64.5126 Y-10.3401
G00 Z2.0000
G00 X64.5126 Y-7.4151
G01 F60.00
G01 Z-0.2000
G01 F300.00
G01 X64.5404 Y-7.4249
G01 X64.5737 Y-7.4333
G01 X64.6077 Y-7.4383
G01 X64.6395 Y-7.4400
G01 X65.8945 Y-7.4400
G01 X65.9263 Y-7.4383
G01 X65.9554 Y-7.4341
G01 X65.9651 Y-7.4322
G01 X65.9936 Y-7.4249
G01 X66.0259 Y-7.4134
G01 X66.0526 Y-7.4009
G01 X66.0613 Y-7.3963
G01 X66.0885 Y-7.3796
G01 X66.1140 Y-7.3606
G01 X66.1359 Y-7.3409
G01 X66.1429 Y-7.3339
G01 X66.1610 Y-7.3139
G01 X66.1656 Y-7.3082
G01 X66.1830 Y-7.2844
G01 X66.1983 Y-7.2593
G01 X66.2029 Y-7.2506
G01 X66.2154 Y-7.2239
G01 X66.2269 Y-7.1916
G01 X66.2353 Y-7.1583
G01 X66.2405 Y-7.1219
G01 X66.2420 Y-7.0900
G01 X66.2420 Y-6.4650
G01 X66.2405 Y-6.4331
G01 X66.2353 Y-6.3967
G01 X66.2282 Y-6.3681
G01 X66.2254 Y-6.3587
G01 X66.2154 Y-6.3311
G01 X66.2029 Y-6.3044
G01 X66.1983 Y-6.2957
G01 X66.1816 Y-6.2685
G01 X66.1626 Y-6.2430
G01 X66.1429 Y-6.2211
G01 X66.1359 Y-6.2141
G01 X66.1140 Y-6.1944
G01 X66.0905 Y-6.1768
G01 X66.0844 Y-6.1726
G01 X66.0613 Y-6.1587
G01 X66.0526 Y-6.1541
G01 X66.0259 Y-6.1416
G01 X65.9936 Y-6.1301
G01 X65.9603 Y-6.1217
G01 X65.9312 Y-6.1173
G01 X65.9214 Y-6.1163
G01 X65.8920 Y-6.1150
G01 X64.6371 Y-6.1151
G01 X64.6077 Y-6.1167
G01 X64.5786 Y-6.1209
G01 X64.5689 Y-6.1228
G01 X64.5404 Y-6.1301
G01 X64.5081 Y-6.1416
G01 X64.4814 Y-6.1541
G01 X64.4727 Y-6.1587
G01 X64.4455 Y-6.1754
G01 X64.4200 Y-6.1944
G01 X64.3945 Y-6.2175
G01 X64.3714 Y-6.2430
G01 X64.3510 Y-6.2706
G01 X64.3333 Y-6.3000
G01 X64.3186 Y-6.3311
G01 X64.3071 Y-6.3634
G01 X64.2983 Y-6.3991
G01 X64.2937 Y-6.4307
G01 X64.2920 Y-6.4650
G01 X64.2920 Y-7.0900
G01 X64.2933 Y-7.1194
G01 X64.2943 Y-7.1292
G01 X64.2987 Y-7.1583
G01 X64.3058 Y-7.1869
G01 X64.3086 Y-7.1963
G01 X64.3186 Y-7.2239
G01 X64.3322 Y-7.2528
G01 X64.3484 Y-7.2803
G01 X64.3538 Y-7.2885
G01 X64.3714 Y-7.3120
G01 X64.3911 Y-7.3339
G01 X64.3981 Y-7.3409
G01 X64.4219 Y-7.3621
G01 X64.4476 Y-7.3810
G01 X64.4727 Y-7.3963
G01 X64.4792 Y-7.3998
G01 X64.5036 Y-7.4114
G01 X64.5126 Y-7.4151
G00 Z2.0000
G00 X68.6786 Y-7.2881
G01 F60.00
G01 Z-0.2000
G01 F300.00
G01 X68.7064 Y-7.2979
G01 X68.7397 Y-7.3063
G01 X68.7737 Y-7.3113
G01 X68.8055 Y-7.3130
G01 X70.1105 Y-7.3130
G01 X70.1423 Y-7.3113
G01 X70.1714 Y-7.3071
G01 X70.1811 Y-7.3052
G01 X70.2096 Y-7.2979
G01 X70.2419 Y-7.2864
G01 X70.2686 Y-7.2739
G01 X70.2773 Y-7.2693
G01 X70.3024 Y-7.2540
G01 X70.3300 Y-7.2336
G01 X70.3519 Y-7.2139
G01 X70.3589 Y-7.2069
G01 X70.3770 Y-7.1869
G01 X70.3816 Y-7.1812
G01 X70.3990 Y-7.1574
G01 X70.4143 Y-7.1323
G01 X70.4189 Y-7.1236
G01 X70.4314 Y-7.0969
G01 X70.4429 Y-7.0646
G01 X70.4513 Y-7.0313
G01 X70.4565 Y-6.9949
G01 X70.4580 Y-6.9630
G01 X70.4580 Y-6.3130
G01 X70.4565 Y-6.2811
G01 X70.4513 Y-6.2447
G01 X70.4442 Y-6.2161
G01 X70.4414 Y-6.2067
G01 X70.4314 Y-6.1791
G01 X70.4189 Y-6.1524
G01 X70.4143 Y-6.1437
G01 X70.3990 Y-6.1186
G01 X70.3786 Y-6.0910
G01 X70.3589 Y-6.0691
G01 X70.3519 Y-6.0621
G01 X70.3300 Y-6.0424
G01 X70.3065 Y-6.0248
G01 X70.3004 Y-6.0206
G01 X70.2773 Y-6.0067
G01 X70.2686 Y-6.0021
G01 X70.2419 Y-5.9896
G01 X70.2096 Y-5.9781
G01 X70.1763 Y-5.9697
G01 X70.1472 Y-5.9653
G01 X70.1374 Y-5.9643
G01 X70.1080 Y-5.9630
G01 X68.8031 Y-5.9631
G01 X68.7737 Y-5.9647
G01 X68.7446 Y-5.9689
G01 X68.7349 Y-5.9708
G01 X68.7064 Y-5.9781
G01 X68.6741 Y-5.9896
G01 X68.6474 Y-6.0021
G01 X68.6387 Y-6.0067
G01 X68.6136 Y-6.0220
G01 X68.5860 Y-6.0424
G01 X68.5605 Y-6.0655
G01 X68.5374 Y-6.0910
G01 X68.5170 Y-6.1186
G01 X68.4993 Y-6.1480
G01 X68.4846 Y-6.1791
G01 X68.4731 Y-6.2114
G01 X68.4658 Y-6.2399
G01 X68.4639 Y-6.2496
G01 X68.4597 Y-6.2787
G01 X68.4580 Y-6.3130
G01 X68.4580 Y-6.9630
G01 X68.4593 Y-6.9924
G01 X68.4603 Y-7.0022
G01 X68.4647 Y-7.0313
G01 X68.4718 Y-7.0599
G01 X68.4746 Y-7.0693
G01 X68.4846 Y-7.0969
G01 X68.4982 Y-7.1258
G01 X68.5144 Y-7.1533
G01 X68.5198 Y-7.1615
G01 X68.5374 Y-7.1850
G01 X68.5571 Y-7.2069
G01 X68.5641 Y-7.2139
G01 X68.5879 Y-7.2351
G01 X68.6136 Y-7.2540
G01 X68.6387 Y-7.2693
G01 X68.6452 Y-7.2728
G01 X68.6696 Y-7.2844
G01 X68.6786 Y-7.2881
G00 Z2.0000
G00 X68.6786 Y-10.2381
G01 F60.00
G01 Z-0.2000
G01 F300.00
G01 X68.7064 Y-10.2479
G01 X68.7397 Y-10.2563
G01 X68.7737 Y-10.2613
G01 X68.8055 Y-10.2630
G01 X70.1105 Y-10.2630
G01 X70.1423 Y-10.2613
G01 X70.1714 Y-10.2571
G01 X70.1811 Y-10.2552
G01 X70.2096 Y-10.2479
G01 X70.2419 Y-10.2364
G01 X70.2686 Y-10.2239
G01 X70.2773 Y-10.2193
G01 X70.3024 Y-10.2040
G01 X70.3300 Y-10.1836
G01 X70.3519 Y-10.1639
G01 X70.3589 Y-10.1569
G01 X70.3770 Y-10.1369
G01 X70.3816 Y-10.1312
G01 X70.3990 Y-10.1074
G01 X70.4143 Y-10.0823
G01 X70.4189 Y-10.0736
G01 X70.4314 Y-10.0469
G01 X70.4429 Y-10.0146
G01 X70.4513 Y-9.9813
G01 X70.4565 Y-9.9449
G01 X70.4580 Y-9.9130
G01 X70.4580 Y-9.2630
G01 X70.4565 Y-9.2311
G01 X70.4513 Y-9.1947
G01 X70.4442 Y-9.1661
G01 X70.4414 Y-9.1567
G01 X70.4314 Y-9.1291
G01 X70.4189 Y-9.1024
G01 X70.4143 Y-9.0937
G01 X70.3990 Y-9.0686
G01 X70.3786 Y-9.0410
G01 X70.3589 Y-9.0191
G01 X70.3519 Y-9.0121
G01 X70.3300 Y-8.9924
G01 X70.3065 Y-8.9748
G01 X70.3004 Y-8.9706
G01 X70.2773 Y-8.9567
G01 X70.2686 Y-8.9521
G01 X70.2419 Y-8.9396
G01 X70.2096 Y-8.9281
G01 X70.1763 Y-8.9197
G01 X70.1472 Y-8.9153
G01 X70.1374 Y-8.9143
G01 X70.1080 Y-8.9130
G01 X68.8031 Y-8.9131
G01 X68.7737 Y-8.9147
G01 X68.7446 Y-8.9189
G01 X68.7349 Y-8.9208
G01 X68.7064 Y-8.9281
G01 X68.6741 Y-8.9396
G01 X68.6474 Y-8.9521
G01 X68.6387 Y-8.9567
G01 X68.6136 Y-8.9720
G01 X68.5860 Y-8.9924
G01 X68.5605 Y-9.0155
G01 X68.5374 Y-9.0410
G01 X68.5170 Y-9.0686
G01 X68.4993 Y-9.0980
G01 X68.4846 Y-9.1291
G01 X68.4731 Y-9.1614
G01 X68.4658 Y-9.1899
G01 X68.4639 Y-9.1996
G01 X68.4597 Y-9.2287
G01 X68.4580 Y-9.2630
G01 X68.4580 Y-9.9130
G01 X68.4593 Y-9.9424
G01 X68.4603 Y-9.9522
G01 X68.4647 Y-9.9813
G01 X68.4718 Y-10.0099
G01 X68.4746 Y-10.0193
G01 X68.4846 Y-10.0469
G01 X68.4982 Y-10.0758
G01 X68.5144 Y-10.1033
G01 X68.5198 Y-10.1115
G01 X68.5374 Y-10.1350
G01 X68.5571 Y-10.1569
G01 X68.5641 Y-10.1639
G01 X68.5879 Y-10.1851
G01 X68.6136 Y-10.2040
G01 X68.6387 Y-10.2193
G01 X68.6452 Y-10.2228
G01 X68.6696 Y-10.2344
G01 X68.6786 Y-10.2381
G00 Z2.0000
G00 X73.3526 Y-7.7831
G01 F60.00
G01 Z-0.2000
G01 F300.00
G01 X73.3804 Y-7.7929
G01 X73.4137 Y-7.8013
G01 X73.4477 Y-7.8063
G01 X73.4795 Y-7.8080
G01 X74.1070 Y-7.8080
G01 X74.1413 Y-7.8063
G01 X74.1704 Y-7.8021
G01 X74.1801 Y-7.8002
G01 X74.2086 Y-7.7929
G01 X74.2409 Y-7.7814
G01 X74.2720 Y-7.7667
G01 X74.2973 Y-7.7516
G01 X74.3055 Y-7.7462
G01 X74.3290 Y-7.7286
G01 X74.3509 Y-7.7089
G01 X74.3579 Y-7.7019
G01 X74.3760 Y-7.6819
G01 X74.3980 Y-7.6524
G01 X74.4133 Y-7.6273
G01 X74.4179 Y-7.6186
G01 X74.4294 Y-7.5942
G01 X74.4321 Y-7.5874
G01 X74.4419 Y-7.5596
G01 X74.4492 Y-7.5311
G01 X74.4511 Y-7.5214
G01 X74.4553 Y-7.4923
G01 X74.4570 Y-7.4605
G01 X74.4570 Y-6.2080
G01 X74.4553 Y-6.1737
G01 X74.4503 Y-6.1397
G01 X74.4432 Y-6.1111
G01 X74.4404 Y-6.1017
G01 X74.4304 Y-6.0741
G01 X74.4179 Y-6.0474
G01 X74.4133 Y-6.0387
G01 X74.3980 Y-6.0136
G01 X74.3806 Y-5.9898
G01 X74.3743 Y-5.9822
G01 X74.3545 Y-5.9605
G01 X74.3328 Y-5.9407
G01 X74.3252 Y-5.9344
G01 X74.3014 Y-5.9170
G01 X74.2763 Y-5.9017
G01 X74.2676 Y-5.8971
G01 X74.2409 Y-5.8846
G01 X74.2133 Y-5.8746
G01 X74.2062 Y-5.8724
G01 X74.1801 Y-5.8658
G01 X74.1704 Y-5.8639
G01 X74.1437 Y-5.8600
G01 X74.1119 Y-5.8581
G01 X73.4820 Y-5.8580
G01 X73.4526 Y-5.8593
G01 X73.4428 Y-5.8603
G01 X73.4161 Y-5.8643
G01 X73.4089 Y-5.8658
G01 X73.3804 Y-5.8731
G01 X73.3526 Y-5.8829
G01 X73.3436 Y-5.8866
G01 X73.3170 Y-5.8993
G01 X73.2855 Y-5.9184
G01 X73.2638 Y-5.9344
G01 X73.2562 Y-5.9407
G01 X73.2345 Y-5.9605
G01 X73.2147 Y-5.9822
G01 X73.2084 Y-5.9898
G01 X73.1910 Y-6.0136
G01 X73.1757 Y-6.0387
G01 X73.1711 Y-6.0474
G01 X73.1596 Y-6.0718
G01 X73.1569 Y-6.0786
G01 X73.1471 Y-6.1064
G01 X73.1398 Y-6.1349
G01 X73.1379 Y-6.1446
G01 X73.1337 Y-6.1737
G01 X73.1320 Y-6.2055
G01 X73.1320 Y-7.4580
G01 X73.1337 Y-7.4923
G01 X73.1379 Y-7.5214
G01 X73.1398 Y-7.5311
G01 X73.1471 Y-7.5596
G01 X73.1586 Y-7.5919
G01 X73.1711 Y-7.6186
G01 X73.1757 Y-7.6273
G01 X73.1910 Y-7.6524
G01 X73.2084 Y-7.6762
G01 X73.2147 Y-7.6838
G01 X73.2345 Y-7.7055
G01 X73.2562 Y-7.7253
G01 X73.2638 Y-7.7316
G01 X73.2876 Y-7.7490
G01 X73.3149 Y-7.7655
G01 X73.3436 Y-7.7794
G01 X73.3526 Y-7.7831
G00 Z2.0000
G00 X76.2776 Y-7.7831
G01 F60.00
G01 Z-0.2000
G01 F300.00
G01 X76.3054 Y-7.7929
G01 X76.3387 Y-7.8013
G01 X76.3727 Y-7.8063
G01 X76.4045 Y-7.8080
G01 X77.0320 Y-7.8080
G01 X77.0663 Y-7.8063
G01 X77.0954 Y-7.8021
G01 X77.1051 Y-7.8002
G01 X77.1336 Y-7.7929
G01 X77.1659 Y-7.7814
G01 X77.1970 Y-7.7667
G01 X77.2223 Y-7.7516
G01 X77.2305 Y-7.7462
G01 X77.2540 Y-7.7286
G01 X77.2759 Y-7.7089
G01 X77.2829 Y-7.7019
G01 X77.3010 Y-7.6819
G01 X77.3230 Y-7.6524
G01 X77.3383 Y-7.6273
G01 X77.3429 Y-7.6186
G01 X77.3544 Y-7.5942
G01 X77.3571 Y-7.5874
G01 X77.3669 Y-7.5596
G01 X77.3742 Y-7.5311
G01 X77.3761 Y-7.5214
G01 X77.3803 Y-7.4923
G01 X77.3820 Y-7.4605
G01 X77.3820 Y-6.2080
G01 X77.3803 Y-6.1737
G01 X77.3753 Y-6.1397
G01 X77.3682 Y-6.1111
G01 X77.3654 Y-6.1017
G01 X77.3554 Y-6.0741
G01 X77.3429 Y-6.0474
G01 X77.3383 Y-6.0387
G01 X77.3230 Y-6.0136
G01 X77.3056 Y-5.9898
G01 X77.2993 Y-5.9822
G01 X77.2795 Y-5.9605
G01 X77.2578 Y-5.9407
G01 X77.2502 Y-5.9344
G01 X77.2264 Y-5.9170
G01 X77.2013 Y-5.9017
G01 X77.1926 Y-5.8971
G01 X77.1659 Y-5.8846
G01 X77.1383 Y-5.8746
G01 X77.1312 Y-5.8724
G01 X77.1051 Y-5.8658
G01 X77.0954 Y-5.8639
G01 X77.0687 Y-5.8600
G01 X77.0369 Y-5.8581
G01 X76.4070 Y-5.8580
G01 X76.3776 Y-5.8593
G01 X76.3678 Y-5.8603
G01 X76.3411 Y-5.8643
G01 X76.3339 Y-5.8658
G01 X76.3054 Y-5.8731
G01 X76.2776 Y-5.8829
G01 X76.2686 Y-5.8866
G01 X76.2420 Y-5.8993
G01 X76.2105 Y-5.9184
G01 X76.1888 Y-5.9344
G01 X76.1812 Y-5.9407
G01 X76.1595 Y-5.9605
G01 X76.1397 Y-5.9822
G01 X76.1334 Y-5.9898
G01 X76.1160 Y-6.0136
G01 X76.1007 Y-6.0387
G01 X76.0961 Y-6.0474
G01 X76.0846 Y-6.0718
G01 X76.0819 Y-6.0786
G01 X76.0721 Y-6.1064
G01 X76.0648 Y-6.1349
G01 X76.0629 Y-6.1446
G01 X76.0587 Y-6.1737
G01 X76.0570 Y-6.2055
G01 X76.0570 Y-7.4580
G01 X76.0587 Y-7.4923
G01 X76.0629 Y-7.5214
G01 X76.0648 Y-7.5311
G01 X76.0721 Y-7.5596
G01 X76.0836 Y-7.5919
G01 X76.0961 Y-7.6186
G01 X76.1007 Y-7.6273
G01 X76.1160 Y-7.6524
G01 X76.1334 Y-7.6762
G01 X76.1397 Y-7.6838
G01 X76.1595 Y-7.7055
G01 X76.1812 Y-7.7253
G01 X76.1888 Y-7.7316
G01 X76.2126 Y-7.7490
G01 X76.2399 Y-7.7655
G01 X76.2686 Y-7.7794
G01 X76.2776 Y-7.7831
G00 Z2.0000
G00 X75.1160 Y-33.6460
G01 F60.00
G01 Z-0.2000
G01 F300.00
G01 X75.1160 Y-35.6460
G01 X75.1177 Y-35.6803
G01 X75.1219 Y-35.7094
G01 X75.1238 Y-35.7191
G01 X75.1311 Y-35.7476
G01 X75.1409 Y-35.7754
G01 X75.1446 Y-35.7844
G01 X75.1573 Y-35.8110
G01 X75.1724 Y-35.8363
G01 X75.1778 Y-35.8445
G01 X75.1954 Y-35.8680
G01 X75.2151 Y-35.8899
G01 X75.2221 Y-35.8969
G01 X75.2440 Y-35.9166
G01 X75.2675 Y-35.9342
G01 X75.2757 Y-35.9396
G01 X75.3010 Y-35.9547
G01 X75.3276 Y-35.9674
G01 X75.3366 Y-35.9711
G01 X75.3644 Y-35.9809
G01 X75.3977 Y-35.9893
G01 X75.4317 Y-35.9943
G01 X75.4660 Y-35.9960
G01 X79.3709 Y-35.9959
G01 X79.4003 Y-35.9943
G01 X79.4294 Y-35.9901
G01 X79.4391 Y-35.9882
G01 X79.4676 Y-35.9809
G01 X79.4954 Y-35.9711
G01 X79.5044 Y-35.9674
G01 X79.5310 Y-35.9547
G01 X79.5604 Y-35.9370
G01 X79.5880 Y-35.9166
G01 X79.6099 Y-35.8969
G01 X79.6169 Y-35.8899
G01 X79.6366 Y-35.8680
G01 X79.6542 Y-35.8445
G01 X79.6596 Y-35.8363
G01 X79.6747 Y-35.8110
G01 X79.6874 Y-35.7844
G01 X79.6911 Y-35.7754
G01 X79.7009 Y-35.7476
G01 X79.7093 Y-35.7143
G01 X79.7143 Y-35.6803
G01 X79.7160 Y-35.6485
G01 X79.7160 Y-33.6460
G01 X79.7145 Y-33.6141
G01 X79.7101 Y-33.5826
G01 X79.7082 Y-33.5729
G01 X79.7009 Y-33.5444
G01 X79.6911 Y-33.5166
G01 X79.6874 Y-33.5076
G01 X79.6747 Y-33.4810
G01 X79.6596 Y-33.4557
G01 X79.6542 Y-33.4475
G01 X79.6366 Y-33.4240
G01 X79.6169 Y-33.4021
G01 X79.6099 Y-33.3951
G01 X79.5880 Y-33.3754
G01 X79.5645 Y-33.3578
G01 X79.5563 Y-33.3524
G01 X79.5310 Y-33.3373
G01 X79.5044 Y-33.3246
G01 X79.4954 Y-33.3209
G01 X79.4676 Y-33.3111
G01 X79.4343 Y-33.3027
G01 X79.4003 Y-33.2977
G01 X79.3660 Y-33.2960
G01 X75.4660 Y-33.2960
G01 X75.4341 Y-33.2975
G01 X75.3977 Y-33.3027
G01 X75.3644 Y-33.3111
G01 X75.3321 Y-33.3226
G01 X75.3054 Y-33.3351
G01 X75.2989 Y-33.3385
G01 X75.2757 Y-33.3524
G01 X75.2675 Y-33.3578
G01 X75.2421 Y-33.3770
G01 X75.2221 Y-33.3951
G01 X75.2151 Y-33.4021
G01 X75.1954 Y-33.4240
G01 X75.1750 Y-33.4516
G01 X75.1573 Y-33.4810
G01 X75.1426 Y-33.5121
G01 X75.1311 Y-33.5444
G01 X75.1227 Y-33.5777
G01 X75.1177 Y-33.6117
G01 X75.1160 Y-33.6460
G00 Z2.0000
M05
G00 Z2.0000
G00 Z15.00
G00 X0.0 Y0.0
