(G-CODE GENERATED BY FLATCAM v8.994 - www.flatcam.org - Version Date: 2020/11/7)
(Name: AFPI Device V1.1-Edge_Cuts.gbr_cutout_cnc)
(Type: G-code from Geometry)
(Units: MM)
(Created on Sunday, 11 August 2024 at 19:46)
(This preprocessor is the default preprocessor used by FlatCAM.)
(It is made to work with MACH3 compatible motion controllers.)
(TOOL DIAMETER: 0.2 mm)
(Feedrate_XY: 300.0 mm/min)
(Feedrate_Z: 60.0 mm/min)
(Feedrate rapids 1500.0 mm/min)
(Z_Cut: -0.2 mm)
(DepthPerCut: 0.6 mm <=>1 passes)
(Z_Move: 2.0 mm)
(Z Start: None mm)
(Z End: 15.0 mm)
(X,Y End: 0.0000, 0.0000 mm)
(Steps per circle: 64)
(Preprocessor Geometry: default)
(X range:    0.0930 ...   85.5930  mm)
(Y range:  -45.4270 ...    0.0730  mm)
(Spindle Speed: 10000.0 RPM)
G21
G90
G94
G01 F300.00
M5
G00 Z15.0000
G00 X0.0000 Y0.0000
T1
G00 Z15.0000
M03 S10000.0
G01 F300.00
G00 X0.0930 Y-0.1770
G01 F60.00
G01 Z-0.2000
G01 F300.00
G01 X0.0935 Y-0.1623
G01 X0.0954 Y-0.1428
G01 X0.0999 Y-0.1186
G01 X0.1068 Y-0.0951
G01 X0.1160 Y-0.0723
G01 X0.1273 Y-0.0506
G01 X0.1408 Y-0.0301
G01 X0.1561 Y-0.0110
G01 X0.1733 Y0.0066
G01 X0.1921 Y0.0223
G01 X0.2124 Y0.0361
G01 X0.2339 Y0.0479
G01 X0.2565 Y0.0575
G01 X0.2799 Y0.0649
G01 X0.3039 Y0.0699
G01 X0.3283 Y0.0725
G01 X0.3430 Y0.0730
G01 X85.3430 Y0.0730
G01 X85.3577 Y0.0725
G01 X85.3772 Y0.0706
G01 X85.4014 Y0.0661
G01 X85.4249 Y0.0592
G01 X85.4521 Y0.0479
G01 X85.4694 Y0.0387
G01 X85.4899 Y0.0252
G01 X85.5127 Y0.0066
G01 X85.5299 Y-0.0110
G01 X85.5452 Y-0.0301
G01 X85.5561 Y-0.0464
G01 X85.5700 Y-0.0723
G01 X85.5775 Y-0.0905
G01 X85.5849 Y-0.1139
G01 X85.5906 Y-0.1428
G01 X85.5925 Y-0.1623
G01 X85.5930 Y-0.1770
G01 X85.5930 Y-45.1770
G01 X85.5925 Y-45.1917
G01 X85.5906 Y-45.2112
G01 X85.5861 Y-45.2354
G01 X85.5775 Y-45.2635
G01 X85.5679 Y-45.2861
G01 X85.5561 Y-45.3076
G01 X85.5452 Y-45.3239
G01 X85.5266 Y-45.3467
G01 X85.5127 Y-45.3606
G01 X85.4939 Y-45.3763
G01 X85.4736 Y-45.3901
G01 X85.4477 Y-45.4040
G01 X85.4295 Y-45.4115
G01 X85.4061 Y-45.4189
G01 X85.3772 Y-45.4246
G01 X85.3577 Y-45.4265
G01 X85.3430 Y-45.4270
G01 X0.3430 Y-45.4270
G01 X0.3283 Y-45.4265
G01 X0.3088 Y-45.4246
G01 X0.2846 Y-45.4201
G01 X0.2565 Y-45.4115
G01 X0.2339 Y-45.4019
G01 X0.2124 Y-45.3901
G01 X0.1921 Y-45.3763
G01 X0.1770 Y-45.3639
G01 X0.1561 Y-45.3430
G01 X0.1408 Y-45.3239
G01 X0.1299 Y-45.3076
G01 X0.1160 Y-45.2817
G01 X0.1068 Y-45.2589
G01 X0.1011 Y-45.2401
G01 X0.0954 Y-45.2112
G01 X0.0935 Y-45.1917
G01 X0.0930 Y-45.1770
G01 X0.0930 Y-0.1770
G00 Z2.0000
M05
G00 Z2.0000
G00 Z15.00
G00 X0.0 Y0.0
