(G-CODE GENERATED BY FLATCAM v8.994 - www.flatcam.org - Version Date: 2020/11/7)

(Name: bms test circuit.drl_edit_cnc)
(Type: G-code from Geometry)
(Units: MM)

(Created on Tuesday, 02 July 2024 at 10:06)

(This preprocessor is the default preprocessor used by FlatCAM.)
(It is made to work with MACH3 compatible motion controllers.)


(TOOLS DIAMETER: )
(Tool: 1 -> Dia: 0.7)
(Tool: 2 -> Dia: 0.8)
(Tool: 3 -> Dia: 0.9)
(Tool: 4 -> Dia: 1.0)
(Tool: 5 -> Dia: 1.8)
(Tool: 6 -> Dia: 3.0)

(FEEDRATE Z: )
(Tool: 1 -> Feedrate: 300)
(Tool: 2 -> Feedrate: 300)
(Tool: 3 -> Feedrate: 300)
(Tool: 4 -> Feedrate: 300)
(Tool: 5 -> Feedrate: 300)
(Tool: 6 -> Feedrate: 300)

(FEEDRATE RAPIDS: )
(Tool: 1 -> Feedrate Rapids: 1500)
(Tool: 2 -> Feedrate Rapids: 1500)
(Tool: 3 -> Feedrate Rapids: 1500)
(Tool: 4 -> Feedrate Rapids: 1500)
(Tool: 5 -> Feedrate Rapids: 1500)
(Tool: 6 -> Feedrate Rapids: 1500)

(Z_CUT: )
(Tool: 1 -> Z_Cut: -1.7)
(Tool: 2 -> Z_Cut: -1.7)
(Tool: 3 -> Z_Cut: -1.7)
(Tool: 4 -> Z_Cut: -1.7)
(Tool: 5 -> Z_Cut: -1.7)
(Tool: 6 -> Z_Cut: -1.7)

(Tools Offset: )
(Tool: 4 -> Offset Z: 0.0)

(Z_MOVE: )
(Tool: 1 -> Z_Move: 2)
(Tool: 2 -> Z_Move: 2)
(Tool: 3 -> Z_Move: 2)
(Tool: 4 -> Z_Move: 2)
(Tool: 5 -> Z_Move: 2)
(Tool: 6 -> Z_Move: 2)

(Z Toolchange: 15 mm)
(X,Y Toolchange: 0.0000, 0.0000 mm)
(Z Start: None mm)
(Z End: 10.0 mm)
(X,Y End: None mm)
(Steps per circle: 64)
(Preprocessor Excellon: default)

(X range:   20.4580 ...  119.8510  mm)
(Y range:   12.3220 ...   67.2580  mm)

(Spindle Speed: 0 RPM)
G21
G90
G94

G01 F300.00

M5
G00 Z15.0000
T4
G00 X0.0000 Y0.0000                
M6
(MSG, Change to Tool Dia = 1.0000 ||| Total drills for tool T4 = 26)
M0
G00 Z15.0000

G01 F300.00
M03
G00 X81.8180 Y20.8570
G01 Z-1.7000
G01 Z0
G00 Z2.0000
G00 X84.3580 Y20.8570
G01 Z-1.7000
G01 Z0
G00 Z2.0000
G00 X86.8980 Y20.8570
G01 Z-1.7000
G01 Z0
G00 Z2.0000
G00 X89.4380 Y20.8570
G01 Z-1.7000
G01 Z0
G00 Z2.0000
G00 X91.9780 Y20.8570
G01 Z-1.7000
G01 Z0
G00 Z2.0000
G00 X94.5180 Y20.8570
G01 Z-1.7000
G01 Z0
G00 Z2.0000
G00 X97.0180 Y28.6070
G01 Z-1.7000
G01 Z0
G00 Z2.0000
G00 X101.2060 Y28.5470
G01 Z-1.7000
G01 Z0
G00 Z2.0000
G00 X100.4440 Y31.0870
G01 Z-1.7000
G01 Z0
G00 Z2.0000
G00 X108.9530 Y45.3110
G01 Z-1.7000
G01 Z0
G00 Z2.0000
G00 X103.7460 Y44.8030
G01 Z-1.7000
G01 Z0
G00 Z2.0000
G00 X97.0180 Y33.6870
G01 Z-1.7000
G01 Z0
G00 Z2.0000
G00 X97.0180 Y31.1470
G01 Z-1.7000
G01 Z0
G00 Z2.0000
G00 X76.5680 Y27.2770
G01 Z-1.7000
G01 Z0
G00 Z2.0000
G00 X71.8690 Y32.6110
G01 Z-1.7000
G01 Z0
G00 Z2.0000
G00 X67.9320 Y40.6120
G01 Z-1.7000
G01 Z0
G00 Z2.0000
G00 X78.4730 Y47.3430
G01 Z-1.7000
G01 Z0
G00 Z2.0000
G00 X73.7740 Y53.4390
G01 Z-1.7000
G01 Z0
G00 Z2.0000
G00 X65.3920 Y48.2340
G01 Z-1.7000
G01 Z0
G00 Z2.0000
G00 X62.7250 Y48.3590
G01 Z-1.7000
G01 Z0
G00 Z2.0000
G00 X52.1840 Y48.4860
G01 Z-1.7000
G01 Z0
G00 Z2.0000
G00 X47.7390 Y32.6110
G01 Z-1.7000
G01 Z0
G00 Z2.0000
G00 X42.6590 Y30.9600
G01 Z-1.7000
G01 Z0
G00 Z2.0000
G00 X43.1670 Y28.5470
G01 Z-1.7000
G01 Z0
G00 Z2.0000
G00 X53.4540 Y16.4820
G01 Z-1.7000
G01 Z0
G00 Z2.0000
G00 X76.8220 Y14.9580
G01 Z-1.7000
G01 Z0
G00 Z2.0000
M05
G00 Z10.00


