(G-CODE GENERATED BY FLATCAM v8.994 - www.flatcam.org - Version Date: 2020/11/7)

(Name: bms test circuit-B_Cu.gbr_iso_combined_cnc)
(Type: G-code from Geometry)
(Units: MM)

(Created on Tuesday, 02 July 2024 at 00:33)

(This preprocessor is the default preprocessor used by FlatCAM.)
(It is made to work with MACH3 compatible motion controllers.)

(TOOL DIAMETER: 0.39 mm)
(Feedrate_XY: 120.0 mm/min)
(Feedrate_Z: 60.0 mm/min)
(Feedrate rapids 1500.0 mm/min)

(Z_Cut: -0.05 mm)
(Z_Move: 2.0 mm)
(Z Start: None mm)
(Z End: 15.0 mm)
(X,Y End: None mm)
(Steps per circle: 64)
(Preprocessor Geometry: default)

(X range:   17.7495 ...  122.6870  mm)
(Y range:    9.9875 ...   69.9665  mm)

(Spindle Speed: 0.0 RPM)
G21
G90
G94

G01 F120.00

M5
G00 Z15.0000
G00 X0.0000 Y0.0000
T1
M6    
(MSG, Change to Tool Dia = 0.3900)
M0
G00 Z15.0000

M03
G01 F120.00
G00 X17.7495 Y10.8915
G01 F60.00
G01 Z-0.0500
G01 F120.00
G01 X17.7504 Y10.8544
G01 X17.7530 Y10.8174
G01 X17.7550 Y10.7989
G01 X17.7603 Y10.7621
G01 X17.7673 Y10.7257
G01 X17.7761 Y10.6896
G01 X17.8008 Y10.6047
G01 X17.8126 Y10.5678
G01 X17.8263 Y10.5316
G01 X17.8417 Y10.4960
G01 X17.8589 Y10.4613
G01 X17.8778 Y10.4275
G01 X17.8983 Y10.3946
G01 X17.9204 Y10.3629
G01 X17.9441 Y10.3322
G01 X17.9693 Y10.3028
G01 X17.9959 Y10.2746
G01 X18.0239 Y10.2478
G01 X18.0912 Y10.1892
G01 X18.1213 Y10.1644
G01 X18.1526 Y10.1412
G01 X18.1850 Y10.1195
G01 X18.2184 Y10.0995
G01 X18.2528 Y10.0812
G01 X18.2881 Y10.0646
G01 X18.3242 Y10.0499
G01 X18.3610 Y10.0369
G01 X18.3796 Y10.0311
G01 X18.4172 Y10.0209
G01 X18.4877 Y10.0053
G01 X18.5059 Y10.0016
G01 X18.5425 Y9.9954
G01 X18.5794 Y9.9910
G01 X18.6164 Y9.9884
G01 X18.6535 Y9.9875
G01 X121.7830 Y9.9875
G01 X121.8201 Y9.9884
G01 X121.8386 Y9.9895
G01 X121.8571 Y9.9910
G01 X121.8940 Y9.9954
G01 X121.9124 Y9.9983
G01 X121.9488 Y10.0053
G01 X121.9849 Y10.0141
G01 X122.0883 Y10.0445
G01 X122.1249 Y10.0572
G01 X122.1608 Y10.0718
G01 X122.1785 Y10.0797
G01 X122.2132 Y10.0969
G01 X122.2302 Y10.1061
G01 X122.2636 Y10.1258
G01 X122.2799 Y10.1363
G01 X122.2959 Y10.1472
G01 X122.3271 Y10.1701
G01 X122.3572 Y10.1945
G01 X122.3860 Y10.2204
G01 X122.3999 Y10.2339
G01 X122.4267 Y10.2619
G01 X122.4979 Y10.3441
G01 X122.5219 Y10.3748
G01 X122.5333 Y10.3906
G01 X122.5550 Y10.4230
G01 X122.5652 Y10.4396
G01 X122.5843 Y10.4735
G01 X122.6018 Y10.5084
G01 X122.6099 Y10.5261
G01 X122.6246 Y10.5622
G01 X122.6314 Y10.5805
G01 X122.6376 Y10.5990
G01 X122.6487 Y10.6363
G01 X122.6580 Y10.6742
G01 X122.6692 Y10.7257
G01 X122.6729 Y10.7439
G01 X122.6791 Y10.7805
G01 X122.6815 Y10.7989
G01 X122.6850 Y10.8359
G01 X122.6868 Y10.8729
G01 X122.6870 Y10.8915
G01 X122.6870 Y69.0625
G01 X122.6861 Y69.0996
G01 X122.6850 Y69.1181
G01 X122.6835 Y69.1366
G01 X122.6791 Y69.1735
G01 X122.6729 Y69.2101
G01 X122.6692 Y69.2283
G01 X122.6604 Y69.2644
G01 X122.6300 Y69.3678
G01 X122.6173 Y69.4044
G01 X122.6027 Y69.4403
G01 X122.5948 Y69.4580
G01 X122.5776 Y69.4927
G01 X122.5684 Y69.5097
G01 X122.5487 Y69.5431
G01 X122.5382 Y69.5594
G01 X122.5273 Y69.5754
G01 X122.5044 Y69.6066
G01 X122.4924 Y69.6218
G01 X122.4672 Y69.6512
G01 X122.4406 Y69.6794
G01 X122.4126 Y69.7062
G01 X122.3304 Y69.7774
G01 X122.2997 Y69.8014
G01 X122.2839 Y69.8128
G01 X122.2515 Y69.8345
G01 X122.2349 Y69.8447
G01 X122.2010 Y69.8638
G01 X122.1837 Y69.8728
G01 X122.1484 Y69.8894
G01 X122.1123 Y69.9041
G01 X122.0940 Y69.9109
G01 X122.0755 Y69.9171
G01 X122.0382 Y69.9282
G01 X122.0003 Y69.9375
G01 X121.9488 Y69.9487
G01 X121.9124 Y69.9557
G01 X121.8940 Y69.9586
G01 X121.8571 Y69.9630
G01 X121.8386 Y69.9645
G01 X121.8201 Y69.9656
G01 X121.7830 Y69.9665
G01 X18.6535 Y69.9665
G01 X18.6349 Y69.9663
G01 X18.5979 Y69.9645
G01 X18.5609 Y69.9610
G01 X18.5241 Y69.9557
G01 X18.5059 Y69.9524
G01 X18.4877 Y69.9487
G01 X18.4516 Y69.9399
G01 X18.3482 Y69.9095
G01 X18.3116 Y69.8968
G01 X18.2757 Y69.8822
G01 X18.2580 Y69.8743
G01 X18.2233 Y69.8571
G01 X18.2063 Y69.8479
G01 X18.1895 Y69.8382
G01 X18.1566 Y69.8177
G01 X18.1249 Y69.7956
G01 X18.0942 Y69.7719
G01 X18.0793 Y69.7595
G01 X18.0648 Y69.7467
G01 X18.0366 Y69.7201
G01 X18.0098 Y69.6921
G01 X17.9386 Y69.6099
G01 X17.9146 Y69.5792
G01 X17.9032 Y69.5634
G01 X17.8815 Y69.5310
G01 X17.8713 Y69.5144
G01 X17.8615 Y69.4976
G01 X17.8432 Y69.4632
G01 X17.8347 Y69.4456
G01 X17.8190 Y69.4099
G01 X17.8051 Y69.3735
G01 X17.7989 Y69.3550
G01 X17.7878 Y69.3177
G01 X17.7785 Y69.2798
G01 X17.7673 Y69.2283
G01 X17.7636 Y69.2101
G01 X17.7574 Y69.1735
G01 X17.7550 Y69.1551
G01 X17.7515 Y69.1181
G01 X17.7497 Y69.0811
G01 X17.7495 Y69.0625
G01 X17.7495 Y10.8915
G00 Z2.0000
G00 X18.0420 Y10.8915
G01 F60.00
G01 Z-0.0500
G01 F120.00
G01 X18.0421 Y10.8799
G01 X18.0432 Y10.8567
G01 X18.0454 Y10.8336
G01 X18.0488 Y10.8107
G01 X18.0531 Y10.7879
G01 X18.0557 Y10.7766
G01 X18.0617 Y10.7542
G01 X18.0814 Y10.6871
G01 X18.0888 Y10.6641
G01 X18.0974 Y10.6414
G01 X18.1070 Y10.6192
G01 X18.1177 Y10.5975
G01 X18.1295 Y10.5764
G01 X18.1424 Y10.5558
G01 X18.1562 Y10.5360
G01 X18.1710 Y10.5168
G01 X18.1868 Y10.4984
G01 X18.2034 Y10.4808
G01 X18.2209 Y10.4641
G01 X18.2827 Y10.4103
G01 X18.2920 Y10.4024
G01 X18.3112 Y10.3874
G01 X18.3311 Y10.3734
G01 X18.3517 Y10.3603
G01 X18.3729 Y10.3484
G01 X18.3947 Y10.3375
G01 X18.4058 Y10.3324
G01 X18.4284 Y10.3232
G01 X18.4398 Y10.3190
G01 X18.4630 Y10.3114
G01 X18.4865 Y10.3051
G01 X18.5499 Y10.2911
G01 X18.5727 Y10.2868
G01 X18.5956 Y10.2834
G01 X18.6072 Y10.2822
G01 X18.6303 Y10.2806
G01 X18.6535 Y10.2800
G01 X121.7830 Y10.2800
G01 X121.8062 Y10.2806
G01 X121.8178 Y10.2812
G01 X121.8293 Y10.2822
G01 X121.8524 Y10.2850
G01 X121.8753 Y10.2888
G01 X121.8979 Y10.2937
G01 X121.9092 Y10.2966
G01 X121.9874 Y10.3194
G01 X122.0104 Y10.3268
G01 X122.0218 Y10.3310
G01 X122.0331 Y10.3354
G01 X122.0553 Y10.3450
G01 X122.0770 Y10.3557
G01 X122.0876 Y10.3615
G01 X122.1085 Y10.3738
G01 X122.1187 Y10.3804
G01 X122.1287 Y10.3872
G01 X122.1482 Y10.4015
G01 X122.1577 Y10.4090
G01 X122.1761 Y10.4248
G01 X122.1850 Y10.4330
G01 X122.2022 Y10.4500
G01 X122.2185 Y10.4679
G01 X122.2642 Y10.5207
G01 X122.2797 Y10.5395
G01 X122.2942 Y10.5591
G01 X122.3011 Y10.5691
G01 X122.3142 Y10.5897
G01 X122.3203 Y10.6003
G01 X122.3317 Y10.6218
G01 X122.3370 Y10.6327
G01 X122.3421 Y10.6438
G01 X122.3513 Y10.6664
G01 X122.3555 Y10.6778
G01 X122.3631 Y10.7010
G01 X122.3694 Y10.7245
G01 X122.3834 Y10.7879
G01 X122.3857 Y10.7992
G01 X122.3895 Y10.8221
G01 X122.3923 Y10.8452
G01 X122.3933 Y10.8567
G01 X122.3939 Y10.8683
G01 X122.3945 Y10.8915
G01 X122.3945 Y69.0625
G01 X122.3939 Y69.0857
G01 X122.3923 Y69.1088
G01 X122.3911 Y69.1204
G01 X122.3895 Y69.1319
G01 X122.3857 Y69.1548
G01 X122.3808 Y69.1774
G01 X122.3779 Y69.1887
G01 X122.3551 Y69.2669
G01 X122.3477 Y69.2899
G01 X122.3435 Y69.3013
G01 X122.3345 Y69.3238
G01 X122.3295 Y69.3348
G01 X122.3188 Y69.3565
G01 X122.3130 Y69.3671
G01 X122.3007 Y69.3880
G01 X122.2941 Y69.3982
G01 X122.2803 Y69.4180
G01 X122.2730 Y69.4277
G01 X122.2655 Y69.4372
G01 X122.2497 Y69.4556
G01 X122.2331 Y69.4732
G01 X122.2245 Y69.4817
G01 X122.2066 Y69.4980
G01 X122.1538 Y69.5437
G01 X122.1350 Y69.5592
G01 X122.1253 Y69.5666
G01 X122.1054 Y69.5806
G01 X122.0951 Y69.5873
G01 X122.0742 Y69.5998
G01 X122.0527 Y69.6112
G01 X122.0418 Y69.6165
G01 X122.0307 Y69.6216
G01 X122.0081 Y69.6308
G01 X121.9852 Y69.6389
G01 X121.9735 Y69.6426
G01 X121.9500 Y69.6489
G01 X121.8866 Y69.6629
G01 X121.8753 Y69.6652
G01 X121.8524 Y69.6690
G01 X121.8409 Y69.6706
G01 X121.8178 Y69.6728
G01 X121.8062 Y69.6734
G01 X121.7830 Y69.6740
G01 X18.6535 Y69.6740
G01 X18.6303 Y69.6734
G01 X18.6187 Y69.6728
G01 X18.5956 Y69.6706
G01 X18.5841 Y69.6690
G01 X18.5612 Y69.6652
G01 X18.5499 Y69.6629
G01 X18.5273 Y69.6574
G01 X18.4491 Y69.6346
G01 X18.4261 Y69.6272
G01 X18.4147 Y69.6230
G01 X18.4034 Y69.6186
G01 X18.3812 Y69.6090
G01 X18.3703 Y69.6038
G01 X18.3489 Y69.5925
G01 X18.3384 Y69.5865
G01 X18.3178 Y69.5736
G01 X18.2980 Y69.5598
G01 X18.2883 Y69.5525
G01 X18.2695 Y69.5372
G01 X18.2604 Y69.5292
G01 X18.2515 Y69.5210
G01 X18.2343 Y69.5040
G01 X18.2180 Y69.4861
G01 X18.1723 Y69.4333
G01 X18.1568 Y69.4145
G01 X18.1494 Y69.4048
G01 X18.1354 Y69.3849
G01 X18.1223 Y69.3643
G01 X18.1162 Y69.3537
G01 X18.1104 Y69.3431
G01 X18.0995 Y69.3213
G01 X18.0944 Y69.3102
G01 X18.0852 Y69.2876
G01 X18.0771 Y69.2647
G01 X18.0701 Y69.2413
G01 X18.0671 Y69.2295
G01 X18.0531 Y69.1661
G01 X18.0488 Y69.1433
G01 X18.0470 Y69.1319
G01 X18.0442 Y69.1088
G01 X18.0432 Y69.0973
G01 X18.0426 Y69.0857
G01 X18.0420 Y69.0625
G01 X18.0420 Y10.8915
G00 Z2.0000
G00 X18.3345 Y10.8915
G01 F60.00
G01 Z-0.0500
G01 F120.00
G01 X18.3350 Y10.8776
G01 X18.3359 Y10.8683
G01 X18.3380 Y10.8546
G01 X18.3400 Y10.8455
G01 X18.3621 Y10.7695
G01 X18.3667 Y10.7557
G01 X18.3703 Y10.7468
G01 X18.3766 Y10.7337
G01 X18.3865 Y10.7170
G01 X18.3979 Y10.7014
G01 X18.4109 Y10.6870
G01 X18.4215 Y10.6771
G01 X18.4818 Y10.6251
G01 X18.4977 Y10.6139
G01 X18.5104 Y10.6066
G01 X18.5191 Y10.6022
G01 X18.5325 Y10.5965
G01 X18.5417 Y10.5933
G01 X18.5605 Y10.5882
G01 X18.6212 Y10.5752
G01 X18.6350 Y10.5734
G01 X18.6535 Y10.5725
G01 X121.7830 Y10.5725
G01 X121.7969 Y10.5730
G01 X121.8108 Y10.5745
G01 X121.8245 Y10.5770
G01 X121.8335 Y10.5791
G01 X121.9142 Y10.6030
G01 X121.9277 Y10.6083
G01 X121.9451 Y10.6169
G01 X121.9575 Y10.6245
G01 X121.9693 Y10.6329
G01 X121.9805 Y10.6422
G01 X121.9909 Y10.6523
G01 X122.0463 Y10.7160
G01 X122.0552 Y10.7276
G01 X122.0656 Y10.7441
G01 X122.0723 Y10.7571
G01 X122.0762 Y10.7660
G01 X122.0812 Y10.7797
G01 X122.0852 Y10.7938
G01 X122.0993 Y10.8592
G01 X122.1011 Y10.8730
G01 X122.1020 Y10.8915
G01 X122.1020 Y69.0625
G01 X122.1018 Y69.0718
G01 X122.1006 Y69.0857
G01 X122.0985 Y69.0994
G01 X122.0954 Y69.1130
G01 X122.0715 Y69.1937
G01 X122.0642 Y69.2116
G01 X122.0576 Y69.2246
G01 X122.0500 Y69.2370
G01 X122.0416 Y69.2488
G01 X122.0323 Y69.2600
G01 X122.0222 Y69.2704
G01 X121.9585 Y69.3258
G01 X121.9469 Y69.3347
G01 X121.9304 Y69.3451
G01 X121.9218 Y69.3497
G01 X121.9085 Y69.3557
G01 X121.8948 Y69.3607
G01 X121.8807 Y69.3647
G01 X121.8153 Y69.3788
G01 X121.7969 Y69.3810
G01 X121.7830 Y69.3815
G01 X18.6535 Y69.3815
G01 X18.6396 Y69.3810
G01 X18.6257 Y69.3795
G01 X18.6166 Y69.3780
G01 X18.6030 Y69.3749
G01 X18.5223 Y69.3510
G01 X18.5088 Y69.3457
G01 X18.4914 Y69.3371
G01 X18.4790 Y69.3295
G01 X18.4672 Y69.3211
G01 X18.4560 Y69.3118
G01 X18.4456 Y69.3017
G01 X18.3902 Y69.2380
G01 X18.3813 Y69.2264
G01 X18.3709 Y69.2099
G01 X18.3663 Y69.2013
G01 X18.3603 Y69.1880
G01 X18.3553 Y69.1743
G01 X18.3513 Y69.1602
G01 X18.3372 Y69.0948
G01 X18.3354 Y69.0810
G01 X18.3345 Y69.0625
G01 X18.3345 Y10.8915
G00 Z2.0000
G00 X20.2992 Y14.2566
G01 F60.00
G01 Z-0.0500
G01 F120.00
G01 X20.3080 Y14.0145
G01 X20.3520 Y13.7761
G01 X20.4303 Y13.5468
G01 X20.5411 Y13.3313
G01 X20.6821 Y13.1342
G01 X20.8503 Y12.9597
G01 X21.0421 Y12.8116
G01 X21.2534 Y12.6930
G01 X21.4798 Y12.6064
G01 X21.7163 Y12.5538
G01 X21.8975 Y12.5405
G01 X22.0792 Y12.5405
G01 X22.3189 Y12.5758
G01 X22.5510 Y12.6456
G01 X22.7704 Y12.7485
G01 X22.9725 Y12.8822
G01 X23.1530 Y13.0439
G01 X23.3080 Y13.2302
G01 X23.4342 Y13.4370
G01 X23.5290 Y13.6600
G01 X23.5903 Y13.8945
G01 X23.6168 Y14.1354
G01 X23.6080 Y14.3775
G01 X23.5640 Y14.6159
G01 X23.4857 Y14.8452
G01 X23.3749 Y15.0607
G01 X23.2339 Y15.2578
G01 X23.0657 Y15.4323
G01 X22.8739 Y15.5804
G01 X22.6626 Y15.6990
G01 X22.4362 Y15.7856
G01 X22.1997 Y15.8382
G01 X22.0185 Y15.8515
G01 X21.8368 Y15.8515
G01 X21.5971 Y15.8162
G01 X21.3650 Y15.7464
G01 X21.1456 Y15.6435
G01 X20.9435 Y15.5098
G01 X20.7630 Y15.3481
G01 X20.6080 Y15.1618
G01 X20.4818 Y14.9550
G01 X20.3870 Y14.7320
G01 X20.3257 Y14.4975
G01 X20.2992 Y14.2566
G00 Z2.0000
G00 X20.5923 Y14.2459
G01 F60.00
G01 Z-0.0500
G01 F120.00
G01 X20.5996 Y14.0465
G01 X20.6358 Y13.8503
G01 X20.7002 Y13.6615
G01 X20.7914 Y13.4841
G01 X20.9075 Y13.3218
G01 X21.0460 Y13.1782
G01 X21.2039 Y13.0562
G01 X21.3779 Y12.9586
G01 X21.5643 Y12.8873
G01 X21.7590 Y12.8439
G01 X21.9082 Y12.8330
G01 X22.0578 Y12.8330
G01 X22.2552 Y12.8621
G01 X22.4462 Y12.9195
G01 X22.6269 Y13.0042
G01 X22.7933 Y13.1143
G01 X22.9419 Y13.2474
G01 X23.0695 Y13.4008
G01 X23.1734 Y13.5711
G01 X23.2514 Y13.7547
G01 X23.3019 Y13.9478
G01 X23.3237 Y14.1461
G01 X23.3164 Y14.3455
G01 X23.2802 Y14.5417
G01 X23.2158 Y14.7305
G01 X23.1246 Y14.9079
G01 X23.0085 Y15.0702
G01 X22.8700 Y15.2138
G01 X22.7121 Y15.3358
G01 X22.5381 Y15.4334
G01 X22.3517 Y15.5047
G01 X22.1570 Y15.5481
G01 X22.0078 Y15.5590
G01 X21.8582 Y15.5590
G01 X21.6608 Y15.5299
G01 X21.4698 Y15.4725
G01 X21.2891 Y15.3878
G01 X21.1227 Y15.2777
G01 X20.9741 Y15.1446
G01 X20.8465 Y14.9912
G01 X20.7426 Y14.8209
G01 X20.6645 Y14.6373
G01 X20.6141 Y14.4442
G01 X20.5923 Y14.2459
G00 Z2.0000
G00 X20.8854 Y14.2352
G01 F60.00
G01 Z-0.0500
G01 F120.00
G01 X20.8911 Y14.0786
G01 X20.9195 Y13.9245
G01 X20.9701 Y13.7762
G01 X21.0418 Y13.6368
G01 X21.1330 Y13.5094
G01 X21.2417 Y13.3966
G01 X21.3658 Y13.3008
G01 X21.5024 Y13.2241
G01 X21.6488 Y13.1681
G01 X21.8017 Y13.1341
G01 X21.9189 Y13.1255
G01 X22.0364 Y13.1255
G01 X22.1914 Y13.1483
G01 X22.3414 Y13.1935
G01 X22.4833 Y13.2600
G01 X22.6140 Y13.3464
G01 X22.7307 Y13.4510
G01 X22.8310 Y13.5715
G01 X22.9126 Y13.7052
G01 X22.9739 Y13.8494
G01 X23.0135 Y14.0010
G01 X23.0306 Y14.1568
G01 X23.0249 Y14.3134
G01 X22.9965 Y14.4675
G01 X22.9459 Y14.6158
G01 X22.8742 Y14.7552
G01 X22.7830 Y14.8826
G01 X22.6743 Y14.9954
G01 X22.5502 Y15.0912
G01 X22.4136 Y15.1679
G01 X22.2672 Y15.2239
G01 X22.1143 Y15.2579
G01 X21.9971 Y15.2665
G01 X21.8797 Y15.2665
G01 X21.7246 Y15.2437
G01 X21.5746 Y15.1985
G01 X21.4327 Y15.1320
G01 X21.3020 Y15.0456
G01 X21.1853 Y14.9410
G01 X21.0850 Y14.8205
G01 X21.0034 Y14.6868
G01 X20.9421 Y14.5426
G01 X20.9025 Y14.3910
G01 X20.8854 Y14.2352
G00 Z2.0000
G00 X41.3490 Y30.9600
G01 F60.00
G01 Z-0.0500
G01 F120.00
G01 X41.3669 Y30.7444
G01 X41.4200 Y30.5347
G01 X41.5069 Y30.3365
G01 X41.6252 Y30.1554
G01 X41.7718 Y29.9962
G01 X41.9425 Y29.8633
G01 X42.0300 Y29.8159
G01 X42.0427 Y29.8080
G01 X42.0508 Y29.8021
G01 X42.0585 Y29.7959
G01 X42.0660 Y29.7893
G01 X42.1118 Y29.7465
G01 X42.1251 Y29.7327
G01 X42.1342 Y29.7216
G01 X42.1450 Y29.7057
G01 X42.1542 Y29.6889
G01 X42.1600 Y29.6757
G01 X42.1662 Y29.6576
G01 X42.1853 Y29.5904
G01 X42.1888 Y29.5763
G01 X42.1912 Y29.5619
G01 X42.1927 Y29.5426
G01 X42.1924 Y29.5233
G01 X42.1901 Y29.5041
G01 X42.1871 Y29.4898
G01 X42.1845 Y29.4805
G01 X42.1643 Y29.4136
G01 X42.1598 Y29.4004
G01 X42.1524 Y29.3834
G01 X42.1434 Y29.3672
G01 X42.0149 Y29.1705
G01 X41.9280 Y28.9723
G01 X41.8749 Y28.7626
G01 X41.8570 Y28.5470
G01 X41.8749 Y28.3314
G01 X41.9280 Y28.1217
G01 X42.0149 Y27.9235
G01 X42.1332 Y27.7424
G01 X42.2798 Y27.5832
G01 X42.4505 Y27.4503
G01 X42.6408 Y27.3474
G01 X42.8454 Y27.2771
G01 X43.0588 Y27.2415
G01 X43.2752 Y27.2415
G01 X43.4886 Y27.2771
G01 X43.6932 Y27.3474
G01 X43.8835 Y27.4503
G01 X44.0542 Y27.5832
G01 X44.2008 Y27.7424
G01 X44.3043 Y27.9008
G01 X44.3124 Y27.9118
G01 X44.3213 Y27.9222
G01 X44.3679 Y27.9686
G01 X44.3788 Y27.9781
G01 X44.3864 Y27.9841
G01 X44.3984 Y27.9922
G01 X44.4110 Y27.9994
G01 X44.4241 Y28.0057
G01 X44.4422 Y28.0125
G01 X44.5228 Y28.0360
G01 X44.5365 Y28.0388
G01 X44.5457 Y28.0401
G01 X44.5642 Y28.0414
G01 X45.8110 Y28.0415
G01 X45.8265 Y28.0410
G01 X45.8647 Y28.0387
G01 X45.9120 Y28.0472
G01 X45.9588 Y28.0529
G01 X45.9828 Y28.0596
G01 X46.0293 Y28.0803
G01 X46.0734 Y28.0972
G01 X46.0951 Y28.1094
G01 X46.1323 Y28.1384
G01 X46.1717 Y28.1658
G01 X46.1971 Y28.1946
G01 X46.2077 Y28.2058
G01 X48.1127 Y30.1107
G01 X48.1245 Y30.1210
G01 X48.1527 Y30.1435
G01 X48.1687 Y30.1540
G01 X48.1857 Y30.1628
G01 X48.1989 Y30.1684
G01 X48.2125 Y30.1729
G01 X48.2840 Y30.1939
G01 X48.2931 Y30.1960
G01 X48.3068 Y30.1985
G01 X48.3206 Y30.2000
G01 X48.3345 Y30.2005
G01 X69.9410 Y30.2005
G01 X69.9565 Y30.2000
G01 X69.9947 Y30.1977
G01 X70.0420 Y30.2062
G01 X70.0888 Y30.2119
G01 X70.1128 Y30.2186
G01 X70.1593 Y30.2393
G01 X70.2034 Y30.2562
G01 X70.2251 Y30.2684
G01 X70.2623 Y30.2974
G01 X70.3017 Y30.3248
G01 X70.3271 Y30.3536
G01 X70.3377 Y30.3648
G01 X71.2363 Y31.2633
G01 X71.2509 Y31.2759
G01 X71.2667 Y31.2870
G01 X71.3417 Y31.3293
G01 X71.3594 Y31.3370
G01 X71.3732 Y31.3417
G01 X71.3872 Y31.3453
G01 X71.4063 Y31.3485
G01 X71.4207 Y31.3497
G01 X71.4304 Y31.3498
G01 X71.5008 Y31.3476
G01 X71.5106 Y31.3470
G01 X71.5252 Y31.3452
G01 X71.5390 Y31.3425
G01 X71.7608 Y31.3055
G01 X71.9772 Y31.3055
G01 X72.1906 Y31.3411
G01 X72.3952 Y31.4114
G01 X72.5855 Y31.5143
G01 X72.7562 Y31.6472
G01 X72.9028 Y31.8064
G01 X73.0211 Y31.9875
G01 X73.1080 Y32.1857
G01 X73.1611 Y32.3954
G01 X73.1790 Y32.6110
G01 X73.1647 Y32.7832
G01 X73.1611 Y32.8266
G01 X73.1080 Y33.0363
G01 X73.0211 Y33.2345
G01 X72.9028 Y33.4156
G01 X72.7562 Y33.5748
G01 X72.5855 Y33.7077
G01 X72.3952 Y33.8106
G01 X72.1906 Y33.8809
G01 X71.9772 Y33.9165
G01 X71.7608 Y33.9165
G01 X71.6182 Y33.8927
G01 X71.6044 Y33.8909
G01 X71.5859 Y33.8900
G01 X71.5345 Y33.8912
G01 X71.5248 Y33.8917
G01 X71.5103 Y33.8934
G01 X71.4959 Y33.8961
G01 X71.4818 Y33.8999
G01 X71.4679 Y33.9047
G01 X71.4545 Y33.9106
G01 X71.3805 Y33.9508
G01 X71.3649 Y33.9608
G01 X71.3503 Y33.9723
G01 X71.3401 Y33.9818
G01 X66.4989 Y38.8230
G01 X66.4883 Y38.8345
G01 X66.4654 Y38.8629
G01 X66.4571 Y38.8746
G01 X66.4474 Y38.8911
G01 X66.4394 Y38.9085
G01 X66.4345 Y38.9220
G01 X66.4121 Y38.9980
G01 X66.4090 Y39.0116
G01 X66.4069 Y39.0254
G01 X66.4057 Y39.0392
G01 X66.4055 Y39.0485
G01 X66.4055 Y43.6370
G01 X66.4060 Y43.6525
G01 X66.4083 Y43.6907
G01 X66.3998 Y43.7380
G01 X66.3941 Y43.7848
G01 X66.3874 Y43.8088
G01 X66.3681 Y43.8519
G01 X66.3499 Y43.8994
G01 X66.3376 Y43.9211
G01 X66.3086 Y43.9583
G01 X66.2812 Y43.9977
G01 X66.2524 Y44.0231
G01 X66.2412 Y44.0337
G01 X65.8163 Y44.4587
G01 X65.8060 Y44.4705
G01 X65.7864 Y44.4949
G01 X65.7755 Y44.5106
G01 X65.7707 Y44.5189
G01 X65.7642 Y44.5317
G01 X65.7586 Y44.5449
G01 X65.7541 Y44.5585
G01 X65.7320 Y44.6345
G01 X65.7285 Y44.6528
G01 X65.7270 Y44.6666
G01 X65.7266 Y44.6759
G01 X65.7265 Y45.8400
G01 X65.7270 Y45.8555
G01 X65.7293 Y45.8937
G01 X65.7208 Y45.9410
G01 X65.7151 Y45.9878
G01 X65.7084 Y46.0118
G01 X65.6891 Y46.0549
G01 X65.6709 Y46.1024
G01 X65.6586 Y46.1241
G01 X65.6295 Y46.1614
G01 X65.6022 Y46.2007
G01 X65.5734 Y46.2261
G01 X65.5622 Y46.2367
G01 X64.0722 Y47.7267
G01 X64.0653 Y47.7339
G01 X64.0588 Y47.7415
G01 X64.0498 Y47.7536
G01 X64.0144 Y47.8102
G01 X64.0073 Y47.8227
G01 X63.9993 Y47.8402
G01 X63.9930 Y47.8583
G01 X63.9885 Y47.8770
G01 X63.9864 Y47.8912
G01 X63.9856 Y47.9007
G01 X63.9826 Y47.9846
G01 X63.9836 Y48.0032
G01 X63.9856 Y48.0169
G01 X63.9874 Y48.0260
G01 X64.0171 Y48.1434
G01 X64.0350 Y48.3590
G01 X64.0171 Y48.5746
G01 X63.9640 Y48.7843
G01 X63.8771 Y48.9825
G01 X63.7588 Y49.1636
G01 X63.6122 Y49.3228
G01 X63.4415 Y49.4557
G01 X63.2512 Y49.5586
G01 X63.0466 Y49.6289
G01 X62.8332 Y49.6645
G01 X62.6168 Y49.6645
G01 X62.4034 Y49.6289
G01 X62.1988 Y49.5586
G01 X62.0085 Y49.4557
G01 X61.8378 Y49.3228
G01 X61.6912 Y49.1636
G01 X61.5729 Y48.9825
G01 X61.4860 Y48.7843
G01 X61.4329 Y48.5746
G01 X61.4150 Y48.3590
G01 X61.4329 Y48.1434
G01 X61.4860 Y47.9337
G01 X61.5729 Y47.7355
G01 X61.6912 Y47.5544
G01 X61.8378 Y47.3952
G01 X62.0085 Y47.2623
G01 X62.1988 Y47.1594
G01 X62.4034 Y47.0891
G01 X62.6168 Y47.0535
G01 X62.8331 Y47.0535
G01 X63.0752 Y47.0942
G01 X63.0895 Y47.0954
G01 X63.1053 Y47.0956
G01 X63.1553 Y47.0984
G01 X63.1695 Y47.0984
G01 X63.1837 Y47.0973
G01 X63.2023 Y47.0943
G01 X63.2206 Y47.0895
G01 X63.2384 Y47.0830
G01 X63.2554 Y47.0747
G01 X63.3167 Y47.0412
G01 X63.3248 Y47.0366
G01 X63.3364 Y47.0289
G01 X63.3474 Y47.0204
G01 X63.3612 Y47.0080
G01 X64.6221 Y45.7470
G01 X64.6327 Y45.7355
G01 X64.6556 Y45.7071
G01 X64.6639 Y45.6954
G01 X64.6736 Y45.6789
G01 X64.6816 Y45.6615
G01 X64.6879 Y45.6435
G01 X64.7089 Y45.5720
G01 X64.7128 Y45.5538
G01 X64.7150 Y45.5354
G01 X64.7155 Y45.5215
G01 X64.7155 Y44.3620
G01 X64.7150 Y44.3465
G01 X64.7127 Y44.3082
G01 X64.7212 Y44.2610
G01 X64.7269 Y44.2142
G01 X64.7336 Y44.1902
G01 X64.7529 Y44.1471
G01 X64.7712 Y44.0996
G01 X64.7834 Y44.0779
G01 X64.8124 Y44.0407
G01 X64.8398 Y44.0013
G01 X64.8685 Y43.9759
G01 X64.8799 Y43.9653
G01 X65.3011 Y43.5440
G01 X65.3117 Y43.5325
G01 X65.3346 Y43.5041
G01 X65.3455 Y43.4884
G01 X65.3526 Y43.4759
G01 X65.3588 Y43.4629
G01 X65.3655 Y43.4450
G01 X65.3890 Y43.3645
G01 X65.3918 Y43.3508
G01 X65.3931 Y43.3416
G01 X65.3944 Y43.3231
G01 X65.3945 Y42.2028
G01 X65.3939 Y42.1872
G01 X65.3905 Y42.1556
G01 X65.3885 Y42.1414
G01 X65.3865 Y42.1320
G01 X65.3841 Y42.1228
G01 X65.3797 Y42.1091
G01 X65.3761 Y42.1002
G01 X65.3701 Y42.0872
G01 X65.3297 Y42.0136
G01 X65.3193 Y41.9983
G01 X65.3106 Y41.9874
G01 X65.3011 Y41.9772
G01 X64.9842 Y41.6604
G01 X64.9988 Y41.6011
G01 X65.0105 Y41.5237
G01 X65.0124 Y41.5047
G01 X65.0160 Y41.4265
G01 X65.0124 Y41.3483
G01 X65.0105 Y41.3293
G01 X64.9988 Y41.2519
G01 X64.9842 Y41.1926
G01 X65.3011 Y40.8758
G01 X65.3117 Y40.8642
G01 X65.3317 Y40.8396
G01 X65.3402 Y40.8281
G01 X65.3503 Y40.8118
G01 X65.3568 Y40.7990
G01 X65.3624 Y40.7858
G01 X65.3669 Y40.7722
G01 X65.3866 Y40.7051
G01 X65.3910 Y40.6871
G01 X65.3936 Y40.6687
G01 X65.3945 Y40.6502
G01 X65.3943 Y39.8382
G01 X65.3937 Y39.8285
G01 X65.3919 Y39.8141
G01 X65.3901 Y39.8046
G01 X65.3865 Y39.7905
G01 X65.3622 Y39.7147
G01 X65.3569 Y39.7012
G01 X65.3483 Y39.6839
G01 X65.3408 Y39.6715
G01 X65.3323 Y39.6597
G01 X65.3262 Y39.6521
G01 X65.3164 Y39.6415
G01 X65.3020 Y39.6284
G01 X65.2405 Y39.5781
G01 X65.2244 Y39.5673
G01 X65.2116 Y39.5603
G01 X65.2029 Y39.5562
G01 X65.1939 Y39.5525
G01 X65.1802 Y39.5478
G01 X65.1614 Y39.5432
G01 X65.1470 Y39.5409
G01 X65.0680 Y39.5318
G01 X65.0535 Y39.5314
G01 X65.0438 Y39.5317
G01 X65.0342 Y39.5325
G01 X65.0198 Y39.5345
G01 X65.0009 Y39.5390
G01 X64.9917 Y39.5419
G01 X64.9781 Y39.5471
G01 X64.9065 Y39.5817
G01 X64.8902 Y39.5906
G01 X64.8786 Y39.5983
G01 X64.8641 Y39.6098
G01 X64.7295 Y39.7323
G01 X64.5711 Y39.8304
G01 X64.4396 Y39.8815
G01 X64.4168 Y39.8919
G01 X64.4083 Y39.8963
G01 X64.4000 Y39.9011
G01 X64.3880 Y39.9091
G01 X64.3804 Y39.9149
G01 X64.3695 Y39.9243
G01 X64.3092 Y39.9833
G01 X64.3028 Y39.9906
G01 X64.2939 Y40.0020
G01 X64.2884 Y40.0100
G01 X64.2810 Y40.0225
G01 X64.2745 Y40.0355
G01 X64.2707 Y40.0444
G01 X64.2659 Y40.0581
G01 X64.2633 Y40.0674
G01 X64.2445 Y40.1497
G01 X64.2420 Y40.1689
G01 X64.2414 Y40.1834
G01 X64.2419 Y40.1979
G01 X64.2435 Y40.2124
G01 X64.2461 Y40.2267
G01 X64.2485 Y40.2360
G01 X64.2529 Y40.2499
G01 X64.2765 Y40.3157
G01 X64.2819 Y40.3291
G01 X64.2860 Y40.3379
G01 X64.2906 Y40.3464
G01 X64.2983 Y40.3588
G01 X64.3099 Y40.3743
G01 X64.3196 Y40.3851
G01 X64.3264 Y40.3919
G01 X64.3412 Y40.4044
G01 X64.4041 Y40.4525
G01 X64.4158 Y40.4600
G01 X64.4239 Y40.4646
G01 X64.4322 Y40.4687
G01 X64.4442 Y40.4739
G01 X64.3549 Y40.5633
G01 X64.2956 Y40.5487
G01 X64.2182 Y40.5370
G01 X64.1992 Y40.5351
G01 X64.1210 Y40.5315
G01 X64.0428 Y40.5351
G01 X64.0238 Y40.5370
G01 X63.9464 Y40.5487
G01 X63.8871 Y40.5633
G01 X63.7978 Y40.4739
G01 X63.8208 Y40.4637
G01 X63.8337 Y40.4573
G01 X63.8461 Y40.4499
G01 X63.8578 Y40.4416
G01 X63.8725 Y40.4293
G01 X63.9260 Y40.3772
G01 X63.9392 Y40.3630
G01 X63.9481 Y40.3515
G01 X63.9536 Y40.3435
G01 X63.9586 Y40.3353
G01 X63.9654 Y40.3224
G01 X63.9694 Y40.3136
G01 X63.9746 Y40.3000
G01 X63.9799 Y40.2814
G01 X63.9975 Y40.2038
G01 X63.9996 Y40.1895
G01 X64.0003 Y40.1798
G01 X64.0005 Y40.1653
G01 X64.0001 Y40.1556
G01 X63.9992 Y40.1460
G01 X63.9969 Y40.1316
G01 X63.9935 Y40.1175
G01 X63.9907 Y40.1082
G01 X63.9638 Y40.0333
G01 X63.9581 Y40.0200
G01 X63.9514 Y40.0071
G01 X63.9437 Y39.9948
G01 X63.9352 Y39.9830
G01 X63.9258 Y39.9720
G01 X63.9156 Y39.9616
G01 X63.9008 Y39.9491
G01 X63.8454 Y39.9065
G01 X63.8302 Y39.8959
G01 X63.8140 Y39.8868
G01 X63.8013 Y39.8810
G01 X63.6709 Y39.8304
G01 X63.5125 Y39.7323
G01 X63.3747 Y39.6068
G01 X63.2624 Y39.4581
G01 X63.1794 Y39.2913
G01 X63.1284 Y39.1120
G01 X63.1112 Y38.9265
G01 X63.1284 Y38.7409
G01 X63.1794 Y38.5617
G01 X63.2624 Y38.3949
G01 X63.3747 Y38.2462
G01 X63.5125 Y38.1207
G01 X63.6797 Y38.0168
G01 X63.6915 Y38.0080
G01 X63.7272 Y37.9775
G01 X63.7407 Y37.9642
G01 X63.7499 Y37.9535
G01 X63.7610 Y37.9381
G01 X63.7705 Y37.9217
G01 X63.8036 Y37.8496
G01 X63.8092 Y37.8362
G01 X63.8150 Y37.8177
G01 X63.8189 Y37.7988
G01 X63.8206 Y37.7844
G01 X63.8212 Y37.7650
G01 X63.8204 Y37.7505
G01 X63.8193 Y37.7409
G01 X63.8077 Y37.6622
G01 X63.8044 Y37.6480
G01 X63.8016 Y37.6388
G01 X63.7984 Y37.6296
G01 X63.7927 Y37.6163
G01 X63.7883 Y37.6076
G01 X63.7810 Y37.5951
G01 X63.7756 Y37.5870
G01 X63.7668 Y37.5755
G01 X63.7147 Y37.5154
G01 X63.7045 Y37.5050
G01 X63.6936 Y37.4954
G01 X63.6820 Y37.4867
G01 X63.6698 Y37.4788
G01 X63.6570 Y37.4719
G01 X63.6438 Y37.4660
G01 X63.6255 Y37.4596
G01 X63.5495 Y37.4375
G01 X63.5313 Y37.4340
G01 X63.5128 Y37.4322
G01 X63.3836 Y37.4320
G01 X63.3587 Y37.4293
G01 X63.2731 Y37.3974
G01 X63.2028 Y37.3447
G01 X63.1501 Y37.2744
G01 X63.1182 Y37.1888
G01 X63.1155 Y37.1639
G01 X63.1155 Y35.6891
G01 X63.1182 Y35.6642
G01 X63.1501 Y35.5786
G01 X63.2028 Y35.5083
G01 X63.2731 Y35.4556
G01 X63.3587 Y35.4237
G01 X63.3836 Y35.4210
G01 X64.8584 Y35.4210
G01 X64.8833 Y35.4237
G01 X64.9689 Y35.4556
G01 X65.0392 Y35.5083
G01 X65.0919 Y35.5786
G01 X65.1238 Y35.6642
G01 X65.1265 Y35.6891
G01 X65.1265 Y37.1639
G01 X65.1238 Y37.1888
G01 X65.0919 Y37.2744
G01 X65.0392 Y37.3447
G01 X64.9689 Y37.3974
G01 X64.8833 Y37.4293
G01 X64.8584 Y37.4320
G01 X64.7385 Y37.4320
G01 X64.7238 Y37.4326
G01 X64.7091 Y37.4342
G01 X64.6722 Y37.4399
G01 X64.6582 Y37.4425
G01 X64.6491 Y37.4448
G01 X64.6400 Y37.4476
G01 X64.6267 Y37.4526
G01 X64.6138 Y37.4585
G01 X64.6014 Y37.4653
G01 X64.5353 Y37.5091
G01 X64.5197 Y37.5207
G01 X64.5054 Y37.5337
G01 X64.4955 Y37.5443
G01 X64.4836 Y37.5596
G01 X64.4758 Y37.5718
G01 X64.4667 Y37.5890
G01 X64.4349 Y37.6619
G01 X64.4299 Y37.6755
G01 X64.4272 Y37.6848
G01 X64.4239 Y37.6990
G01 X64.4223 Y37.7085
G01 X64.4209 Y37.7230
G01 X64.4205 Y37.7326
G01 X64.4206 Y37.7423
G01 X64.4217 Y37.7568
G01 X64.4349 Y37.8402
G01 X64.4381 Y37.8543
G01 X64.4423 Y37.8682
G01 X64.4496 Y37.8862
G01 X64.4585 Y37.9033
G01 X64.4692 Y37.9195
G01 X64.4814 Y37.9346
G01 X64.5311 Y37.9900
G01 X64.5410 Y37.9998
G01 X64.5516 Y38.0089
G01 X64.5628 Y38.0171
G01 X64.5706 Y38.0222
G01 X64.7295 Y38.1207
G01 X64.8673 Y38.2462
G01 X64.9913 Y38.4101
G01 X65.0183 Y38.4399
G01 X65.0290 Y38.4498
G01 X65.0404 Y38.4589
G01 X65.0525 Y38.4672
G01 X65.0651 Y38.4744
G01 X65.1408 Y38.5119
G01 X65.1543 Y38.5172
G01 X65.1681 Y38.5215
G01 X65.1871 Y38.5256
G01 X65.2015 Y38.5274
G01 X65.2208 Y38.5281
G01 X65.2353 Y38.5275
G01 X65.3096 Y38.5193
G01 X65.3240 Y38.5172
G01 X65.3428 Y38.5127
G01 X65.3611 Y38.5064
G01 X65.3744 Y38.5004
G01 X65.3913 Y38.4910
G01 X65.4033 Y38.4829
G01 X65.4110 Y38.4770
G01 X65.4653 Y38.4330
G01 X65.4791 Y38.4207
G01 X65.4887 Y38.4106
G01 X65.4975 Y38.3998
G01 X65.5188 Y38.3693
G01 X65.5475 Y38.3439
G01 X65.5589 Y38.3333
G01 X70.5475 Y33.3447
G01 X70.5544 Y33.3374
G01 X70.5640 Y33.3259
G01 X70.5699 Y33.3178
G01 X70.5754 Y33.3094
G01 X70.6053 Y33.2611
G01 X70.6124 Y33.2486
G01 X70.6204 Y33.2312
G01 X70.6267 Y33.2130
G01 X70.6311 Y33.1944
G01 X70.6337 Y33.1754
G01 X70.6371 Y33.0913
G01 X70.6370 Y33.0821
G01 X70.6360 Y33.0682
G01 X70.6348 Y33.0590
G01 X70.6322 Y33.0453
G01 X70.5769 Y32.8266
G01 X70.5590 Y32.6110
G01 X70.5769 Y32.3954
G01 X70.6066 Y32.2777
G01 X70.6094 Y32.2629
G01 X70.6106 Y32.2530
G01 X70.6114 Y32.2380
G01 X70.6124 Y32.1812
G01 X70.6117 Y32.1620
G01 X70.6100 Y32.1477
G01 X70.6083 Y32.1383
G01 X70.6049 Y32.1243
G01 X70.6004 Y32.1106
G01 X70.5950 Y32.0973
G01 X70.5908 Y32.0887
G01 X70.5528 Y32.0191
G01 X70.5480 Y32.0111
G01 X70.5400 Y31.9997
G01 X70.5343 Y31.9924
G01 X70.5250 Y31.9820
G01 X69.8443 Y31.3013
G01 X69.8325 Y31.2910
G01 X69.8081 Y31.2714
G01 X69.8004 Y31.2658
G01 X69.7841 Y31.2557
G01 X69.7756 Y31.2512
G01 X69.7625 Y31.2454
G01 X69.7445 Y31.2391
G01 X69.6685 Y31.2170
G01 X69.6594 Y31.2150
G01 X69.6456 Y31.2129
G01 X69.6318 Y31.2117
G01 X69.6225 Y31.2115
G01 X48.9524 Y31.2115
G01 X48.9408 Y31.2117
G01 X48.9262 Y31.2128
G01 X48.9165 Y31.2142
G01 X48.9022 Y31.2172
G01 X48.8881 Y31.2212
G01 X48.8125 Y31.2461
G01 X48.7948 Y31.2539
G01 X48.7821 Y31.2609
G01 X48.7739 Y31.2661
G01 X48.7660 Y31.2717
G01 X48.7547 Y31.2808
G01 X48.7407 Y31.2941
G01 X48.7311 Y31.3050
G01 X48.6869 Y31.3592
G01 X48.6782 Y31.3708
G01 X48.6703 Y31.3830
G01 X48.6656 Y31.3914
G01 X48.6593 Y31.4045
G01 X48.6540 Y31.4181
G01 X48.6497 Y31.4319
G01 X48.6456 Y31.4509
G01 X48.6360 Y31.5347
G01 X48.6354 Y31.5444
G01 X48.6353 Y31.5589
G01 X48.6364 Y31.5734
G01 X48.6377 Y31.5830
G01 X48.6406 Y31.5972
G01 X48.6431 Y31.6066
G01 X48.6460 Y31.6158
G01 X48.6513 Y31.6293
G01 X48.6863 Y31.7008
G01 X48.6953 Y31.7170
G01 X48.7058 Y31.7323
G01 X48.7146 Y31.7431
G01 X48.7728 Y31.8064
G01 X48.8911 Y31.9875
G01 X48.9780 Y32.1857
G01 X49.0311 Y32.3954
G01 X49.0490 Y32.6110
G01 X49.0311 Y32.8266
G01 X49.0025 Y32.9394
G01 X49.0003 Y32.9492
G01 X48.9980 Y32.9640
G01 X48.9970 Y32.9740
G01 X48.9966 Y32.9840
G01 X48.9956 Y33.0456
G01 X48.9963 Y33.0600
G01 X48.9980 Y33.0743
G01 X49.0019 Y33.0931
G01 X49.0060 Y33.1069
G01 X49.0111 Y33.1203
G01 X49.0195 Y33.1376
G01 X49.0529 Y33.1989
G01 X49.0576 Y33.2069
G01 X49.0652 Y33.2185
G01 X49.0767 Y33.2331
G01 X49.0862 Y33.2433
G01 X52.5252 Y36.6823
G01 X52.5364 Y36.6929
G01 X52.5652 Y36.7183
G01 X52.5926 Y36.7577
G01 X52.6216 Y36.7949
G01 X52.6338 Y36.8166
G01 X52.6521 Y36.8641
G01 X52.6714 Y36.9072
G01 X52.6781 Y36.9312
G01 X52.6838 Y36.9780
G01 X52.6923 Y37.0253
G01 X52.6900 Y37.0635
G01 X52.6895 Y37.0790
G01 X52.6895 Y47.0851
G01 X52.6901 Y47.0998
G01 X52.6917 Y47.1144
G01 X52.6945 Y47.1289
G01 X52.7110 Y47.1935
G01 X52.7167 Y47.2117
G01 X52.7241 Y47.2292
G01 X52.7307 Y47.2419
G01 X52.7410 Y47.2579
G01 X52.7497 Y47.2692
G01 X52.7625 Y47.2833
G01 X52.8121 Y47.3325
G01 X52.8223 Y47.3420
G01 X52.8295 Y47.3479
G01 X52.8408 Y47.3560
G01 X52.8526 Y47.3634
G01 X52.9005 Y47.3893
G01 X53.0712 Y47.5222
G01 X53.2178 Y47.6814
G01 X53.3361 Y47.8625
G01 X53.4230 Y48.0607
G01 X53.4761 Y48.2704
G01 X53.4940 Y48.4860
G01 X53.4761 Y48.7016
G01 X53.4230 Y48.9113
G01 X53.3361 Y49.1095
G01 X53.2178 Y49.2906
G01 X53.0712 Y49.4498
G01 X52.9005 Y49.5827
G01 X52.7102 Y49.6856
G01 X52.5056 Y49.7559
G01 X52.2922 Y49.7915
G01 X52.0758 Y49.7915
G01 X51.8624 Y49.7559
G01 X51.6578 Y49.6856
G01 X51.4675 Y49.5827
G01 X51.2968 Y49.4498
G01 X51.1502 Y49.2906
G01 X51.0319 Y49.1095
G01 X50.9450 Y48.9113
G01 X50.8919 Y48.7016
G01 X50.8740 Y48.4860
G01 X50.8919 Y48.2704
G01 X50.9450 Y48.0607
G01 X51.0319 Y47.8625
G01 X51.1502 Y47.6814
G01 X51.2968 Y47.5222
G01 X51.4675 Y47.3893
G01 X51.5156 Y47.3632
G01 X51.5240 Y47.3581
G01 X51.5361 Y47.3497
G01 X51.5511 Y47.3371
G01 X51.5964 Y47.2951
G01 X51.6065 Y47.2850
G01 X51.6129 Y47.2779
G01 X51.6217 Y47.2666
G01 X51.6321 Y47.2507
G01 X51.6388 Y47.2381
G01 X51.6464 Y47.2206
G01 X51.6509 Y47.2070
G01 X51.6719 Y47.1355
G01 X51.6758 Y47.1174
G01 X51.6780 Y47.0990
G01 X51.6785 Y47.0851
G01 X51.6785 Y37.3975
G01 X51.6779 Y37.3819
G01 X51.6733 Y37.3408
G01 X51.6694 Y37.3221
G01 X51.6637 Y37.3038
G01 X51.6601 Y37.2949
G01 X51.6541 Y37.2819
G01 X51.6137 Y37.2083
G01 X51.6060 Y37.1967
G01 X51.6005 Y37.1893
G01 X51.5915 Y37.1787
G01 X51.5851 Y37.1720
G01 X48.3752 Y33.9620
G01 X48.3682 Y33.9554
G01 X48.3571 Y33.9461
G01 X48.3413 Y33.9350
G01 X48.2706 Y33.8949
G01 X48.2531 Y33.8867
G01 X48.2348 Y33.8803
G01 X48.2208 Y33.8767
G01 X48.2065 Y33.8741
G01 X48.1921 Y33.8726
G01 X48.1727 Y33.8723
G01 X48.1072 Y33.8744
G01 X48.0877 Y33.8760
G01 X48.0690 Y33.8795
G01 X47.8472 Y33.9165
G01 X47.6308 Y33.9165
G01 X47.4174 Y33.8809
G01 X47.2128 Y33.8106
G01 X47.0225 Y33.7077
G01 X47.0043 Y33.6939
G01 X46.9792 Y33.6774
G01 X46.9668 Y33.6703
G01 X46.9495 Y33.6623
G01 X46.9361 Y33.6574
G01 X46.9224 Y33.6535
G01 X46.8447 Y33.6366
G01 X46.8352 Y33.6350
G01 X46.8207 Y33.6336
G01 X46.8013 Y33.6333
G01 X46.7917 Y33.6338
G01 X46.7773 Y33.6356
G01 X46.7630 Y33.6384
G01 X46.7536 Y33.6409
G01 X46.7399 Y33.6454
G01 X46.6744 Y33.6699
G01 X46.6610 Y33.6754
G01 X46.6438 Y33.6844
G01 X46.6356 Y33.6895
G01 X46.6238 Y33.6979
G01 X46.6090 Y33.7105
G01 X46.5988 Y33.7208
G01 X46.5924 Y33.7281
G01 X46.5446 Y33.7916
G01 X46.5363 Y33.8036
G01 X46.5313 Y33.8119
G01 X46.5246 Y33.8247
G01 X46.5206 Y33.8336
G01 X46.5156 Y33.8472
G01 X46.5115 Y33.8612
G01 X46.5094 Y33.8706
G01 X46.5066 Y33.8898
G01 X46.5009 Y33.9691
G01 X46.5008 Y33.9836
G01 X46.5017 Y33.9981
G01 X46.5046 Y34.0173
G01 X46.5081 Y34.0314
G01 X46.5143 Y34.0497
G01 X46.5201 Y34.0630
G01 X46.5627 Y34.1410
G01 X46.5731 Y34.1564
G01 X46.5818 Y34.1672
G01 X46.5880 Y34.1741
G01 X49.6042 Y37.1903
G01 X49.6154 Y37.2009
G01 X49.6442 Y37.2263
G01 X49.6716 Y37.2657
G01 X49.7006 Y37.3029
G01 X49.7128 Y37.3246
G01 X49.7311 Y37.3721
G01 X49.7504 Y37.4152
G01 X49.7571 Y37.4392
G01 X49.7628 Y37.4860
G01 X49.7713 Y37.5333
G01 X49.7690 Y37.5715
G01 X49.7685 Y37.5870
G01 X49.7685 Y49.1605
G01 X49.7691 Y49.1761
G01 X49.7737 Y49.2172
G01 X49.7776 Y49.2359
G01 X49.7833 Y49.2542
G01 X49.7888 Y49.2674
G01 X49.7929 Y49.2761
G01 X49.8333 Y49.3497
G01 X49.8383 Y49.3575
G01 X49.8465 Y49.3687
G01 X49.8524 Y49.3759
G01 X49.8619 Y49.3860
G01 X53.3160 Y52.8401
G01 X53.3275 Y52.8507
G01 X53.3597 Y52.8765
G01 X53.3716 Y52.8845
G01 X53.3884 Y52.8938
G01 X53.4015 Y52.8996
G01 X53.4150 Y52.9045
G01 X53.4866 Y52.9256
G01 X53.5001 Y52.9290
G01 X53.5092 Y52.9308
G01 X53.5230 Y52.9326
G01 X53.5415 Y52.9335
G01 X72.3813 Y52.9333
G01 X72.3949 Y52.9322
G01 X72.4085 Y52.9301
G01 X72.4636 Y52.9184
G01 X72.4823 Y52.9134
G01 X72.4959 Y52.9085
G01 X72.5135 Y52.9003
G01 X72.5301 Y52.8905
G01 X72.5457 Y52.8791
G01 X72.6061 Y52.8276
G01 X72.6161 Y52.8179
G01 X72.6254 Y52.8076
G01 X72.6340 Y52.7966
G01 X72.6393 Y52.7890
G01 X72.7402 Y52.6344
G01 X72.8868 Y52.4752
G01 X73.0575 Y52.3423
G01 X73.2478 Y52.2394
G01 X73.4524 Y52.1691
G01 X73.6658 Y52.1335
G01 X73.8822 Y52.1335
G01 X74.0956 Y52.1691
G01 X74.3002 Y52.2394
G01 X74.4905 Y52.3423
G01 X74.6612 Y52.4752
G01 X74.8078 Y52.6344
G01 X74.9261 Y52.8155
G01 X75.0130 Y53.0137
G01 X75.0661 Y53.2234
G01 X75.0840 Y53.4390
G01 X75.0661 Y53.6546
G01 X75.0130 Y53.8643
G01 X74.9261 Y54.0625
G01 X74.8078 Y54.2436
G01 X74.6612 Y54.4028
G01 X74.4905 Y54.5357
G01 X74.3002 Y54.6386
G01 X74.0956 Y54.7089
G01 X73.8822 Y54.7445
G01 X73.6658 Y54.7445
G01 X73.4524 Y54.7089
G01 X73.2478 Y54.6386
G01 X73.0575 Y54.5357
G01 X72.8868 Y54.4028
G01 X72.7402 Y54.2436
G01 X72.6393 Y54.0890
G01 X72.6314 Y54.0778
G01 X72.6257 Y54.0707
G01 X72.6166 Y54.0605
G01 X72.5766 Y54.0208
G01 X72.5659 Y54.0110
G01 X72.5546 Y54.0019
G01 X72.5384 Y53.9913
G01 X72.5213 Y53.9823
G01 X72.5034 Y53.9750
G01 X72.4182 Y53.9500
G01 X72.4000 Y53.9465
G01 X72.3815 Y53.9447
G01 X53.2230 Y53.9445
G01 X53.2075 Y53.9450
G01 X53.1693 Y53.9473
G01 X53.1220 Y53.9388
G01 X53.0752 Y53.9331
G01 X53.0512 Y53.9264
G01 X53.0081 Y53.9071
G01 X52.9606 Y53.8888
G01 X52.9389 Y53.8766
G01 X52.9017 Y53.8476
G01 X52.8623 Y53.8202
G01 X52.8369 Y53.7914
G01 X52.8263 Y53.7802
G01 X48.9218 Y49.8757
G01 X48.9106 Y49.8651
G01 X48.8818 Y49.8397
G01 X48.8545 Y49.8003
G01 X48.8254 Y49.7631
G01 X48.8132 Y49.7414
G01 X48.7963 Y49.6973
G01 X48.7756 Y49.6508
G01 X48.7689 Y49.6268
G01 X48.7632 Y49.5800
G01 X48.7547 Y49.5327
G01 X48.7570 Y49.4945
G01 X48.7575 Y49.4790
G01 X48.7575 Y37.9055
G01 X48.7572 Y37.8951
G01 X48.7564 Y37.8847
G01 X48.7530 Y37.8536
G01 X48.7506 Y37.8394
G01 X48.7484 Y37.8301
G01 X48.7443 Y37.8163
G01 X48.7391 Y37.8029
G01 X48.7331 Y37.7899
G01 X48.6973 Y37.7244
G01 X48.6902 Y37.7124
G01 X48.6795 Y37.6973
G01 X48.6705 Y37.6867
G01 X48.6641 Y37.6800
G01 X43.2952 Y32.3110
G01 X43.2845 Y32.3012
G01 X43.2693 Y32.2893
G01 X43.2571 Y32.2814
G01 X43.1948 Y32.2463
G01 X43.1819 Y32.2396
G01 X43.1686 Y32.2340
G01 X43.1502 Y32.2280
G01 X43.1313 Y32.2238
G01 X43.1121 Y32.2216
G01 X43.0927 Y32.2213
G01 X43.0272 Y32.2234
G01 X43.0077 Y32.2250
G01 X42.9890 Y32.2285
G01 X42.7672 Y32.2655
G01 X42.5508 Y32.2655
G01 X42.3374 Y32.2299
G01 X42.1328 Y32.1596
G01 X42.1265 Y32.1562
G01 X41.9425 Y32.0567
G01 X41.7718 Y31.9238
G01 X41.6252 Y31.7646
G01 X41.5069 Y31.5835
G01 X41.4200 Y31.3853
G01 X41.3669 Y31.1756
G01 X41.3490 Y30.9600
G00 Z2.0000
G00 X43.1762 Y32.0360
G01 F60.00
G01 Z-0.0500
G01 F120.00
G01 X43.1251 Y32.0602
G01 X43.1119 Y32.0658
G01 X43.0150 Y32.1005
G01 X43.0013 Y32.1049
G01 X42.8921 Y32.1320
G01 X42.7856 Y32.1481
G01 X42.7714 Y32.1497
G01 X42.6590 Y32.1550
G01 X42.5419 Y32.1492
G01 X42.4259 Y32.1320
G01 X42.3213 Y32.1061
G01 X42.3075 Y32.1021
G01 X42.2017 Y32.0640
G01 X42.0957 Y32.0139
G01 X41.9951 Y31.9536
G01 X41.9009 Y31.8837
G01 X41.8140 Y31.8050
G01 X41.7353 Y31.7181
G01 X41.6654 Y31.6239
G01 X41.6098 Y31.5316
G01 X41.6029 Y31.5191
G01 X41.5550 Y31.4173
G01 X41.5155 Y31.3069
G01 X41.4870 Y31.1931
G01 X41.4698 Y31.0771
G01 X41.4640 Y30.9600
G01 X41.4698 Y30.8429
G01 X41.4870 Y30.7269
G01 X41.5155 Y30.6131
G01 X41.5550 Y30.5027
G01 X41.6051 Y30.3967
G01 X41.6654 Y30.2961
G01 X41.7353 Y30.2019
G01 X41.8140 Y30.1150
G01 X41.9009 Y30.0363
G01 X41.9951 Y29.9664
G01 X42.0874 Y29.9108
G01 X42.0999 Y29.9039
G01 X42.2017 Y29.8560
G01 X42.3030 Y29.8195
G01 X42.3213 Y29.8139
G01 X42.4165 Y29.7901
G01 X42.4353 Y29.7863
G01 X42.5419 Y29.7708
G01 X42.6590 Y29.7650
G01 X42.7761 Y29.7708
G01 X42.8827 Y29.7863
G01 X42.9015 Y29.7901
G01 X42.9967 Y29.8139
G01 X43.0150 Y29.8195
G01 X43.1163 Y29.8560
G01 X43.2223 Y29.9061
G01 X43.3148 Y29.9613
G01 X43.3307 Y29.9719
G01 X43.4171 Y30.0363
G01 X43.5040 Y30.1150
G01 X43.5827 Y30.2019
G01 X43.6471 Y30.2883
G01 X43.6577 Y30.3042
G01 X43.7129 Y30.3967
G01 X43.7630 Y30.5027
G01 X43.7995 Y30.6040
G01 X43.8051 Y30.6223
G01 X43.8289 Y30.7175
G01 X43.8319 Y30.7316
G01 X43.8482 Y30.8429
G01 X43.8538 Y30.9504
G01 X43.8538 Y30.9696
G01 X43.8489 Y31.0676
G01 X43.8477 Y31.0819
G01 X43.8310 Y31.1931
G01 X43.8039 Y31.3023
G01 X43.7995 Y31.3160
G01 X43.7648 Y31.4129
G01 X43.7592 Y31.4261
G01 X43.7350 Y31.4772
G01 X49.5424 Y37.2846
G01 X49.5684 Y37.3134
G01 X49.5888 Y37.3405
G01 X49.5941 Y37.3485
G01 X49.6067 Y37.3694
G01 X49.6158 Y37.3863
G01 X49.6261 Y37.4084
G01 X49.6315 Y37.4217
G01 X49.6411 Y37.4493
G01 X49.6484 Y37.4776
G01 X49.6514 Y37.4916
G01 X49.6557 Y37.5205
G01 X49.6569 Y37.5348
G01 X49.6581 Y37.5640
G01 X49.6581 Y49.3383
G01 X53.3637 Y53.0439
G01 X72.6475 Y53.0439
G01 X72.6665 Y52.9906
G01 X72.6718 Y52.9773
G01 X72.7158 Y52.8842
G01 X72.7224 Y52.8715
G01 X72.7804 Y52.7751
G01 X72.8473 Y52.6846
G01 X72.8565 Y52.6737
G01 X72.9224 Y52.6009
G01 X72.9359 Y52.5874
G01 X73.0159 Y52.5153
G01 X73.1023 Y52.4509
G01 X73.1141 Y52.4428
G01 X73.2107 Y52.3851
G01 X73.3079 Y52.3388
G01 X73.3256 Y52.3315
G01 X73.4180 Y52.2985
G01 X73.4363 Y52.2929
G01 X73.5409 Y52.2670
G01 X73.6569 Y52.2498
G01 X73.7740 Y52.2440
G01 X73.8816 Y52.2491
G01 X73.9006 Y52.2509
G01 X74.0071 Y52.2670
G01 X74.1117 Y52.2929
G01 X74.1300 Y52.2985
G01 X74.2313 Y52.3350
G01 X74.3288 Y52.3808
G01 X74.3456 Y52.3898
G01 X74.4379 Y52.4454
G01 X74.5246 Y52.5094
G01 X74.5393 Y52.5215
G01 X74.6190 Y52.5940
G01 X74.6915 Y52.6737
G01 X74.7036 Y52.6884
G01 X74.7676 Y52.7751
G01 X74.8232 Y52.8674
G01 X74.8322 Y52.8842
G01 X74.8780 Y52.9817
G01 X74.9145 Y53.0830
G01 X74.9201 Y53.1013
G01 X74.9460 Y53.2059
G01 X74.9621 Y53.3124
G01 X74.9639 Y53.3314
G01 X74.9690 Y53.4390
G01 X74.9639 Y53.5466
G01 X74.9621 Y53.5656
G01 X74.9460 Y53.6721
G01 X74.9201 Y53.7767
G01 X74.9145 Y53.7950
G01 X74.8780 Y53.8963
G01 X74.8322 Y53.9938
G01 X74.8232 Y54.0106
G01 X74.7727 Y54.0948
G01 X74.7649 Y54.1069
G01 X74.7036 Y54.1896
G01 X74.6915 Y54.2043
G01 X74.6190 Y54.2840
G01 X74.5393 Y54.3565
G01 X74.5246 Y54.3686
G01 X74.4379 Y54.4326
G01 X74.3373 Y54.4929
G01 X74.2401 Y54.5392
G01 X74.2224 Y54.5465
G01 X74.1209 Y54.5825
G01 X74.0165 Y54.6089
G01 X73.9977 Y54.6127
G01 X73.8911 Y54.6282
G01 X73.7836 Y54.6338
G01 X73.7692 Y54.6339
G01 X73.6569 Y54.6282
G01 X73.5503 Y54.6127
G01 X73.5315 Y54.6089
G01 X73.4271 Y54.5825
G01 X73.3167 Y54.5430
G01 X73.2192 Y54.4972
G01 X73.2024 Y54.4882
G01 X73.1182 Y54.4377
G01 X73.1061 Y54.4299
G01 X73.0159 Y54.3627
G01 X72.9359 Y54.2906
G01 X72.9224 Y54.2771
G01 X72.8565 Y54.2043
G01 X72.8473 Y54.1934
G01 X72.7804 Y54.1029
G01 X72.7224 Y54.0065
G01 X72.7158 Y53.9938
G01 X72.6718 Y53.9007
G01 X72.6665 Y53.8874
G01 X72.6475 Y53.8341
G01 X53.2000 Y53.8341
G01 X53.1660 Y53.8326
G01 X53.1518 Y53.8310
G01 X53.1229 Y53.8265
G01 X53.0853 Y53.8171
G01 X53.0488 Y53.8040
G01 X53.0223 Y53.7918
G01 X53.0054 Y53.7827
G01 X52.9845 Y53.7701
G01 X52.9765 Y53.7648
G01 X52.9494 Y53.7444
G01 X52.9206 Y53.7184
G01 X48.9836 Y49.7814
G01 X48.9607 Y49.7563
G01 X48.9517 Y49.7451
G01 X48.9345 Y49.7215
G01 X48.9169 Y49.6924
G01 X48.9102 Y49.6797
G01 X48.8980 Y49.6532
G01 X48.8864 Y49.6213
G01 X48.8824 Y49.6075
G01 X48.8755 Y49.5791
G01 X48.8710 Y49.5502
G01 X48.8694 Y49.5360
G01 X48.8679 Y49.5020
G01 X48.8679 Y37.7277
G01 X43.1762 Y32.0360
G00 Z2.0000
G00 X44.6528 Y29.5271
G01 F60.00
G01 Z-0.0500
G01 F120.00
G01 X45.4280 Y29.5271
G01 X46.9279 Y31.0270
G01 X46.8999 Y31.0412
G01 X46.8831 Y31.0504
G01 X46.7824 Y31.1105
G01 X46.7501 Y31.1310
G01 X46.7188 Y31.1530
G01 X46.6400 Y31.2115
G01 X46.6098 Y31.2350
G01 X46.5808 Y31.2600
G01 X46.5081 Y31.3260
G01 X46.4804 Y31.3524
G01 X46.4540 Y31.3801
G01 X46.3880 Y31.4528
G01 X46.3630 Y31.4818
G01 X46.3395 Y31.5120
G01 X46.2810 Y31.5908
G01 X46.2590 Y31.6221
G01 X46.2385 Y31.6544
G01 X46.1784 Y31.7551
G01 X46.1604 Y31.7889
G01 X46.1100 Y31.8948
G01 X46.0945 Y31.9298
G01 X46.0807 Y31.9655
G01 X46.0414 Y32.0760
G01 X46.0303 Y32.1127
G01 X46.0016 Y32.2264
G01 X45.9932 Y32.2637
G01 X45.9867 Y32.3015
G01 X45.9723 Y32.3985
G01 X45.9676 Y32.4365
G01 X45.9648 Y32.4747
G01 X45.9599 Y32.5727
G01 X45.9590 Y32.6110
G01 X45.9599 Y32.6493
G01 X45.9659 Y32.7664
G01 X45.9697 Y32.8045
G01 X45.9834 Y32.8983
G01 X44.4026 Y31.3175
G01 X44.4083 Y31.2884
G01 X44.4113 Y31.2695
G01 X44.4257 Y31.1725
G01 X44.4304 Y31.1345
G01 X44.4332 Y31.0963
G01 X44.4381 Y30.9983
G01 X44.4390 Y30.9600
G01 X44.4381 Y30.9217
G01 X44.4332 Y30.8237
G01 X44.4304 Y30.7855
G01 X44.4257 Y30.7475
G01 X44.4083 Y30.6316
G01 X44.4008 Y30.5940
G01 X44.3964 Y30.5754
G01 X44.3726 Y30.4802
G01 X44.3624 Y30.4433
G01 X44.3503 Y30.4069
G01 X44.3106 Y30.2966
G01 X44.2960 Y30.2612
G01 X44.2880 Y30.2438
G01 X44.2376 Y30.1379
G01 X44.2196 Y30.1041
G01 X44.1685 Y30.0184
G01 X44.1872 Y30.0050
G01 X44.2660 Y29.9465
G01 X44.2962 Y29.9230
G01 X44.3252 Y29.8980
G01 X44.3979 Y29.8320
G01 X44.4256 Y29.8056
G01 X44.4520 Y29.7779
G01 X44.5180 Y29.7052
G01 X44.5430 Y29.6762
G01 X44.5665 Y29.6460
G01 X44.6250 Y29.5672
G01 X44.6362 Y29.5517
G01 X44.6528 Y29.5271
G00 Z2.0000
G00 X44.4858 Y29.2346
G01 F60.00
G01 Z-0.0500
G01 F120.00
G01 X45.5492 Y29.2346
G01 X47.4639 Y31.1493
G01 X47.4488 Y31.1521
G01 X47.4255 Y31.1573
G01 X47.3303 Y31.1812
G01 X47.3072 Y31.1876
G01 X47.2845 Y31.1951
G01 X47.1921 Y31.2281
G01 X47.1698 Y31.2367
G01 X47.1479 Y31.2464
G01 X47.0592 Y31.2884
G01 X47.0378 Y31.2991
G01 X47.0170 Y31.3109
G01 X46.9328 Y31.3614
G01 X46.9126 Y31.3742
G01 X46.9027 Y31.3810
G01 X46.8047 Y31.4537
G01 X46.7862 Y31.4689
G01 X46.7772 Y31.4768
G01 X46.7045 Y31.5427
G01 X46.6872 Y31.5592
G01 X46.6707 Y31.5765
G01 X46.6048 Y31.6492
G01 X46.5891 Y31.6673
G01 X46.5744 Y31.6862
G01 X46.5160 Y31.7650
G01 X46.5022 Y31.7846
G01 X46.4894 Y31.8048
G01 X46.4389 Y31.8890
G01 X46.4271 Y31.9098
G01 X46.4216 Y31.9204
G01 X46.3744 Y32.0199
G01 X46.3647 Y32.0418
G01 X46.3561 Y32.0641
G01 X46.3231 Y32.1565
G01 X46.3156 Y32.1792
G01 X46.3092 Y32.2023
G01 X46.2853 Y32.2975
G01 X46.2801 Y32.3208
G01 X46.2760 Y32.3444
G01 X46.2616 Y32.4415
G01 X46.2587 Y32.4652
G01 X46.2569 Y32.4891
G01 X46.2521 Y32.5871
G01 X46.2515 Y32.6110
G01 X46.2521 Y32.6349
G01 X46.2569 Y32.7329
G01 X46.2587 Y32.7568
G01 X46.2616 Y32.7805
G01 X46.2760 Y32.8776
G01 X46.2801 Y32.9012
G01 X46.2853 Y32.9245
G01 X46.3092 Y33.0197
G01 X46.3156 Y33.0428
G01 X46.3231 Y33.0655
G01 X46.3561 Y33.1579
G01 X46.3647 Y33.1802
G01 X46.3744 Y33.2021
G01 X46.4164 Y33.2908
G01 X46.4216 Y33.3016
G01 X46.4329 Y33.3227
G01 X46.4894 Y33.4172
G01 X46.4979 Y33.4309
G01 X46.4752 Y33.4449
G01 X46.4553 Y33.4587
G01 X46.4456 Y33.4660
G01 X46.4361 Y33.4734
G01 X46.4176 Y33.4891
G01 X46.4000 Y33.5057
G01 X46.3832 Y33.5231
G01 X46.3673 Y33.5414
G01 X46.3597 Y33.5508
G01 X46.3104 Y33.6163
G01 X46.3009 Y33.6295
G01 X44.0778 Y31.4063
G01 X44.0824 Y31.3918
G01 X44.0888 Y31.3687
G01 X44.1127 Y31.2735
G01 X44.1179 Y31.2502
G01 X44.1220 Y31.2266
G01 X44.1364 Y31.1295
G01 X44.1393 Y31.1058
G01 X44.1411 Y31.0819
G01 X44.1459 Y30.9839
G01 X44.1465 Y30.9600
G01 X44.1459 Y30.9361
G01 X44.1411 Y30.8381
G01 X44.1393 Y30.8142
G01 X44.1364 Y30.7905
G01 X44.1220 Y30.6934
G01 X44.1201 Y30.6816
G01 X44.1154 Y30.6581
G01 X44.0888 Y30.5513
G01 X44.0824 Y30.5282
G01 X44.0749 Y30.5055
G01 X44.0419 Y30.4131
G01 X44.0333 Y30.3908
G01 X44.0236 Y30.3689
G01 X43.9816 Y30.2802
G01 X43.9709 Y30.2588
G01 X43.9591 Y30.2380
G01 X43.9086 Y30.1538
G01 X43.8958 Y30.1336
G01 X43.8820 Y30.1140
G01 X43.8236 Y30.0352
G01 X43.8089 Y30.0163
G01 X43.7932 Y29.9982
G01 X43.7269 Y29.9250
G01 X43.7472 Y29.9166
G01 X43.7581 Y29.9116
G01 X43.8468 Y29.8696
G01 X43.8682 Y29.8589
G01 X43.8890 Y29.8471
G01 X43.9732 Y29.7966
G01 X43.9934 Y29.7838
G01 X44.0130 Y29.7700
G01 X44.0918 Y29.7116
G01 X44.1107 Y29.6969
G01 X44.1288 Y29.6812
G01 X44.2015 Y29.6153
G01 X44.2188 Y29.5988
G01 X44.2353 Y29.5815
G01 X44.3091 Y29.4998
G01 X44.3243 Y29.4813
G01 X44.3316 Y29.4718
G01 X44.3900 Y29.3930
G01 X44.3970 Y29.3833
G01 X44.4103 Y29.3634
G01 X44.4671 Y29.2690
G01 X44.4789 Y29.2482
G01 X44.4858 Y29.2346
G00 Z2.0000
G00 X44.2935 Y28.9421
G01 F60.00
G01 Z-0.0500
G01 F120.00
G01 X44.2745 Y28.9954
G01 X44.2692 Y29.0087
G01 X44.2252 Y29.1018
G01 X44.2186 Y29.1145
G01 X44.1606 Y29.2109
G01 X44.0966 Y29.2976
G01 X44.0877 Y29.3088
G01 X44.0120 Y29.3920
G01 X43.9251 Y29.4707
G01 X43.8309 Y29.5406
G01 X43.7386 Y29.5962
G01 X43.7261 Y29.6031
G01 X43.6243 Y29.6510
G01 X43.5139 Y29.6905
G01 X43.4001 Y29.7190
G01 X43.2841 Y29.7362
G01 X43.1670 Y29.7420
G01 X43.0499 Y29.7362
G01 X42.9339 Y29.7190
G01 X42.8293 Y29.6931
G01 X42.8155 Y29.6891
G01 X42.7097 Y29.6510
G01 X42.6037 Y29.6009
G01 X42.5031 Y29.5406
G01 X42.4089 Y29.4707
G01 X42.3220 Y29.3920
G01 X42.2433 Y29.3051
G01 X42.1734 Y29.2109
G01 X42.1131 Y29.1103
G01 X42.0630 Y29.0043
G01 X42.0235 Y28.8939
G01 X41.9950 Y28.7801
G01 X41.9778 Y28.6641
G01 X41.9720 Y28.5470
G01 X41.9778 Y28.4299
G01 X41.9950 Y28.3139
G01 X42.0209 Y28.2093
G01 X42.0249 Y28.1955
G01 X42.0630 Y28.0897
G01 X42.1088 Y27.9922
G01 X42.1178 Y27.9754
G01 X42.1683 Y27.8912
G01 X42.1789 Y27.8753
G01 X42.2433 Y27.7889
G01 X42.3220 Y27.7020
G01 X42.4089 Y27.6233
G01 X42.4953 Y27.5589
G01 X42.5112 Y27.5483
G01 X42.5954 Y27.4978
G01 X42.6122 Y27.4888
G01 X42.7097 Y27.4430
G01 X42.8201 Y27.4035
G01 X42.9339 Y27.3750
G01 X43.0404 Y27.3589
G01 X43.0594 Y27.3571
G01 X43.1670 Y27.3520
G01 X43.2746 Y27.3571
G01 X43.2936 Y27.3589
G01 X43.4001 Y27.3750
G01 X43.5139 Y27.4035
G01 X43.6243 Y27.4430
G01 X43.7218 Y27.4888
G01 X43.7386 Y27.4978
G01 X43.8228 Y27.5483
G01 X43.8349 Y27.5561
G01 X43.9251 Y27.6233
G01 X44.0051 Y27.6954
G01 X44.0186 Y27.7089
G01 X44.0845 Y27.7817
G01 X44.0937 Y27.7926
G01 X44.1606 Y27.8831
G01 X44.2186 Y27.9795
G01 X44.2252 Y27.9922
G01 X44.2692 Y28.0853
G01 X44.2745 Y28.0986
G01 X44.2935 Y28.1519
G01 X45.8340 Y28.1519
G01 X45.8727 Y28.1538
G01 X45.9064 Y28.1586
G01 X45.9158 Y28.1605
G01 X45.9395 Y28.1664
G01 X45.9578 Y28.1719
G01 X45.9808 Y28.1802
G01 X45.9939 Y28.1859
G01 X46.0202 Y28.1986
G01 X46.0454 Y28.2134
G01 X46.0575 Y28.2212
G01 X46.0809 Y28.2386
G01 X46.0919 Y28.2478
G01 X46.1100 Y28.2643
G01 X48.1567 Y30.3109
G01 X69.9640 Y30.3109
G01 X69.9980 Y30.3124
G01 X70.0122 Y30.3140
G01 X70.0411 Y30.3185
G01 X70.0787 Y30.3279
G01 X70.1152 Y30.3410
G01 X70.1417 Y30.3532
G01 X70.1586 Y30.3623
G01 X70.1795 Y30.3749
G01 X70.1875 Y30.3802
G01 X70.2146 Y30.4006
G01 X70.2364 Y30.4200
G01 X71.3518 Y31.5350
G01 X71.4029 Y31.5108
G01 X71.4161 Y31.5052
G01 X71.5175 Y31.4689
G01 X71.5313 Y31.4649
G01 X71.6265 Y31.4411
G01 X71.6406 Y31.4381
G01 X71.7519 Y31.4218
G01 X71.8594 Y31.4162
G01 X71.8786 Y31.4162
G01 X71.9766 Y31.4211
G01 X71.9909 Y31.4223
G01 X72.1021 Y31.4390
G01 X72.2067 Y31.4649
G01 X72.2250 Y31.4705
G01 X72.3263 Y31.5070
G01 X72.4238 Y31.5528
G01 X72.4406 Y31.5618
G01 X72.5329 Y31.6174
G01 X72.6234 Y31.6843
G01 X72.6343 Y31.6935
G01 X72.7140 Y31.7660
G01 X72.7865 Y31.8457
G01 X72.7986 Y31.8604
G01 X72.8626 Y31.9471
G01 X72.9182 Y32.0394
G01 X72.9272 Y32.0562
G01 X72.9730 Y32.1537
G01 X73.0095 Y32.2550
G01 X73.0151 Y32.2733
G01 X73.0410 Y32.3779
G01 X73.0571 Y32.4844
G01 X73.0589 Y32.5034
G01 X73.0640 Y32.6110
G01 X73.0589 Y32.7186
G01 X73.0577 Y32.7329
G01 X73.0410 Y32.8441
G01 X73.0151 Y32.9487
G01 X73.0095 Y32.9670
G01 X72.9765 Y33.0594
G01 X72.9692 Y33.0771
G01 X72.9229 Y33.1743
G01 X72.8677 Y33.2668
G01 X72.8571 Y33.2827
G01 X72.7927 Y33.3691
G01 X72.7140 Y33.4560
G01 X72.6271 Y33.5347
G01 X72.5407 Y33.5991
G01 X72.5248 Y33.6097
G01 X72.4323 Y33.6649
G01 X72.3351 Y33.7112
G01 X72.3174 Y33.7185
G01 X72.2250 Y33.7515
G01 X72.2067 Y33.7571
G01 X72.1021 Y33.7830
G01 X71.9861 Y33.8002
G01 X71.8690 Y33.8060
G01 X71.7614 Y33.8009
G01 X71.7424 Y33.7991
G01 X71.6453 Y33.7847
G01 X71.6265 Y33.7809
G01 X71.5221 Y33.7545
G01 X71.4406 Y33.7256
G01 X66.2951 Y38.8707
G01 X66.2951 Y43.6600
G01 X66.2932 Y43.6987
G01 X66.2875 Y43.7371
G01 X66.2806 Y43.7655
G01 X66.2766 Y43.7793
G01 X66.2650 Y43.8112
G01 X66.2484 Y43.8462
G01 X66.2336 Y43.8714
G01 X66.2230 Y43.8873
G01 X66.2084 Y43.9069
G01 X66.2023 Y43.9143
G01 X66.1794 Y43.9394
G01 X65.6161 Y44.5027
G01 X65.6160 Y45.8678
G01 X65.6142 Y45.9017
G01 X65.6094 Y45.9354
G01 X65.6075 Y45.9448
G01 X65.6016 Y45.9685
G01 X65.5961 Y45.9868
G01 X65.5878 Y46.0098
G01 X65.5821 Y46.0229
G01 X65.5694 Y46.0492
G01 X65.5546 Y46.0744
G01 X65.5468 Y46.0865
G01 X65.5294 Y46.1099
G01 X65.5202 Y46.1209
G01 X65.5037 Y46.1390
G01 X63.8010 Y47.8418
G01 X63.8252 Y47.8929
G01 X63.8308 Y47.9061
G01 X63.8671 Y48.0075
G01 X63.8711 Y48.0213
G01 X63.8949 Y48.1165
G01 X63.8979 Y48.1306
G01 X63.9142 Y48.2419
G01 X63.9198 Y48.3494
G01 X63.9198 Y48.3686
G01 X63.9149 Y48.4666
G01 X63.9137 Y48.4809
G01 X63.8970 Y48.5921
G01 X63.8711 Y48.6967
G01 X63.8655 Y48.7150
G01 X63.8290 Y48.8163
G01 X63.7832 Y48.9138
G01 X63.7742 Y48.9306
G01 X63.7186 Y49.0229
G01 X63.6487 Y49.1171
G01 X63.5766 Y49.1971
G01 X63.5631 Y49.2106
G01 X63.4831 Y49.2827
G01 X63.3967 Y49.3471
G01 X63.3808 Y49.3577
G01 X63.2883 Y49.4129
G01 X63.1823 Y49.4630
G01 X63.0810 Y49.4995
G01 X63.0627 Y49.5051
G01 X62.9581 Y49.5310
G01 X62.8516 Y49.5471
G01 X62.8326 Y49.5489
G01 X62.7250 Y49.5540
G01 X62.6174 Y49.5489
G01 X62.6031 Y49.5477
G01 X62.4919 Y49.5310
G01 X62.3873 Y49.5051
G01 X62.3690 Y49.4995
G01 X62.2766 Y49.4665
G01 X62.2589 Y49.4592
G01 X62.1617 Y49.4129
G01 X62.0692 Y49.3577
G01 X62.0533 Y49.3471
G01 X61.9669 Y49.2827
G01 X61.8800 Y49.2040
G01 X61.8013 Y49.1171
G01 X61.7314 Y49.0229
G01 X61.6711 Y48.9223
G01 X61.6210 Y48.8163
G01 X61.5815 Y48.7059
G01 X61.5551 Y48.6015
G01 X61.5513 Y48.5827
G01 X61.5358 Y48.4761
G01 X61.5302 Y48.3686
G01 X61.5302 Y48.3494
G01 X61.5351 Y48.2514
G01 X61.5369 Y48.2324
G01 X61.5530 Y48.1259
G01 X61.5801 Y48.0167
G01 X61.5845 Y48.0030
G01 X61.6210 Y47.9017
G01 X61.6711 Y47.7957
G01 X61.7314 Y47.6951
G01 X61.7954 Y47.6084
G01 X61.8075 Y47.5937
G01 X61.8734 Y47.5209
G01 X61.8869 Y47.5074
G01 X61.9669 Y47.4353
G01 X62.0533 Y47.3709
G01 X62.0692 Y47.3603
G01 X62.1617 Y47.3051
G01 X62.2633 Y47.2568
G01 X62.2766 Y47.2515
G01 X62.3781 Y47.2155
G01 X62.4919 Y47.1870
G01 X62.6079 Y47.1698
G01 X62.7154 Y47.1642
G01 X62.7298 Y47.1641
G01 X62.8421 Y47.1698
G01 X62.9487 Y47.1853
G01 X62.9628 Y47.1880
G01 X63.0627 Y47.2129
G01 X63.0765 Y47.2169
G01 X63.1779 Y47.2532
G01 X63.1911 Y47.2588
G01 X63.2422 Y47.2830
G01 X64.8259 Y45.6993
G01 X64.8259 Y44.3390
G01 X64.8278 Y44.3003
G01 X64.8319 Y44.2713
G01 X64.8345 Y44.2572
G01 X64.8429 Y44.2243
G01 X64.8525 Y44.1967
G01 X64.8579 Y44.1834
G01 X64.8703 Y44.1570
G01 X64.8773 Y44.1444
G01 X64.8925 Y44.1195
G01 X64.9097 Y44.0959
G01 X64.9187 Y44.0847
G01 X64.9350 Y44.0666
G01 X65.5049 Y43.4963
G01 X65.5049 Y38.7070
G01 X65.5068 Y38.6683
G01 X65.5109 Y38.6393
G01 X65.5135 Y38.6252
G01 X65.5194 Y38.6015
G01 X65.5234 Y38.5877
G01 X65.5332 Y38.5602
G01 X65.5389 Y38.5471
G01 X65.5516 Y38.5208
G01 X65.5715 Y38.4875
G01 X65.5946 Y38.4564
G01 X65.6206 Y38.4276
G01 X70.8370 Y33.2113
G01 X70.8198 Y33.1826
G01 X70.8129 Y33.1701
G01 X70.7668 Y33.0727
G01 X70.7615 Y33.0594
G01 X70.7285 Y32.9670
G01 X70.7241 Y32.9533
G01 X70.6991 Y32.8535
G01 X70.6953 Y32.8347
G01 X70.6798 Y32.7281
G01 X70.6742 Y32.6206
G01 X70.6742 Y32.6014
G01 X70.6798 Y32.4939
G01 X70.6953 Y32.3873
G01 X70.6980 Y32.3732
G01 X70.7229 Y32.2733
G01 X70.7269 Y32.2595
G01 X70.7632 Y32.1581
G01 X70.7688 Y32.1449
G01 X70.7930 Y32.0938
G01 X69.8003 Y31.1011
G01 X47.9930 Y31.1011
G01 X47.9638 Y31.0999
G01 X47.9495 Y31.0987
G01 X47.9159 Y31.0935
G01 X47.8783 Y31.0841
G01 X47.8418 Y31.0710
G01 X47.8153 Y31.0588
G01 X47.7984 Y31.0497
G01 X47.7775 Y31.0371
G01 X47.7695 Y31.0318
G01 X47.7424 Y31.0114
G01 X47.7170 Y30.9887
G01 X45.6703 Y28.9421
G01 X44.2935 Y28.9421
G00 Z2.0000
G00 X48.2562 Y33.6870
G01 F60.00
G01 Z-0.0500
G01 F120.00
G01 X48.2051 Y33.7112
G01 X48.1919 Y33.7168
G01 X48.0950 Y33.7515
G01 X48.0813 Y33.7559
G01 X47.9721 Y33.7830
G01 X47.8656 Y33.7991
G01 X47.8514 Y33.8007
G01 X47.7390 Y33.8060
G01 X47.6219 Y33.8002
G01 X47.5059 Y33.7830
G01 X47.4013 Y33.7571
G01 X47.3875 Y33.7531
G01 X47.2817 Y33.7150
G01 X47.1757 Y33.6649
G01 X47.0751 Y33.6046
G01 X46.9809 Y33.5347
G01 X46.8940 Y33.4560
G01 X46.8153 Y33.3691
G01 X46.7454 Y33.2749
G01 X46.6898 Y33.1826
G01 X46.6829 Y33.1701
G01 X46.6350 Y33.0683
G01 X46.5955 Y32.9579
G01 X46.5670 Y32.8441
G01 X46.5498 Y32.7281
G01 X46.5440 Y32.6110
G01 X46.5498 Y32.4939
G01 X46.5670 Y32.3779
G01 X46.5955 Y32.2641
G01 X46.6350 Y32.1537
G01 X46.6851 Y32.0477
G01 X46.7454 Y31.9471
G01 X46.8153 Y31.8529
G01 X46.8940 Y31.7660
G01 X46.9809 Y31.6873
G01 X47.0751 Y31.6174
G01 X47.1674 Y31.5618
G01 X47.1799 Y31.5549
G01 X47.2817 Y31.5070
G01 X47.3830 Y31.4705
G01 X47.4013 Y31.4649
G01 X47.4965 Y31.4411
G01 X47.5153 Y31.4373
G01 X47.6219 Y31.4218
G01 X47.7390 Y31.4160
G01 X47.8561 Y31.4218
G01 X47.9627 Y31.4373
G01 X47.9815 Y31.4411
G01 X48.0767 Y31.4649
G01 X48.0950 Y31.4705
G01 X48.1963 Y31.5070
G01 X48.3023 Y31.5571
G01 X48.3948 Y31.6123
G01 X48.4107 Y31.6229
G01 X48.4971 Y31.6873
G01 X48.5840 Y31.7660
G01 X48.6627 Y31.8529
G01 X48.7271 Y31.9393
G01 X48.7377 Y31.9552
G01 X48.7929 Y32.0477
G01 X48.8430 Y32.1537
G01 X48.8795 Y32.2550
G01 X48.8851 Y32.2733
G01 X48.9089 Y32.3685
G01 X48.9119 Y32.3826
G01 X48.9282 Y32.4939
G01 X48.9338 Y32.6014
G01 X48.9338 Y32.6206
G01 X48.9289 Y32.7186
G01 X48.9277 Y32.7329
G01 X48.9110 Y32.8441
G01 X48.8839 Y32.9533
G01 X48.8795 Y32.9670
G01 X48.8448 Y33.0639
G01 X48.8392 Y33.0771
G01 X48.8150 Y33.1282
G01 X52.4634 Y36.7766
G01 X52.4863 Y36.8017
G01 X52.4953 Y36.8129
G01 X52.5125 Y36.8365
G01 X52.5277 Y36.8614
G01 X52.5347 Y36.8740
G01 X52.5490 Y36.9048
G01 X52.5591 Y36.9322
G01 X52.5634 Y36.9459
G01 X52.5715 Y36.9789
G01 X52.5760 Y37.0078
G01 X52.5776 Y37.0220
G01 X52.5791 Y37.0560
G01 X52.5791 Y47.3595
G01 X52.6324 Y47.3785
G01 X52.6457 Y47.3838
G01 X52.7388 Y47.4278
G01 X52.7515 Y47.4344
G01 X52.8479 Y47.4924
G01 X52.9384 Y47.5593
G01 X52.9493 Y47.5685
G01 X53.0221 Y47.6344
G01 X53.0356 Y47.6479
G01 X53.1077 Y47.7279
G01 X53.1749 Y47.8181
G01 X53.1827 Y47.8302
G01 X53.2332 Y47.9144
G01 X53.2422 Y47.9312
G01 X53.2880 Y48.0287
G01 X53.3275 Y48.1391
G01 X53.3560 Y48.2529
G01 X53.3721 Y48.3594
G01 X53.3739 Y48.3784
G01 X53.3790 Y48.4860
G01 X53.3732 Y48.6031
G01 X53.3577 Y48.7097
G01 X53.3539 Y48.7285
G01 X53.3301 Y48.8237
G01 X53.3245 Y48.8420
G01 X53.2880 Y48.9433
G01 X53.2379 Y49.0493
G01 X53.1776 Y49.1499
G01 X53.1136 Y49.2366
G01 X53.1015 Y49.2513
G01 X53.0356 Y49.3241
G01 X53.0221 Y49.3376
G01 X52.9421 Y49.4097
G01 X52.8479 Y49.4796
G01 X52.7473 Y49.5399
G01 X52.6501 Y49.5862
G01 X52.6324 Y49.5935
G01 X52.5400 Y49.6265
G01 X52.5263 Y49.6309
G01 X52.4171 Y49.6580
G01 X52.3106 Y49.6741
G01 X52.2916 Y49.6759
G01 X52.1936 Y49.6808
G01 X52.1744 Y49.6808
G01 X52.0669 Y49.6752
G01 X51.9603 Y49.6597
G01 X51.9415 Y49.6559
G01 X51.8371 Y49.6295
G01 X51.7267 Y49.5900
G01 X51.6207 Y49.5399
G01 X51.5201 Y49.4796
G01 X51.4259 Y49.4097
G01 X51.3459 Y49.3376
G01 X51.3324 Y49.3241
G01 X51.2603 Y49.2441
G01 X51.1959 Y49.1577
G01 X51.1853 Y49.1418
G01 X51.1348 Y49.0576
G01 X51.1258 Y49.0408
G01 X51.0800 Y48.9433
G01 X51.0405 Y48.8329
G01 X51.0120 Y48.7191
G01 X50.9959 Y48.6126
G01 X50.9941 Y48.5936
G01 X50.9890 Y48.4860
G01 X50.9948 Y48.3689
G01 X51.0120 Y48.2529
G01 X51.0379 Y48.1483
G01 X51.0435 Y48.1300
G01 X51.0765 Y48.0376
G01 X51.0838 Y48.0199
G01 X51.1301 Y47.9227
G01 X51.1878 Y47.8261
G01 X51.1959 Y47.8143
G01 X51.2603 Y47.7279
G01 X51.3324 Y47.6479
G01 X51.3459 Y47.6344
G01 X51.4187 Y47.5685
G01 X51.4296 Y47.5593
G01 X51.5201 Y47.4924
G01 X51.6165 Y47.4344
G01 X51.6292 Y47.4278
G01 X51.7223 Y47.3838
G01 X51.7356 Y47.3785
G01 X51.7889 Y47.3595
G01 X51.7889 Y37.2197
G01 X48.2562 Y33.6870
G00 Z2.0000
G00 X60.4874 Y37.2568
G01 F60.00
G01 Z-0.0500
G01 F120.00
G01 X60.4697 Y37.2495
G01 X60.3991 Y37.2158
G01 X60.3238 Y37.1707
G01 X60.2532 Y37.1183
G01 X60.1881 Y37.0594
G01 X60.1292 Y36.9943
G01 X60.0768 Y36.9237
G01 X60.0317 Y36.8484
G01 X59.9941 Y36.7690
G01 X59.9645 Y36.6863
G01 X59.9432 Y36.6011
G01 X59.9303 Y36.5142
G01 X59.9260 Y36.4265
G01 X59.9303 Y36.3388
G01 X59.9432 Y36.2519
G01 X59.9645 Y36.1667
G01 X59.9941 Y36.0840
G01 X60.0317 Y36.0046
G01 X60.0768 Y35.9293
G01 X60.1292 Y35.8587
G01 X60.1881 Y35.7936
G01 X60.2532 Y35.7347
G01 X60.3238 Y35.6823
G01 X60.3991 Y35.6372
G01 X60.4785 Y35.5996
G01 X60.5612 Y35.5700
G01 X60.6464 Y35.5487
G01 X60.7333 Y35.5358
G01 X60.8210 Y35.5315
G01 X60.9087 Y35.5358
G01 X60.9956 Y35.5487
G01 X61.0808 Y35.5700
G01 X61.1635 Y35.5996
G01 X61.2429 Y35.6372
G01 X61.3182 Y35.6823
G01 X61.3888 Y35.7347
G01 X61.4539 Y35.7936
G01 X61.5128 Y35.8587
G01 X61.5652 Y35.9293
G01 X61.6103 Y36.0046
G01 X61.6479 Y36.0840
G01 X61.6775 Y36.1667
G01 X61.6988 Y36.2519
G01 X61.7117 Y36.3388
G01 X61.7160 Y36.4265
G01 X61.7117 Y36.5142
G01 X61.6988 Y36.6011
G01 X61.6775 Y36.6863
G01 X61.6479 Y36.7690
G01 X61.6103 Y36.8484
G01 X61.5652 Y36.9237
G01 X61.5128 Y36.9943
G01 X61.4539 Y37.0594
G01 X61.3888 Y37.1183
G01 X61.3182 Y37.1707
G01 X61.2429 Y37.2158
G01 X61.1635 Y37.2534
G01 X61.0808 Y37.2830
G01 X60.9956 Y37.3043
G01 X60.9087 Y37.3172
G01 X60.8210 Y37.3215
G01 X60.7333 Y37.3172
G01 X60.6464 Y37.3043
G01 X60.5612 Y37.2830
G01 X60.4874 Y37.2568
G00 Z2.0000
G00 X60.4874 Y39.7568
G01 F60.00
G01 Z-0.0500
G01 F120.00
G01 X60.4697 Y39.7495
G01 X60.3991 Y39.7158
G01 X60.3238 Y39.6707
G01 X60.2532 Y39.6183
G01 X60.1881 Y39.5594
G01 X60.1292 Y39.4943
G01 X60.0768 Y39.4237
G01 X60.0317 Y39.3484
G01 X59.9941 Y39.2690
G01 X59.9645 Y39.1863
G01 X59.9432 Y39.1011
G01 X59.9303 Y39.0142
G01 X59.9260 Y38.9265
G01 X59.9303 Y38.8388
G01 X59.9432 Y38.7519
G01 X59.9645 Y38.6667
G01 X59.9941 Y38.5840
G01 X60.0317 Y38.5046
G01 X60.0768 Y38.4293
G01 X60.1292 Y38.3587
G01 X60.1881 Y38.2936
G01 X60.2532 Y38.2347
G01 X60.3238 Y38.1823
G01 X60.3991 Y38.1372
G01 X60.4785 Y38.0996
G01 X60.5612 Y38.0700
G01 X60.6464 Y38.0487
G01 X60.7333 Y38.0358
G01 X60.8210 Y38.0315
G01 X60.9087 Y38.0358
G01 X60.9956 Y38.0487
G01 X61.0808 Y38.0700
G01 X61.1635 Y38.0996
G01 X61.2429 Y38.1372
G01 X61.3182 Y38.1823
G01 X61.3888 Y38.2347
G01 X61.4539 Y38.2936
G01 X61.5128 Y38.3587
G01 X61.5652 Y38.4293
G01 X61.6103 Y38.5046
G01 X61.6479 Y38.5840
G01 X61.6775 Y38.6667
G01 X61.6988 Y38.7519
G01 X61.7117 Y38.8388
G01 X61.7160 Y38.9265
G01 X61.7117 Y39.0142
G01 X61.6988 Y39.1011
G01 X61.6775 Y39.1863
G01 X61.6479 Y39.2690
G01 X61.6103 Y39.3484
G01 X61.5652 Y39.4237
G01 X61.5128 Y39.4943
G01 X61.4539 Y39.5594
G01 X61.3888 Y39.6183
G01 X61.3182 Y39.6707
G01 X61.2429 Y39.7158
G01 X61.1635 Y39.7534
G01 X61.0808 Y39.7830
G01 X60.9956 Y39.8043
G01 X60.9087 Y39.8172
G01 X60.8210 Y39.8215
G01 X60.7333 Y39.8172
G01 X60.6464 Y39.8043
G01 X60.5612 Y39.7830
G01 X60.4874 Y39.7568
G00 Z2.0000
G00 X59.8112 Y41.4265
G01 F60.00
G01 Z-0.0500
G01 F120.00
G01 X59.8284 Y41.2409
G01 X59.8794 Y41.0617
G01 X59.9624 Y40.8949
G01 X60.0747 Y40.7462
G01 X60.2125 Y40.6207
G01 X60.3709 Y40.5226
G01 X60.5017 Y40.4718
G01 X60.5245 Y40.4614
G01 X60.5372 Y40.4546
G01 X60.5533 Y40.4442
G01 X60.5683 Y40.4322
G01 X60.6253 Y40.3769
G01 X60.6385 Y40.3627
G01 X60.6474 Y40.3513
G01 X60.6529 Y40.3433
G01 X60.6626 Y40.3265
G01 X60.6668 Y40.3178
G01 X60.6723 Y40.3043
G01 X60.6780 Y40.2858
G01 X60.6959 Y40.2083
G01 X60.6989 Y40.1892
G01 X60.6999 Y40.1699
G01 X60.6997 Y40.1602
G01 X60.6985 Y40.1457
G01 X60.6962 Y40.1314
G01 X60.6928 Y40.1172
G01 X60.6884 Y40.1034
G01 X60.6614 Y40.0286
G01 X60.6530 Y40.0111
G01 X60.6482 Y40.0027
G01 X60.6403 Y39.9905
G01 X60.6345 Y39.9828
G01 X60.6251 Y39.9717
G01 X60.6113 Y39.9581
G01 X60.6001 Y39.9488
G01 X60.5410 Y39.9035
G01 X60.5334 Y39.8982
G01 X60.5215 Y39.8909
G01 X60.5091 Y39.8845
G01 X60.5006 Y39.8808
G01 X60.3709 Y39.8304
G01 X60.2125 Y39.7323
G01 X60.0747 Y39.6068
G01 X59.9624 Y39.4581
G01 X59.8794 Y39.2913
G01 X59.8284 Y39.1120
G01 X59.8112 Y38.9265
G01 X59.8284 Y38.7409
G01 X59.8794 Y38.5617
G01 X59.9624 Y38.3949
G01 X60.0747 Y38.2462
G01 X60.2125 Y38.1207
G01 X60.3709 Y38.0226
G01 X60.5017 Y37.9718
G01 X60.5245 Y37.9614
G01 X60.5372 Y37.9546
G01 X60.5533 Y37.9442
G01 X60.5683 Y37.9322
G01 X60.6253 Y37.8769
G01 X60.6385 Y37.8627
G01 X60.6474 Y37.8513
G01 X60.6529 Y37.8433
G01 X60.6626 Y37.8265
G01 X60.6668 Y37.8178
G01 X60.6723 Y37.8043
G01 X60.6780 Y37.7858
G01 X60.6959 Y37.7083
G01 X60.6989 Y37.6892
G01 X60.6999 Y37.6699
G01 X60.6997 Y37.6602
G01 X60.6985 Y37.6457
G01 X60.6962 Y37.6314
G01 X60.6928 Y37.6172
G01 X60.6884 Y37.6034
G01 X60.6632 Y37.5331
G01 X60.6553 Y37.5154
G01 X60.6457 Y37.4986
G01 X60.6345 Y37.4828
G01 X60.6251 Y37.4717
G01 X60.6184 Y37.4647
G01 X60.6039 Y37.4518
G01 X60.5447 Y37.4063
G01 X60.5334 Y37.3982
G01 X60.5215 Y37.3909
G01 X60.5091 Y37.3845
G01 X60.5006 Y37.3808
G01 X60.3709 Y37.3304
G01 X60.2125 Y37.2323
G01 X60.0747 Y37.1068
G01 X59.9624 Y36.9581
G01 X59.8794 Y36.7913
G01 X59.8284 Y36.6120
G01 X59.8112 Y36.4265
G01 X59.8284 Y36.2409
G01 X59.8794 Y36.0617
G01 X59.9624 Y35.8949
G01 X60.0747 Y35.7462
G01 X60.2125 Y35.6207
G01 X60.3709 Y35.5226
G01 X60.5447 Y35.4552
G01 X60.7278 Y35.4210
G01 X60.9142 Y35.4210
G01 X61.0973 Y35.4552
G01 X61.2711 Y35.5226
G01 X61.4295 Y35.6207
G01 X61.5673 Y35.7462
G01 X61.6796 Y35.8949
G01 X61.7626 Y36.0617
G01 X61.8136 Y36.2409
G01 X61.8308 Y36.4265
G01 X61.8136 Y36.6121
G01 X61.7626 Y36.7913
G01 X61.6796 Y36.9581
G01 X61.5673 Y37.1068
G01 X61.4295 Y37.2323
G01 X61.2711 Y37.3304
G01 X61.1403 Y37.3812
G01 X61.1175 Y37.3916
G01 X61.1048 Y37.3984
G01 X61.0887 Y37.4088
G01 X61.0737 Y37.4208
G01 X61.0133 Y37.4795
G01 X61.0067 Y37.4866
G01 X60.9975 Y37.4979
G01 X60.9891 Y37.5097
G01 X60.9817 Y37.5222
G01 X60.9773 Y37.5308
G01 X60.9714 Y37.5441
G01 X60.9666 Y37.5578
G01 X60.9640 Y37.5672
G01 X60.9461 Y37.6447
G01 X60.9431 Y37.6638
G01 X60.9421 Y37.6831
G01 X60.9426 Y37.6977
G01 X60.9442 Y37.7121
G01 X60.9468 Y37.7264
G01 X60.9505 Y37.7404
G01 X60.9536 Y37.7496
G01 X60.9788 Y37.8199
G01 X60.9867 Y37.8376
G01 X60.9963 Y37.8544
G01 X61.0075 Y37.8702
G01 X61.0169 Y37.8813
G01 X61.0307 Y37.8949
G01 X61.0419 Y37.9042
G01 X61.1010 Y37.9495
G01 X61.1086 Y37.9548
G01 X61.1205 Y37.9621
G01 X61.1329 Y37.9685
G01 X61.1414 Y37.9722
G01 X61.2711 Y38.0226
G01 X61.4295 Y38.1207
G01 X61.5673 Y38.2462
G01 X61.6796 Y38.3949
G01 X61.7626 Y38.5617
G01 X61.8136 Y38.7409
G01 X61.8308 Y38.9265
G01 X61.8136 Y39.1121
G01 X61.7626 Y39.2913
G01 X61.6796 Y39.4581
G01 X61.5673 Y39.6068
G01 X61.4295 Y39.7323
G01 X61.2711 Y39.8304
G01 X61.1403 Y39.8812
G01 X61.1175 Y39.8916
G01 X61.1048 Y39.8984
G01 X61.0887 Y39.9088
G01 X61.0737 Y39.9208
G01 X61.0133 Y39.9795
G01 X61.0004 Y39.9940
G01 X60.9946 Y40.0017
G01 X60.9865 Y40.0138
G01 X60.9817 Y40.0222
G01 X60.9752 Y40.0352
G01 X60.9697 Y40.0487
G01 X60.9666 Y40.0578
G01 X60.9628 Y40.0719
G01 X60.9471 Y40.1399
G01 X60.9444 Y40.1542
G01 X60.9427 Y40.1686
G01 X60.9421 Y40.1831
G01 X60.9426 Y40.1977
G01 X60.9435 Y40.2073
G01 X60.9468 Y40.2264
G01 X60.9520 Y40.2451
G01 X60.9772 Y40.3154
G01 X60.9826 Y40.3289
G01 X60.9913 Y40.3462
G01 X61.0017 Y40.3625
G01 X61.0137 Y40.3777
G01 X61.0271 Y40.3916
G01 X61.0419 Y40.4042
G01 X61.0973 Y40.4467
G01 X61.1086 Y40.4548
G01 X61.1205 Y40.4621
G01 X61.1329 Y40.4685
G01 X61.1414 Y40.4722
G01 X61.2711 Y40.5226
G01 X61.4295 Y40.6207
G01 X61.5672 Y40.7462
G01 X61.6797 Y40.8951
G01 X61.7626 Y41.0617
G01 X61.8136 Y41.2409
G01 X61.8308 Y41.4265
G01 X61.8136 Y41.6121
G01 X61.7626 Y41.7913
G01 X61.6796 Y41.9581
G01 X61.5673 Y42.1068
G01 X61.4295 Y42.2323
G01 X61.2711 Y42.3304
G01 X61.0973 Y42.3978
G01 X60.9142 Y42.4320
G01 X60.7278 Y42.4320
G01 X60.5447 Y42.3978
G01 X60.3709 Y42.3304
G01 X60.2125 Y42.2323
G01 X60.0747 Y42.1068
G01 X59.9624 Y41.9581
G01 X59.8794 Y41.7913
G01 X59.8284 Y41.6120
G01 X59.8112 Y41.4265
G00 Z2.0000
G00 X60.4874 Y42.2568
G01 F60.00
G01 Z-0.0500
G01 F120.00
G01 X60.4697 Y42.2495
G01 X60.3991 Y42.2158
G01 X60.3238 Y42.1707
G01 X60.2532 Y42.1183
G01 X60.1881 Y42.0594
G01 X60.1292 Y41.9943
G01 X60.0768 Y41.9237
G01 X60.0317 Y41.8484
G01 X59.9941 Y41.7690
G01 X59.9645 Y41.6863
G01 X59.9432 Y41.6011
G01 X59.9303 Y41.5142
G01 X59.9260 Y41.4265
G01 X59.9303 Y41.3388
G01 X59.9432 Y41.2519
G01 X59.9645 Y41.1667
G01 X59.9941 Y41.0840
G01 X60.0317 Y41.0046
G01 X60.0768 Y40.9293
G01 X60.1292 Y40.8587
G01 X60.1881 Y40.7936
G01 X60.2532 Y40.7347
G01 X60.3238 Y40.6823
G01 X60.3991 Y40.6372
G01 X60.4785 Y40.5996
G01 X60.5612 Y40.5700
G01 X60.6464 Y40.5487
G01 X60.7333 Y40.5358
G01 X60.8210 Y40.5315
G01 X60.9087 Y40.5358
G01 X60.9956 Y40.5487
G01 X61.0808 Y40.5700
G01 X61.1635 Y40.5996
G01 X61.2429 Y40.6372
G01 X61.3182 Y40.6823
G01 X61.3888 Y40.7347
G01 X61.4539 Y40.7936
G01 X61.5128 Y40.8587
G01 X61.5652 Y40.9293
G01 X61.6103 Y41.0046
G01 X61.6479 Y41.0840
G01 X61.6775 Y41.1667
G01 X61.6988 Y41.2519
G01 X61.7117 Y41.3388
G01 X61.7160 Y41.4265
G01 X61.7117 Y41.5142
G01 X61.6988 Y41.6011
G01 X61.6775 Y41.6863
G01 X61.6479 Y41.7690
G01 X61.6103 Y41.8484
G01 X61.5652 Y41.9237
G01 X61.5128 Y41.9943
G01 X61.4539 Y42.0594
G01 X61.3888 Y42.1183
G01 X61.3182 Y42.1707
G01 X61.2429 Y42.2158
G01 X61.1635 Y42.2534
G01 X61.0808 Y42.2830
G01 X60.9956 Y42.3043
G01 X60.9087 Y42.3172
G01 X60.8210 Y42.3215
G01 X60.7333 Y42.3172
G01 X60.6464 Y42.3043
G01 X60.5612 Y42.2830
G01 X60.4874 Y42.2568
G00 Z2.0000
G00 X63.1682 Y41.7500
G01 F60.00
G01 Z-0.0500
G01 F120.00
G01 X63.1289 Y41.6120
G01 X63.1117 Y41.4265
G01 X63.1289 Y41.2410
G01 X63.1682 Y41.1030
G01 X63.2578 Y41.1926
G01 X63.2432 Y41.2519
G01 X63.2315 Y41.3293
G01 X63.2296 Y41.3483
G01 X63.2260 Y41.4265
G01 X63.2296 Y41.5047
G01 X63.2315 Y41.5237
G01 X63.2432 Y41.6011
G01 X63.2578 Y41.6604
G01 X63.1682 Y41.7500
G00 Z2.0000
G00 X63.8871 Y42.2897
G01 F60.00
G01 Z-0.0500
G01 F120.00
G01 X63.9464 Y42.3043
G01 X64.0238 Y42.3160
G01 X64.0428 Y42.3179
G01 X64.1210 Y42.3215
G01 X64.1992 Y42.3179
G01 X64.2182 Y42.3160
G01 X64.2956 Y42.3043
G01 X64.3549 Y42.2897
G01 X64.4442 Y42.3791
G01 X64.3972 Y42.3973
G01 X64.2141 Y42.4315
G01 X64.0279 Y42.4315
G01 X63.8448 Y42.3973
G01 X63.7978 Y42.3791
G01 X63.8871 Y42.2897
G00 Z2.0000
G00 X63.7874 Y39.7568
G01 F60.00
G01 Z-0.0500
G01 F120.00
G01 X63.7697 Y39.7495
G01 X63.6991 Y39.7158
G01 X63.6238 Y39.6707
G01 X63.5532 Y39.6183
G01 X63.4881 Y39.5594
G01 X63.4292 Y39.4943
G01 X63.3768 Y39.4237
G01 X63.3317 Y39.3484
G01 X63.2941 Y39.2690
G01 X63.2645 Y39.1863
G01 X63.2432 Y39.1011
G01 X63.2303 Y39.0142
G01 X63.2260 Y38.9265
G01 X63.2303 Y38.8388
G01 X63.2432 Y38.7519
G01 X63.2645 Y38.6667
G01 X63.2941 Y38.5840
G01 X63.3317 Y38.5046
G01 X63.3768 Y38.4293
G01 X63.4292 Y38.3587
G01 X63.4881 Y38.2936
G01 X63.5532 Y38.2347
G01 X63.6238 Y38.1823
G01 X63.6991 Y38.1372
G01 X63.7785 Y38.0996
G01 X63.8612 Y38.0700
G01 X63.9464 Y38.0487
G01 X64.0333 Y38.0358
G01 X64.1210 Y38.0315
G01 X64.2087 Y38.0358
G01 X64.2956 Y38.0487
G01 X64.3808 Y38.0700
G01 X64.4635 Y38.0996
G01 X64.5429 Y38.1372
G01 X64.6182 Y38.1823
G01 X64.6888 Y38.2347
G01 X64.7539 Y38.2936
G01 X64.8128 Y38.3587
G01 X64.8652 Y38.4293
G01 X64.9103 Y38.5046
G01 X64.9479 Y38.5840
G01 X64.9775 Y38.6667
G01 X64.9988 Y38.7519
G01 X65.0117 Y38.8388
G01 X65.0160 Y38.9265
G01 X65.0117 Y39.0142
G01 X64.9988 Y39.1011
G01 X64.9775 Y39.1863
G01 X64.9479 Y39.2690
G01 X64.9103 Y39.3484
G01 X64.8652 Y39.4237
G01 X64.8128 Y39.4943
G01 X64.7539 Y39.5594
G01 X64.6888 Y39.6183
G01 X64.6182 Y39.6707
G01 X64.5429 Y39.7158
G01 X64.4635 Y39.7534
G01 X64.3808 Y39.7830
G01 X64.2956 Y39.8043
G01 X64.2087 Y39.8172
G01 X64.1210 Y39.8215
G01 X64.0333 Y39.8172
G01 X63.9464 Y39.8043
G01 X63.8612 Y39.7830
G01 X63.7874 Y39.7568
G00 Z2.0000
G00 X64.0962 Y37.6140
G01 F60.00
G01 Z-0.0500
G01 F120.00
G01 X64.1434 Y37.6140
G01 X64.1366 Y37.6443
G01 X64.1345 Y37.6562
G01 X64.1311 Y37.6802
G01 X64.1290 Y37.7043
G01 X64.1283 Y37.7164
G01 X64.1280 Y37.7391
G01 X64.1128 Y37.7391
G01 X64.1116 Y37.7233
G01 X64.1088 Y37.6993
G01 X64.0962 Y37.6140
G00 Z2.0000
G00 X63.4210 Y37.3215
G01 F60.00
G01 Z-0.0500
G01 F120.00
G01 X63.4019 Y37.3206
G01 X63.3830 Y37.3178
G01 X63.3644 Y37.3131
G01 X63.3464 Y37.3067
G01 X63.3333 Y37.3007
G01 X63.3167 Y37.2912
G01 X63.3010 Y37.2802
G01 X63.2865 Y37.2677
G01 X63.2733 Y37.2539
G01 X63.2644 Y37.2427
G01 X63.2537 Y37.2267
G01 X63.2447 Y37.2099
G01 X63.2391 Y37.1967
G01 X63.2331 Y37.1785
G01 X63.2289 Y37.1598
G01 X63.2265 Y37.1408
G01 X63.2260 Y37.1265
G01 X63.2261 Y35.7217
G01 X63.2275 Y35.7026
G01 X63.2297 Y35.6885
G01 X63.2344 Y35.6699
G01 X63.2391 Y35.6563
G01 X63.2447 Y35.6431
G01 X63.2537 Y35.6263
G01 X63.2616 Y35.6142
G01 X63.2733 Y35.5991
G01 X63.2865 Y35.5853
G01 X63.2973 Y35.5758
G01 X63.3048 Y35.5699
G01 X63.3127 Y35.5644
G01 X63.3249 Y35.5568
G01 X63.3420 Y35.5482
G01 X63.3598 Y35.5413
G01 X63.3690 Y35.5386
G01 X63.3830 Y35.5352
G01 X63.4019 Y35.5324
G01 X63.4210 Y35.5315
G01 X64.8258 Y35.5316
G01 X64.8401 Y35.5324
G01 X64.8590 Y35.5352
G01 X64.8730 Y35.5386
G01 X64.8912 Y35.5446
G01 X64.9087 Y35.5523
G01 X64.9212 Y35.5592
G01 X64.9372 Y35.5699
G01 X64.9484 Y35.5788
G01 X64.9622 Y35.5920
G01 X64.9687 Y35.5991
G01 X64.9776 Y35.6103
G01 X64.9883 Y35.6263
G01 X64.9930 Y35.6346
G01 X64.9993 Y35.6475
G01 X65.0062 Y35.6653
G01 X65.0113 Y35.6838
G01 X65.0131 Y35.6932
G01 X65.0151 Y35.7074
G01 X65.0160 Y35.7265
G01 X65.0159 Y37.1313
G01 X65.0151 Y37.1456
G01 X65.0123 Y37.1645
G01 X65.0076 Y37.1831
G01 X65.0029 Y37.1967
G01 X64.9973 Y37.2099
G01 X64.9883 Y37.2267
G01 X64.9804 Y37.2388
G01 X64.9687 Y37.2539
G01 X64.9555 Y37.2677
G01 X64.9410 Y37.2802
G01 X64.9293 Y37.2886
G01 X64.9212 Y37.2938
G01 X64.9044 Y37.3028
G01 X64.8867 Y37.3101
G01 X64.8684 Y37.3157
G01 X64.8496 Y37.3194
G01 X64.8306 Y37.3213
G01 X63.4210 Y37.3215
G00 Z2.0000
G00 X81.3983 Y47.6600
G01 F60.00
G01 Z-0.0500
G01 F120.00
G01 X81.4494 Y47.5504
G01 X81.5603 Y47.3920
G01 X81.6970 Y47.2553
G01 X81.8554 Y47.1444
G01 X81.9650 Y47.0933
G01 X81.9650 Y47.2159
G01 X81.9452 Y47.2253
G01 X81.9368 Y47.2298
G01 X81.8653 Y47.2726
G01 X81.8533 Y47.2804
G01 X81.7788 Y47.3359
G01 X81.7064 Y47.4014
G01 X81.6409 Y47.4738
G01 X81.5854 Y47.5483
G01 X81.5776 Y47.5603
G01 X81.5348 Y47.6318
G01 X81.5303 Y47.6402
G01 X81.5209 Y47.6600
G01 X81.3983 Y47.6600
G00 Z2.0000
G00 X82.8550 Y47.2159
G01 F60.00
G01 Z-0.0500
G01 F120.00
G01 X82.8550 Y47.0933
G01 X82.9646 Y47.1444
G01 X83.1230 Y47.2553
G01 X83.2597 Y47.3920
G01 X83.3706 Y47.5504
G01 X83.4217 Y47.6600
G01 X83.2991 Y47.6600
G01 X83.2897 Y47.6402
G01 X83.2852 Y47.6318
G01 X83.2424 Y47.5603
G01 X83.2346 Y47.5483
G01 X83.1791 Y47.4738
G01 X83.1136 Y47.4014
G01 X83.0412 Y47.3359
G01 X82.9667 Y47.2804
G01 X82.9547 Y47.2726
G01 X82.8832 Y47.2298
G01 X82.8748 Y47.2253
G01 X82.8550 Y47.2159
G00 Z2.0000
G00 X82.8550 Y49.1282
G01 F60.00
G01 Z-0.0500
G01 F120.00
G01 X82.8550 Y48.9941
G01 X82.8748 Y48.9847
G01 X82.8832 Y48.9802
G01 X82.9547 Y48.9374
G01 X82.9667 Y48.9296
G01 X83.0412 Y48.8741
G01 X83.1136 Y48.8086
G01 X83.1791 Y48.7362
G01 X83.2346 Y48.6617
G01 X83.2424 Y48.6497
G01 X83.2852 Y48.5782
G01 X83.2897 Y48.5698
G01 X83.2991 Y48.5500
G01 X83.4217 Y48.5500
G01 X83.3706 Y48.6596
G01 X83.2597 Y48.8180
G01 X83.1230 Y48.9547
G01 X82.9646 Y49.0656
G01 X82.9084 Y49.0918
G01 X82.8953 Y49.0986
G01 X82.8868 Y49.1036
G01 X82.8747 Y49.1119
G01 X82.8669 Y49.1180
G01 X82.8550 Y49.1282
G00 Z2.0000
G00 X82.8296 Y49.7559
G01 F60.00
G01 Z-0.0500
G01 F120.00
G01 X82.8296 Y49.6111
G01 X82.8655 Y49.6427
G01 X82.8803 Y49.6539
G01 X82.8920 Y49.6614
G01 X82.9001 Y49.6659
G01 X82.9392 Y49.6844
G01 X83.0976 Y49.7953
G01 X83.2343 Y49.9320
G01 X83.3452 Y50.0904
G01 X83.3963 Y50.2000
G01 X83.2737 Y50.2000
G01 X83.2643 Y50.1802
G01 X83.2598 Y50.1718
G01 X83.2170 Y50.1003
G01 X83.2092 Y50.0883
G01 X83.1537 Y50.0138
G01 X83.0882 Y49.9414
G01 X83.0158 Y49.8759
G01 X82.9413 Y49.8204
G01 X82.9293 Y49.8126
G01 X82.8578 Y49.7698
G01 X82.8494 Y49.7653
G01 X82.8296 Y49.7559
G00 Z2.0000
G00 X81.9650 Y49.1389
G01 F60.00
G01 Z-0.0500
G01 F120.00
G01 X81.9291 Y49.1073
G01 X81.9143 Y49.0961
G01 X81.9026 Y49.0886
G01 X81.8945 Y49.0841
G01 X81.8554 Y49.0656
G01 X81.6970 Y48.9547
G01 X81.5603 Y48.8180
G01 X81.4494 Y48.6596
G01 X81.3983 Y48.5500
G01 X81.5209 Y48.5500
G01 X81.5303 Y48.5698
G01 X81.5348 Y48.5782
G01 X81.5776 Y48.6497
G01 X81.5854 Y48.6617
G01 X81.6409 Y48.7362
G01 X81.7064 Y48.8086
G01 X81.7788 Y48.8741
G01 X81.8533 Y48.9296
G01 X81.8653 Y48.9374
G01 X81.9368 Y48.9802
G01 X81.9452 Y48.9847
G01 X81.9650 Y48.9941
G01 X81.9650 Y49.1389
G00 Z2.0000
G00 X81.3729 Y50.2000
G01 F60.00
G01 Z-0.0500
G01 F120.00
G01 X81.4240 Y50.0904
G01 X81.5349 Y49.9320
G01 X81.6716 Y49.7953
G01 X81.8300 Y49.6844
G01 X81.8862 Y49.6582
G01 X81.8993 Y49.6514
G01 X81.9119 Y49.6437
G01 X81.9199 Y49.6381
G01 X81.9277 Y49.6320
G01 X81.9396 Y49.6218
G01 X81.9396 Y49.7559
G01 X81.9198 Y49.7653
G01 X81.9114 Y49.7698
G01 X81.8399 Y49.8126
G01 X81.8279 Y49.8204
G01 X81.7534 Y49.8759
G01 X81.6810 Y49.9414
G01 X81.6155 Y50.0138
G01 X81.5600 Y50.0883
G01 X81.5522 Y50.1003
G01 X81.5094 Y50.1718
G01 X81.5049 Y50.1802
G01 X81.4955 Y50.2000
G01 X81.3729 Y50.2000
G00 Z2.0000
G00 X81.3729 Y51.0900
G01 F60.00
G01 Z-0.0500
G01 F120.00
G01 X81.4955 Y51.0900
G01 X81.5049 Y51.1098
G01 X81.5094 Y51.1182
G01 X81.5522 Y51.1897
G01 X81.5600 Y51.2017
G01 X81.6155 Y51.2762
G01 X81.6810 Y51.3486
G01 X81.7534 Y51.4141
G01 X81.8279 Y51.4696
G01 X81.8399 Y51.4774
G01 X81.9114 Y51.5202
G01 X81.9198 Y51.5247
G01 X81.9396 Y51.5341
G01 X81.9396 Y51.6567
G01 X81.8300 Y51.6056
G01 X81.6716 Y51.4947
G01 X81.5349 Y51.3580
G01 X81.4240 Y51.1996
G01 X81.3729 Y51.0900
G00 Z2.0000
G00 X82.8296 Y51.5341
G01 F60.00
G01 Z-0.0500
G01 F120.00
G01 X82.8494 Y51.5247
G01 X82.8578 Y51.5202
G01 X82.9293 Y51.4774
G01 X82.9413 Y51.4696
G01 X83.0158 Y51.4141
G01 X83.0882 Y51.3486
G01 X83.1537 Y51.2762
G01 X83.2092 Y51.2017
G01 X83.2170 Y51.1897
G01 X83.2598 Y51.1182
G01 X83.2643 Y51.1098
G01 X83.2737 Y51.0900
G01 X83.3963 Y51.0900
G01 X83.3452 Y51.1996
G01 X83.2343 Y51.3580
G01 X83.0976 Y51.4947
G01 X82.9392 Y51.6056
G01 X82.8296 Y51.6567
G01 X82.8296 Y51.5341
G00 Z2.0000
G00 X81.6100 Y59.8950
G01 F60.00
G01 Z-0.0500
G01 F120.00
G01 X81.5909 Y59.8941
G01 X81.5720 Y59.8913
G01 X81.5534 Y59.8866
G01 X81.5354 Y59.8802
G01 X81.5181 Y59.8720
G01 X81.5017 Y59.8621
G01 X81.4863 Y59.8507
G01 X81.4755 Y59.8412
G01 X81.4623 Y59.8274
G01 X81.4506 Y59.8123
G01 X81.4427 Y59.8002
G01 X81.4337 Y59.7834
G01 X81.4264 Y59.7657
G01 X81.4221 Y59.7520
G01 X81.4179 Y59.7333
G01 X81.4155 Y59.7143
G01 X81.4150 Y59.7000
G01 X81.4151 Y58.0952
G01 X81.4165 Y58.0761
G01 X81.4187 Y58.0620
G01 X81.4221 Y58.0480
G01 X81.4281 Y58.0298
G01 X81.4358 Y58.0123
G01 X81.4453 Y57.9957
G01 X81.4534 Y57.9838
G01 X81.4655 Y57.9690
G01 X81.4790 Y57.9555
G01 X81.4900 Y57.9463
G01 X81.4977 Y57.9406
G01 X81.5139 Y57.9303
G01 X81.5310 Y57.9217
G01 X81.5488 Y57.9148
G01 X81.5673 Y57.9097
G01 X81.5861 Y57.9065
G01 X81.6004 Y57.9052
G01 X81.6100 Y57.9050
G01 X83.2148 Y57.9051
G01 X83.2291 Y57.9059
G01 X83.2480 Y57.9087
G01 X83.2666 Y57.9134
G01 X83.2846 Y57.9198
G01 X83.2977 Y57.9258
G01 X83.3143 Y57.9353
G01 X83.3300 Y57.9463
G01 X83.3410 Y57.9555
G01 X83.3545 Y57.9690
G01 X83.3666 Y57.9838
G01 X83.3747 Y57.9957
G01 X83.3797 Y58.0039
G01 X83.3883 Y58.0210
G01 X83.3936 Y58.0343
G01 X83.3966 Y58.0434
G01 X83.4013 Y58.0620
G01 X83.4041 Y58.0809
G01 X83.4050 Y58.1000
G01 X83.4049 Y59.7048
G01 X83.4041 Y59.7191
G01 X83.4013 Y59.7380
G01 X83.3966 Y59.7566
G01 X83.3902 Y59.7746
G01 X83.3842 Y59.7877
G01 X83.3747 Y59.8043
G01 X83.3666 Y59.8162
G01 X83.3545 Y59.8310
G01 X83.3410 Y59.8445
G01 X83.3262 Y59.8566
G01 X83.3102 Y59.8673
G01 X83.2934 Y59.8763
G01 X83.2757 Y59.8836
G01 X83.2620 Y59.8879
G01 X83.2527 Y59.8903
G01 X83.2339 Y59.8935
G01 X83.2148 Y59.8949
G01 X81.6100 Y59.8950
G00 Z2.0000
G00 X81.3045 Y62.2774
G01 F60.00
G01 Z-0.0500
G01 F120.00
G01 X81.3045 Y60.6026
G01 X81.3072 Y60.5777
G01 X81.3391 Y60.4921
G01 X81.3920 Y60.4214
G01 X81.4111 Y60.4051
G01 X81.4213 Y60.3956
G01 X81.4308 Y60.3854
G01 X81.4395 Y60.3745
G01 X81.4449 Y60.3670
G01 X81.4523 Y60.3552
G01 X81.4903 Y60.2855
G01 X81.4965 Y60.2724
G01 X81.5000 Y60.2634
G01 X81.5058 Y60.2449
G01 X81.5089 Y60.2307
G01 X81.5103 Y60.2211
G01 X81.5113 Y60.2115
G01 X81.5119 Y60.1970
G01 X81.5114 Y60.1825
G01 X81.5064 Y60.1128
G01 X81.5049 Y60.0983
G01 X81.5022 Y60.0840
G01 X81.4985 Y60.0700
G01 X81.4938 Y60.0563
G01 X81.4901 Y60.0473
G01 X81.4837 Y60.0343
G01 X81.4737 Y60.0177
G01 X81.4262 Y59.9539
G01 X81.4204 Y59.9466
G01 X81.4112 Y59.9362
G01 X81.4012 Y59.9264
G01 X81.3920 Y59.9186
G01 X81.3391 Y59.8479
G01 X81.3072 Y59.7623
G01 X81.3045 Y59.7374
G01 X81.3045 Y58.0626
G01 X81.3072 Y58.0377
G01 X81.3391 Y57.9521
G01 X81.3918 Y57.8818
G01 X81.4621 Y57.8291
G01 X81.5477 Y57.7972
G01 X81.5726 Y57.7945
G01 X83.2474 Y57.7945
G01 X83.2723 Y57.7972
G01 X83.3579 Y57.8291
G01 X83.4282 Y57.8818
G01 X83.4809 Y57.9521
G01 X83.5128 Y58.0377
G01 X83.5155 Y58.0626
G01 X83.5155 Y59.7374
G01 X83.5128 Y59.7623
G01 X83.4809 Y59.8479
G01 X83.4280 Y59.9186
G01 X83.4089 Y59.9349
G01 X83.3987 Y59.9444
G01 X83.3892 Y59.9546
G01 X83.3805 Y59.9655
G01 X83.3725 Y59.9769
G01 X83.3677 Y59.9848
G01 X83.3297 Y60.0545
G01 X83.3235 Y60.0676
G01 X83.3199 Y60.0766
G01 X83.3142 Y60.0951
G01 X83.3120 Y60.1046
G01 X83.3097 Y60.1189
G01 X83.3083 Y60.1334
G01 X83.3081 Y60.1430
G01 X83.3086 Y60.1576
G01 X83.3136 Y60.2272
G01 X83.3151 Y60.2417
G01 X83.3168 Y60.2512
G01 X83.3201 Y60.2654
G01 X83.3245 Y60.2792
G01 X83.3299 Y60.2927
G01 X83.3363 Y60.3057
G01 X83.3463 Y60.3223
G01 X83.3938 Y60.3861
G01 X83.4026 Y60.3970
G01 X83.4088 Y60.4038
G01 X83.4188 Y60.4136
G01 X83.4280 Y60.4214
G01 X83.4809 Y60.4921
G01 X83.5128 Y60.5777
G01 X83.5155 Y60.6026
G01 X83.5155 Y62.2774
G01 X83.5128 Y62.3023
G01 X83.4809 Y62.3879
G01 X83.4282 Y62.4582
G01 X83.3579 Y62.5109
G01 X83.2723 Y62.5428
G01 X83.2474 Y62.5455
G01 X81.5726 Y62.5455
G01 X81.5477 Y62.5428
G01 X81.4621 Y62.5109
G01 X81.3918 Y62.4582
G01 X81.3391 Y62.3879
G01 X81.3072 Y62.3023
G01 X81.3045 Y62.2774
G00 Z2.0000
G00 X81.6100 Y62.4350
G01 F60.00
G01 Z-0.0500
G01 F120.00
G01 X81.5909 Y62.4341
G01 X81.5720 Y62.4313
G01 X81.5534 Y62.4266
G01 X81.5354 Y62.4202
G01 X81.5181 Y62.4120
G01 X81.5017 Y62.4021
G01 X81.4863 Y62.3907
G01 X81.4755 Y62.3812
G01 X81.4623 Y62.3674
G01 X81.4506 Y62.3523
G01 X81.4427 Y62.3402
G01 X81.4337 Y62.3234
G01 X81.4264 Y62.3057
G01 X81.4221 Y62.2920
G01 X81.4179 Y62.2733
G01 X81.4155 Y62.2543
G01 X81.4150 Y62.2400
G01 X81.4151 Y60.6352
G01 X81.4165 Y60.6161
G01 X81.4187 Y60.6020
G01 X81.4221 Y60.5880
G01 X81.4281 Y60.5698
G01 X81.4358 Y60.5523
G01 X81.4453 Y60.5357
G01 X81.4534 Y60.5238
G01 X81.4655 Y60.5090
G01 X81.4790 Y60.4955
G01 X81.4900 Y60.4863
G01 X81.4977 Y60.4806
G01 X81.5139 Y60.4703
G01 X81.5310 Y60.4617
G01 X81.5488 Y60.4548
G01 X81.5673 Y60.4497
G01 X81.5861 Y60.4465
G01 X81.6004 Y60.4452
G01 X81.6100 Y60.4450
G01 X83.2148 Y60.4451
G01 X83.2291 Y60.4459
G01 X83.2480 Y60.4487
G01 X83.2666 Y60.4534
G01 X83.2846 Y60.4598
G01 X83.2977 Y60.4658
G01 X83.3143 Y60.4753
G01 X83.3300 Y60.4863
G01 X83.3410 Y60.4955
G01 X83.3545 Y60.5090
G01 X83.3666 Y60.5238
G01 X83.3747 Y60.5357
G01 X83.3797 Y60.5439
G01 X83.3883 Y60.5610
G01 X83.3936 Y60.5743
G01 X83.3966 Y60.5834
G01 X83.4013 Y60.6020
G01 X83.4041 Y60.6209
G01 X83.4050 Y60.6400
G01 X83.4049 Y62.2448
G01 X83.4041 Y62.2591
G01 X83.4013 Y62.2780
G01 X83.3966 Y62.2966
G01 X83.3902 Y62.3146
G01 X83.3842 Y62.3277
G01 X83.3747 Y62.3443
G01 X83.3666 Y62.3562
G01 X83.3545 Y62.3710
G01 X83.3410 Y62.3845
G01 X83.3262 Y62.3966
G01 X83.3102 Y62.4073
G01 X83.2934 Y62.4163
G01 X83.2757 Y62.4236
G01 X83.2620 Y62.4279
G01 X83.2527 Y62.4303
G01 X83.2339 Y62.4335
G01 X83.2148 Y62.4349
G01 X81.6100 Y62.4350
G00 Z2.0000
G00 X100.1005 Y62.4044
G01 F60.00
G01 Z-0.0500
G01 F120.00
G01 X100.1005 Y60.7296
G01 X100.1032 Y60.7047
G01 X100.1351 Y60.6191
G01 X100.1880 Y60.5484
G01 X100.2071 Y60.5321
G01 X100.2173 Y60.5226
G01 X100.2268 Y60.5124
G01 X100.2355 Y60.5015
G01 X100.2409 Y60.4940
G01 X100.2483 Y60.4822
G01 X100.2863 Y60.4125
G01 X100.2925 Y60.3994
G01 X100.2960 Y60.3904
G01 X100.3018 Y60.3719
G01 X100.3049 Y60.3577
G01 X100.3063 Y60.3481
G01 X100.3073 Y60.3385
G01 X100.3079 Y60.3240
G01 X100.3074 Y60.3095
G01 X100.3024 Y60.2398
G01 X100.3009 Y60.2253
G01 X100.2982 Y60.2110
G01 X100.2959 Y60.2016
G01 X100.2915 Y60.1878
G01 X100.2861 Y60.1743
G01 X100.2797 Y60.1613
G01 X100.2697 Y60.1447
G01 X100.2222 Y60.0809
G01 X100.2164 Y60.0736
G01 X100.2072 Y60.0632
G01 X100.1972 Y60.0534
G01 X100.1880 Y60.0456
G01 X100.1351 Y59.9749
G01 X100.1032 Y59.8893
G01 X100.1005 Y59.8644
G01 X100.1005 Y58.1896
G01 X100.1032 Y58.1647
G01 X100.1351 Y58.0791
G01 X100.1878 Y58.0088
G01 X100.2581 Y57.9561
G01 X100.3437 Y57.9242
G01 X100.3686 Y57.9215
G01 X102.0434 Y57.9215
G01 X102.0683 Y57.9242
G01 X102.1539 Y57.9561
G01 X102.2242 Y58.0088
G01 X102.2769 Y58.0791
G01 X102.3088 Y58.1647
G01 X102.3115 Y58.1896
G01 X102.3115 Y59.8644
G01 X102.3088 Y59.8893
G01 X102.2769 Y59.9749
G01 X102.2240 Y60.0456
G01 X102.2049 Y60.0619
G01 X102.1947 Y60.0714
G01 X102.1852 Y60.0816
G01 X102.1765 Y60.0925
G01 X102.1685 Y60.1039
G01 X102.1637 Y60.1118
G01 X102.1257 Y60.1815
G01 X102.1195 Y60.1946
G01 X102.1159 Y60.2036
G01 X102.1102 Y60.2221
G01 X102.1071 Y60.2363
G01 X102.1057 Y60.2459
G01 X102.1043 Y60.2604
G01 X102.1041 Y60.2700
G01 X102.1046 Y60.2846
G01 X102.1096 Y60.3542
G01 X102.1111 Y60.3687
G01 X102.1128 Y60.3782
G01 X102.1161 Y60.3924
G01 X102.1205 Y60.4062
G01 X102.1259 Y60.4197
G01 X102.1323 Y60.4327
G01 X102.1423 Y60.4493
G01 X102.1898 Y60.5131
G01 X102.1986 Y60.5240
G01 X102.2048 Y60.5308
G01 X102.2148 Y60.5406
G01 X102.2240 Y60.5484
G01 X102.2769 Y60.6191
G01 X102.3088 Y60.7047
G01 X102.3115 Y60.7296
G01 X102.3115 Y62.4044
G01 X102.3088 Y62.4293
G01 X102.2769 Y62.5149
G01 X102.2242 Y62.5852
G01 X102.1539 Y62.6379
G01 X102.0683 Y62.6698
G01 X102.0434 Y62.6725
G01 X100.3686 Y62.6725
G01 X100.3437 Y62.6698
G01 X100.2581 Y62.6379
G01 X100.1878 Y62.5852
G01 X100.1351 Y62.5149
G01 X100.1032 Y62.4293
G01 X100.1005 Y62.4044
G00 Z2.0000
G00 X100.4060 Y62.5620
G01 F60.00
G01 Z-0.0500
G01 F120.00
G01 X100.3869 Y62.5611
G01 X100.3680 Y62.5583
G01 X100.3494 Y62.5536
G01 X100.3314 Y62.5472
G01 X100.3141 Y62.5390
G01 X100.2977 Y62.5291
G01 X100.2823 Y62.5177
G01 X100.2715 Y62.5082
G01 X100.2583 Y62.4944
G01 X100.2466 Y62.4793
G01 X100.2387 Y62.4672
G01 X100.2297 Y62.4504
G01 X100.2224 Y62.4327
G01 X100.2181 Y62.4190
G01 X100.2139 Y62.4003
G01 X100.2115 Y62.3813
G01 X100.2110 Y62.3670
G01 X100.2111 Y60.7622
G01 X100.2125 Y60.7431
G01 X100.2147 Y60.7290
G01 X100.2181 Y60.7150
G01 X100.2241 Y60.6968
G01 X100.2318 Y60.6793
G01 X100.2413 Y60.6627
G01 X100.2494 Y60.6508
G01 X100.2615 Y60.6360
G01 X100.2750 Y60.6225
G01 X100.2860 Y60.6133
G01 X100.2937 Y60.6076
G01 X100.3099 Y60.5973
G01 X100.3270 Y60.5887
G01 X100.3448 Y60.5818
G01 X100.3633 Y60.5767
G01 X100.3821 Y60.5735
G01 X100.3964 Y60.5722
G01 X100.4060 Y60.5720
G01 X102.0108 Y60.5721
G01 X102.0251 Y60.5729
G01 X102.0440 Y60.5757
G01 X102.0626 Y60.5804
G01 X102.0806 Y60.5868
G01 X102.0937 Y60.5928
G01 X102.1103 Y60.6023
G01 X102.1260 Y60.6133
G01 X102.1370 Y60.6225
G01 X102.1505 Y60.6360
G01 X102.1626 Y60.6508
G01 X102.1707 Y60.6627
G01 X102.1757 Y60.6709
G01 X102.1843 Y60.6880
G01 X102.1896 Y60.7013
G01 X102.1926 Y60.7104
G01 X102.1973 Y60.7290
G01 X102.2001 Y60.7479
G01 X102.2010 Y60.7670
G01 X102.2009 Y62.3718
G01 X102.2001 Y62.3861
G01 X102.1973 Y62.4050
G01 X102.1926 Y62.4236
G01 X102.1862 Y62.4416
G01 X102.1802 Y62.4547
G01 X102.1707 Y62.4713
G01 X102.1626 Y62.4832
G01 X102.1505 Y62.4980
G01 X102.1370 Y62.5115
G01 X102.1222 Y62.5236
G01 X102.1062 Y62.5343
G01 X102.0894 Y62.5433
G01 X102.0717 Y62.5506
G01 X102.0580 Y62.5549
G01 X102.0487 Y62.5573
G01 X102.0299 Y62.5605
G01 X102.0108 Y62.5619
G01 X100.4060 Y62.5620
G00 Z2.0000
G00 X100.4060 Y60.0220
G01 F60.00
G01 Z-0.0500
G01 F120.00
G01 X100.3869 Y60.0211
G01 X100.3680 Y60.0183
G01 X100.3494 Y60.0136
G01 X100.3314 Y60.0072
G01 X100.3141 Y59.9990
G01 X100.2977 Y59.9891
G01 X100.2823 Y59.9777
G01 X100.2715 Y59.9682
G01 X100.2583 Y59.9544
G01 X100.2466 Y59.9393
G01 X100.2387 Y59.9272
G01 X100.2297 Y59.9104
G01 X100.2224 Y59.8927
G01 X100.2181 Y59.8790
G01 X100.2139 Y59.8603
G01 X100.2115 Y59.8413
G01 X100.2110 Y59.8270
G01 X100.2111 Y58.2222
G01 X100.2125 Y58.2031
G01 X100.2147 Y58.1890
G01 X100.2181 Y58.1750
G01 X100.2241 Y58.1568
G01 X100.2318 Y58.1393
G01 X100.2413 Y58.1227
G01 X100.2494 Y58.1108
G01 X100.2615 Y58.0960
G01 X100.2750 Y58.0825
G01 X100.2860 Y58.0733
G01 X100.2937 Y58.0676
G01 X100.3099 Y58.0573
G01 X100.3270 Y58.0487
G01 X100.3448 Y58.0418
G01 X100.3633 Y58.0367
G01 X100.3821 Y58.0335
G01 X100.3964 Y58.0322
G01 X100.4060 Y58.0320
G01 X102.0108 Y58.0321
G01 X102.0251 Y58.0329
G01 X102.0440 Y58.0357
G01 X102.0626 Y58.0404
G01 X102.0806 Y58.0468
G01 X102.0937 Y58.0528
G01 X102.1103 Y58.0623
G01 X102.1260 Y58.0733
G01 X102.1370 Y58.0825
G01 X102.1505 Y58.0960
G01 X102.1626 Y58.1108
G01 X102.1707 Y58.1227
G01 X102.1757 Y58.1309
G01 X102.1843 Y58.1480
G01 X102.1896 Y58.1613
G01 X102.1926 Y58.1704
G01 X102.1973 Y58.1890
G01 X102.2001 Y58.2079
G01 X102.2010 Y58.2270
G01 X102.2009 Y59.8318
G01 X102.2001 Y59.8461
G01 X102.1973 Y59.8650
G01 X102.1926 Y59.8836
G01 X102.1862 Y59.9016
G01 X102.1802 Y59.9147
G01 X102.1707 Y59.9313
G01 X102.1626 Y59.9432
G01 X102.1505 Y59.9580
G01 X102.1370 Y59.9715
G01 X102.1222 Y59.9836
G01 X102.1062 Y59.9943
G01 X102.0894 Y60.0033
G01 X102.0717 Y60.0106
G01 X102.0580 Y60.0149
G01 X102.0487 Y60.0173
G01 X102.0299 Y60.0205
G01 X102.0108 Y60.0219
G01 X100.4060 Y60.0220
G00 Z2.0000
G00 X101.7526 Y51.5341
G01 F60.00
G01 Z-0.0500
G01 F120.00
G01 X101.7724 Y51.5247
G01 X101.7808 Y51.5202
G01 X101.8523 Y51.4774
G01 X101.8643 Y51.4696
G01 X101.9388 Y51.4141
G01 X102.0112 Y51.3486
G01 X102.0767 Y51.2762
G01 X102.1322 Y51.2017
G01 X102.1400 Y51.1897
G01 X102.1828 Y51.1182
G01 X102.1873 Y51.1098
G01 X102.1967 Y51.0900
G01 X102.3193 Y51.0900
G01 X102.2682 Y51.1996
G01 X102.1573 Y51.3580
G01 X102.0206 Y51.4947
G01 X101.8622 Y51.6056
G01 X101.7526 Y51.6567
G01 X101.7526 Y51.5341
G00 Z2.0000
G00 X100.2959 Y51.0900
G01 F60.00
G01 Z-0.0500
G01 F120.00
G01 X100.4185 Y51.0900
G01 X100.4279 Y51.1098
G01 X100.4324 Y51.1182
G01 X100.4752 Y51.1897
G01 X100.4830 Y51.2017
G01 X100.5385 Y51.2762
G01 X100.6040 Y51.3486
G01 X100.6764 Y51.4141
G01 X100.7509 Y51.4696
G01 X100.7629 Y51.4774
G01 X100.8344 Y51.5202
G01 X100.8428 Y51.5247
G01 X100.8626 Y51.5341
G01 X100.8626 Y51.6567
G01 X100.7530 Y51.6056
G01 X100.5946 Y51.4947
G01 X100.4579 Y51.3580
G01 X100.3470 Y51.1996
G01 X100.2959 Y51.0900
G00 Z2.0000
G00 X100.2959 Y50.2000
G01 F60.00
G01 Z-0.0500
G01 F120.00
G01 X100.3470 Y50.0904
G01 X100.4579 Y49.9320
G01 X100.5946 Y49.7953
G01 X100.7530 Y49.6844
G01 X100.8092 Y49.6582
G01 X100.8223 Y49.6514
G01 X100.8349 Y49.6437
G01 X100.8429 Y49.6381
G01 X100.8507 Y49.6320
G01 X100.8626 Y49.6218
G01 X100.8626 Y49.7559
G01 X100.8428 Y49.7653
G01 X100.8344 Y49.7698
G01 X100.7629 Y49.8126
G01 X100.7509 Y49.8204
G01 X100.6764 Y49.8759
G01 X100.6040 Y49.9414
G01 X100.5385 Y50.0138
G01 X100.4830 Y50.0883
G01 X100.4752 Y50.1003
G01 X100.4324 Y50.1718
G01 X100.4279 Y50.1802
G01 X100.4185 Y50.2000
G01 X100.2959 Y50.2000
G00 Z2.0000
G00 X100.8880 Y49.1389
G01 F60.00
G01 Z-0.0500
G01 F120.00
G01 X100.8521 Y49.1073
G01 X100.8373 Y49.0961
G01 X100.8256 Y49.0886
G01 X100.8175 Y49.0841
G01 X100.7784 Y49.0656
G01 X100.6200 Y48.9547
G01 X100.4833 Y48.8180
G01 X100.3724 Y48.6596
G01 X100.3213 Y48.5500
G01 X100.4439 Y48.5500
G01 X100.4533 Y48.5698
G01 X100.4578 Y48.5782
G01 X100.5006 Y48.6497
G01 X100.5084 Y48.6617
G01 X100.5639 Y48.7362
G01 X100.6294 Y48.8086
G01 X100.7018 Y48.8741
G01 X100.7763 Y48.9296
G01 X100.7883 Y48.9374
G01 X100.8598 Y48.9802
G01 X100.8682 Y48.9847
G01 X100.8880 Y48.9941
G01 X100.8880 Y49.1389
G00 Z2.0000
G00 X101.7780 Y49.1282
G01 F60.00
G01 Z-0.0500
G01 F120.00
G01 X101.7780 Y48.9941
G01 X101.7978 Y48.9847
G01 X101.8062 Y48.9802
G01 X101.8777 Y48.9374
G01 X101.8897 Y48.9296
G01 X101.9642 Y48.8741
G01 X102.0366 Y48.8086
G01 X102.1021 Y48.7362
G01 X102.1576 Y48.6617
G01 X102.1654 Y48.6497
G01 X102.2082 Y48.5782
G01 X102.2127 Y48.5698
G01 X102.2221 Y48.5500
G01 X102.3447 Y48.5500
G01 X102.2936 Y48.6596
G01 X102.1827 Y48.8180
G01 X102.0460 Y48.9547
G01 X101.8876 Y49.0656
G01 X101.8314 Y49.0918
G01 X101.8183 Y49.0986
G01 X101.8098 Y49.1036
G01 X101.7977 Y49.1119
G01 X101.7899 Y49.1180
G01 X101.7780 Y49.1282
G00 Z2.0000
G00 X101.7526 Y49.7559
G01 F60.00
G01 Z-0.0500
G01 F120.00
G01 X101.7526 Y49.6111
G01 X101.7885 Y49.6427
G01 X101.8033 Y49.6539
G01 X101.8150 Y49.6614
G01 X101.8231 Y49.6659
G01 X101.8622 Y49.6844
G01 X102.0206 Y49.7953
G01 X102.1573 Y49.9320
G01 X102.2682 Y50.0904
G01 X102.3193 Y50.2000
G01 X102.1967 Y50.2000
G01 X102.1873 Y50.1802
G01 X102.1828 Y50.1718
G01 X102.1400 Y50.1003
G01 X102.1322 Y50.0883
G01 X102.0767 Y50.0138
G01 X102.0112 Y49.9414
G01 X101.9388 Y49.8759
G01 X101.8643 Y49.8204
G01 X101.8523 Y49.8126
G01 X101.7808 Y49.7698
G01 X101.7724 Y49.7653
G01 X101.7526 Y49.7559
G00 Z2.0000
G00 X100.3213 Y47.6600
G01 F60.00
G01 Z-0.0500
G01 F120.00
G01 X100.3724 Y47.5504
G01 X100.4833 Y47.3920
G01 X100.6200 Y47.2553
G01 X100.7784 Y47.1444
G01 X100.8880 Y47.0933
G01 X100.8880 Y47.2159
G01 X100.8682 Y47.2253
G01 X100.8598 Y47.2298
G01 X100.7883 Y47.2726
G01 X100.7763 Y47.2804
G01 X100.7018 Y47.3359
G01 X100.6294 Y47.4014
G01 X100.5639 Y47.4738
G01 X100.5084 Y47.5483
G01 X100.5006 Y47.5603
G01 X100.4578 Y47.6318
G01 X100.4533 Y47.6402
G01 X100.4439 Y47.6600
G01 X100.3213 Y47.6600
G00 Z2.0000
G00 X101.7780 Y47.2159
G01 F60.00
G01 Z-0.0500
G01 F120.00
G01 X101.7780 Y47.0933
G01 X101.8876 Y47.1444
G01 X102.0460 Y47.2553
G01 X102.1827 Y47.3920
G01 X102.2936 Y47.5504
G01 X102.3447 Y47.6600
G01 X102.2221 Y47.6600
G01 X102.2127 Y47.6402
G01 X102.2082 Y47.6318
G01 X102.1654 Y47.5603
G01 X102.1576 Y47.5483
G01 X102.1021 Y47.4738
G01 X102.0366 Y47.4014
G01 X101.9642 Y47.3359
G01 X101.8897 Y47.2804
G01 X101.8777 Y47.2726
G01 X101.8062 Y47.2298
G01 X101.7978 Y47.2253
G01 X101.7780 Y47.2159
G00 Z2.0000
G00 X96.5927 Y34.7389
G01 F60.00
G01 Z-0.0500
G01 F120.00
G01 X96.5750 Y34.7315
G01 X96.4831 Y34.6878
G01 X96.3875 Y34.6306
G01 X96.2981 Y34.5642
G01 X96.2156 Y34.4894
G01 X96.1408 Y34.4069
G01 X96.0744 Y34.3175
G01 X96.0172 Y34.2219
G01 X95.9696 Y34.1213
G01 X95.9321 Y34.0164
G01 X95.9050 Y33.9084
G01 X95.8887 Y33.7982
G01 X95.8832 Y33.6870
G01 X95.8887 Y33.5758
G01 X95.9050 Y33.4656
G01 X95.9321 Y33.3576
G01 X95.9696 Y33.2527
G01 X96.0172 Y33.1521
G01 X96.0744 Y33.0565
G01 X96.1408 Y32.9671
G01 X96.2156 Y32.8846
G01 X96.2981 Y32.8098
G01 X96.3875 Y32.7434
G01 X96.4831 Y32.6862
G01 X96.5837 Y32.6386
G01 X96.6886 Y32.6011
G01 X96.7966 Y32.5740
G01 X96.9068 Y32.5577
G01 X97.0180 Y32.5522
G01 X97.1292 Y32.5577
G01 X97.2394 Y32.5740
G01 X97.3474 Y32.6011
G01 X97.4523 Y32.6386
G01 X97.5529 Y32.6862
G01 X97.6485 Y32.7434
G01 X97.7379 Y32.8098
G01 X97.8204 Y32.8846
G01 X97.8952 Y32.9671
G01 X97.9616 Y33.0565
G01 X98.0188 Y33.1521
G01 X98.0664 Y33.2527
G01 X98.1039 Y33.3576
G01 X98.1310 Y33.4656
G01 X98.1473 Y33.5758
G01 X98.1528 Y33.6870
G01 X98.1473 Y33.7982
G01 X98.1310 Y33.9084
G01 X98.1039 Y34.0164
G01 X98.0664 Y34.1213
G01 X98.0188 Y34.2219
G01 X97.9616 Y34.3175
G01 X97.8952 Y34.4069
G01 X97.8204 Y34.4894
G01 X97.7379 Y34.5642
G01 X97.6485 Y34.6306
G01 X97.5529 Y34.6878
G01 X97.4523 Y34.7354
G01 X97.3474 Y34.7729
G01 X97.2394 Y34.8000
G01 X97.1292 Y34.8163
G01 X97.0180 Y34.8218
G01 X96.9068 Y34.8163
G01 X96.7966 Y34.8000
G01 X96.6886 Y34.7729
G01 X96.5927 Y34.7389
G00 Z2.0000
G00 X95.7684 Y33.6870
G01 F60.00
G01 Z-0.0500
G01 F120.00
G01 X95.7855 Y33.4813
G01 X95.8361 Y33.2813
G01 X95.9190 Y33.0923
G01 X96.0319 Y32.9195
G01 X96.1717 Y32.7677
G01 X96.3032 Y32.6652
G01 X96.3205 Y32.6502
G01 X96.3273 Y32.6437
G01 X96.3369 Y32.6334
G01 X96.3458 Y32.6224
G01 X96.3563 Y32.6067
G01 X96.3956 Y32.5377
G01 X96.4039 Y32.5203
G01 X96.4090 Y32.5066
G01 X96.4118 Y32.4974
G01 X96.4142 Y32.4880
G01 X96.4168 Y32.4737
G01 X96.4184 Y32.4593
G01 X96.4189 Y32.4496
G01 X96.4186 Y32.4351
G01 X96.4157 Y32.3786
G01 X96.5947 Y32.1996
G01 X96.6886 Y32.2329
G01 X96.7966 Y32.2600
G01 X96.9068 Y32.2763
G01 X97.0180 Y32.2818
G01 X97.1292 Y32.2763
G01 X97.2394 Y32.2600
G01 X97.3474 Y32.2329
G01 X97.4413 Y32.1996
G01 X97.6175 Y32.3758
G01 X97.6171 Y32.3886
G01 X97.6174 Y32.3983
G01 X97.6218 Y32.4777
G01 X97.6238 Y32.4921
G01 X97.6257 Y32.5016
G01 X97.6310 Y32.5202
G01 X97.6381 Y32.5383
G01 X97.6423 Y32.5470
G01 X97.6494 Y32.5596
G01 X97.6575 Y32.5717
G01 X97.7011 Y32.6322
G01 X97.7068 Y32.6394
G01 X97.7161 Y32.6498
G01 X97.7227 Y32.6563
G01 X97.7332 Y32.6655
G01 X97.8643 Y32.7677
G01 X98.0041 Y32.9195
G01 X98.1170 Y33.0923
G01 X98.1999 Y33.2813
G01 X98.2505 Y33.4813
G01 X98.2676 Y33.6870
G01 X98.2505 Y33.8927
G01 X98.1999 Y34.0927
G01 X98.1170 Y34.2817
G01 X98.0041 Y34.4545
G01 X97.8643 Y34.6063
G01 X97.7014 Y34.7331
G01 X97.5199 Y34.8313
G01 X97.3248 Y34.8983
G01 X97.1212 Y34.9323
G01 X96.9148 Y34.9323
G01 X96.7112 Y34.8983
G01 X96.5161 Y34.8313
G01 X96.3346 Y34.7331
G01 X96.1717 Y34.6063
G01 X96.0319 Y34.4545
G01 X95.9190 Y34.2817
G01 X95.8361 Y34.0927
G01 X95.7855 Y33.8927
G01 X95.7684 Y33.6870
G00 Z2.0000
G00 X95.8813 Y31.6544
G01 F60.00
G01 Z-0.0500
G01 F120.00
G01 X95.8366 Y31.5526
G01 X95.7860 Y31.3526
G01 X95.7689 Y31.1470
G01 X95.7860 Y30.9414
G01 X95.8366 Y30.7414
G01 X95.8813 Y30.6396
G01 X95.9654 Y30.7237
G01 X95.9321 Y30.8176
G01 X95.9050 Y30.9256
G01 X95.8887 Y31.0358
G01 X95.8832 Y31.1470
G01 X95.8887 Y31.2582
G01 X95.9050 Y31.3684
G01 X95.9321 Y31.4764
G01 X95.9654 Y31.5703
G01 X95.8813 Y31.6544
G00 Z2.0000
G00 X96.2992 Y29.6256
G01 F60.00
G01 Z-0.0500
G01 F120.00
G01 X96.1717 Y29.5263
G01 X96.0319 Y29.3745
G01 X95.9190 Y29.2017
G01 X95.8361 Y29.0127
G01 X95.7855 Y28.8127
G01 X95.7684 Y28.6070
G01 X95.7855 Y28.4013
G01 X95.8361 Y28.2013
G01 X95.9190 Y28.0123
G01 X96.0319 Y27.8395
G01 X96.1717 Y27.6877
G01 X96.3345 Y27.5609
G01 X96.5161 Y27.4627
G01 X96.7112 Y27.3957
G01 X96.9148 Y27.3617
G01 X97.1212 Y27.3617
G01 X97.3248 Y27.3957
G01 X97.5199 Y27.4627
G01 X97.7014 Y27.5609
G01 X97.8643 Y27.6877
G01 X98.0041 Y27.8395
G01 X98.1170 Y28.0123
G01 X98.1999 Y28.2013
G01 X98.2505 Y28.4013
G01 X98.2676 Y28.6070
G01 X98.2505 Y28.8127
G01 X98.1999 Y29.0127
G01 X98.1170 Y29.2017
G01 X98.0041 Y29.3745
G01 X97.8643 Y29.5263
G01 X97.7328 Y29.6288
G01 X97.7155 Y29.6438
G01 X97.7087 Y29.6503
G01 X97.6991 Y29.6606
G01 X97.6931 Y29.6679
G01 X97.6875 Y29.6755
G01 X97.6797 Y29.6873
G01 X97.6404 Y29.7563
G01 X97.6321 Y29.7737
G01 X97.6255 Y29.7920
G01 X97.6229 Y29.8013
G01 X97.6199 Y29.8155
G01 X97.6185 Y29.8251
G01 X97.6173 Y29.8396
G01 X97.6172 Y29.8541
G01 X97.6203 Y29.9154
G01 X97.4413 Y30.0944
G01 X97.3474 Y30.0611
G01 X97.2394 Y30.0340
G01 X97.1292 Y30.0177
G01 X97.0180 Y30.0122
G01 X96.9068 Y30.0177
G01 X96.7966 Y30.0340
G01 X96.6886 Y30.0611
G01 X96.5947 Y30.0944
G01 X96.4185 Y29.9182
G01 X96.4189 Y29.9054
G01 X96.4186 Y29.8957
G01 X96.4142 Y29.8163
G01 X96.4122 Y29.8019
G01 X96.4091 Y29.7877
G01 X96.4050 Y29.7738
G01 X96.4017 Y29.7647
G01 X96.3937 Y29.7470
G01 X96.3840 Y29.7303
G01 X96.3377 Y29.6656
G01 X96.3292 Y29.6546
G01 X96.3199 Y29.6442
G01 X96.3099 Y29.6345
G01 X96.2992 Y29.6256
G00 Z2.0000
G00 X98.0706 Y30.7237
G01 F60.00
G01 Z-0.0500
G01 F120.00
G01 X98.1547 Y30.6396
G01 X98.1994 Y30.7414
G01 X98.2500 Y30.9414
G01 X98.2671 Y31.1470
G01 X98.2500 Y31.3526
G01 X98.1994 Y31.5526
G01 X98.1547 Y31.6544
G01 X98.0706 Y31.5703
G01 X98.1039 Y31.4764
G01 X98.1310 Y31.3684
G01 X98.1473 Y31.2582
G01 X98.1528 Y31.1470
G01 X98.1473 Y31.0358
G01 X98.1310 Y30.9256
G01 X98.1039 Y30.8176
G01 X98.0706 Y30.7237
G00 Z2.0000
G00 X98.1526 Y28.5974
G01 F60.00
G01 Z-0.0500
G01 F120.00
G01 X98.1526 Y28.6166
G01 X98.1473 Y28.7182
G01 X98.1310 Y28.8284
G01 X98.1039 Y28.9364
G01 X98.0664 Y29.0413
G01 X98.0188 Y29.1419
G01 X97.9616 Y29.2375
G01 X97.8952 Y29.3269
G01 X97.8204 Y29.4094
G01 X97.7379 Y29.4842
G01 X97.6485 Y29.5506
G01 X97.5529 Y29.6078
G01 X97.4523 Y29.6554
G01 X97.3474 Y29.6929
G01 X97.2394 Y29.7200
G01 X97.1292 Y29.7363
G01 X97.0180 Y29.7418
G01 X96.9068 Y29.7363
G01 X96.7966 Y29.7200
G01 X96.6886 Y29.6929
G01 X96.5837 Y29.6554
G01 X96.4831 Y29.6078
G01 X96.3875 Y29.5506
G01 X96.2981 Y29.4842
G01 X96.2156 Y29.4094
G01 X96.1408 Y29.3269
G01 X96.0744 Y29.2375
G01 X96.0172 Y29.1419
G01 X95.9696 Y29.0413
G01 X95.9321 Y28.9364
G01 X95.9050 Y28.8284
G01 X95.8887 Y28.7182
G01 X95.8832 Y28.6070
G01 X95.8887 Y28.4958
G01 X95.9050 Y28.3856
G01 X95.9321 Y28.2776
G01 X95.9696 Y28.1727
G01 X96.0172 Y28.0721
G01 X96.0744 Y27.9765
G01 X96.1408 Y27.8871
G01 X96.2156 Y27.8046
G01 X96.2981 Y27.7298
G01 X96.3875 Y27.6634
G01 X96.4831 Y27.6062
G01 X96.5837 Y27.5586
G01 X96.6886 Y27.5211
G01 X96.7966 Y27.4940
G01 X96.9068 Y27.4777
G01 X97.0180 Y27.4722
G01 X97.1292 Y27.4777
G01 X97.2394 Y27.4940
G01 X97.3474 Y27.5211
G01 X97.4523 Y27.5586
G01 X97.5529 Y27.6062
G01 X97.6485 Y27.6634
G01 X97.7379 Y27.7298
G01 X97.8204 Y27.8046
G01 X97.8952 Y27.8871
G01 X97.9616 Y27.9765
G01 X98.0188 Y28.0721
G01 X98.0664 Y28.1727
G01 X98.1039 Y28.2776
G01 X98.1310 Y28.3856
G01 X98.1473 Y28.4958
G01 X98.1526 Y28.5974
G00 Z2.0000
G00 X99.8960 Y28.5470
G01 F60.00
G01 Z-0.0500
G01 F120.00
G01 X99.9139 Y28.3314
G01 X99.9670 Y28.1217
G01 X100.0539 Y27.9235
G01 X100.1722 Y27.7424
G01 X100.3188 Y27.5832
G01 X100.4895 Y27.4503
G01 X100.6798 Y27.3474
G01 X100.8844 Y27.2771
G01 X101.0978 Y27.2415
G01 X101.3142 Y27.2415
G01 X101.5276 Y27.2771
G01 X101.7322 Y27.3474
G01 X101.9225 Y27.4503
G01 X102.0932 Y27.5832
G01 X102.2398 Y27.7424
G01 X102.3581 Y27.9235
G01 X102.4450 Y28.1217
G01 X102.4981 Y28.3314
G01 X102.5160 Y28.5470
G01 X102.4981 Y28.7626
G01 X102.4930 Y28.7839
G01 X102.4913 Y28.7937
G01 X102.4901 Y28.8037
G01 X102.4893 Y28.8187
G01 X102.4883 Y28.8803
G01 X102.4886 Y28.8899
G01 X102.4899 Y28.9042
G01 X102.4934 Y28.9231
G01 X102.4986 Y28.9415
G01 X102.5057 Y28.9594
G01 X102.5121 Y28.9722
G01 X102.5502 Y29.0416
G01 X102.5553 Y29.0494
G01 X102.5635 Y29.0606
G01 X102.5756 Y29.0747
G01 X103.0712 Y29.5703
G01 X103.0824 Y29.5809
G01 X103.1112 Y29.6063
G01 X103.1386 Y29.6457
G01 X103.1676 Y29.6829
G01 X103.1798 Y29.7046
G01 X103.1981 Y29.7521
G01 X103.2174 Y29.7952
G01 X103.2241 Y29.8192
G01 X103.2298 Y29.8660
G01 X103.2383 Y29.9133
G01 X103.2360 Y29.9515
G01 X103.2355 Y29.9670
G01 X103.2355 Y33.7935
G01 X103.2361 Y33.8091
G01 X103.2407 Y33.8502
G01 X103.2424 Y33.8596
G01 X103.2459 Y33.8735
G01 X103.2520 Y33.8916
G01 X103.2558 Y33.9004
G01 X103.2622 Y33.9133
G01 X103.3003 Y33.9827
G01 X103.3107 Y33.9980
G01 X103.3165 Y34.0053
G01 X103.3257 Y34.0157
G01 X105.3572 Y36.0473
G01 X105.3684 Y36.0579
G01 X105.3972 Y36.0833
G01 X105.4246 Y36.1227
G01 X105.4536 Y36.1599
G01 X105.4658 Y36.1816
G01 X105.4827 Y36.2257
G01 X105.5034 Y36.2722
G01 X105.5101 Y36.2962
G01 X105.5158 Y36.3430
G01 X105.5243 Y36.3903
G01 X105.5220 Y36.4285
G01 X105.5215 Y36.4440
G01 X105.5215 Y39.2545
G01 X105.5221 Y39.2701
G01 X105.5267 Y39.3112
G01 X105.5295 Y39.3253
G01 X105.5347 Y39.3437
G01 X105.5399 Y39.3571
G01 X105.5459 Y39.3701
G01 X105.5839 Y39.4397
G01 X105.5888 Y39.4476
G01 X105.5967 Y39.4590
G01 X105.6025 Y39.4663
G01 X105.6117 Y39.4767
