(G-CODE GENERATED BY FLATCAM v8.994 - www.flatcam.org - Version Date: 2020/11/7)
(Name: bms test circuit-Edge_Cuts.gbr_cutout_cnc)
(Type: G-code from Geometry)
(Units: MM)
(Created on Tuesday, 02 July 2024 at 00:19)
(This preprocessor is the default preprocessor used by FlatCAM.)
(It is made to work with MACH3 compatible motion controllers.)
(TOOL DIAMETER: 2.0 mm)
(Feedrate_XY: 120.0 mm/min)
(Feedrate_Z: 60.0 mm/min)
(Feedrate rapids 1500.0 mm/min)
(Z_Cut: -2.0 mm)
(DepthPerCut: 0.25 mm <=>8 passes)
(Z_Move: 2.0 mm)
(Z Start: None mm)
(Z End: 15.0 mm)
(X,Y End: None mm)
(Steps per circle: 64)
(Preprocessor Geometry: default)
(X range:   16.4790 ...  124.0840  mm)
(Y range:  -71.2370 ...   -8.7170  mm)
(Spindle Speed: 0.0 RPM)
G21
G90
G94
G01 F120.00
M5
G00 Z15.0000
G00 X0.0000 Y0.0000
T1
G00 Z15.0000
M03 S10000
G01 F120.00
G00 X16.4790 Y-35.9770
G01 F60.00
G01 Z-0.2500
G01 F120.00
G01 X16.4790 Y-10.7170
G01 X16.4886 Y-10.5209
G01 X16.5174 Y-10.3268
G01 X16.5651 Y-10.1364
G01 X16.6312 Y-9.9516
G01 X16.7151 Y-9.7742
G01 X16.8160 Y-9.6058
G01 X16.9330 Y-9.4482
G01 X17.0648 Y-9.3028
G01 X17.2102 Y-9.1710
G01 X17.3678 Y-9.0540
G01 X17.5362 Y-8.9531
G01 X17.7136 Y-8.8692
G01 X17.8984 Y-8.8031
G01 X18.0888 Y-8.7554
G01 X18.2829 Y-8.7266
G01 X18.4790 Y-8.7170
G01 X68.2815 Y-8.7170
G00 X68.2815 Y-8.7170
G01 F60.00
G01 Z-0.5000
G01 F120.00
G01 X18.4790 Y-8.7170
G01 X18.2829 Y-8.7266
G01 X18.0888 Y-8.7554
G01 X17.8984 Y-8.8031
G01 X17.7136 Y-8.8692
G01 X17.5362 Y-8.9531
G01 X17.3678 Y-9.0540
G01 X17.2102 Y-9.1710
G01 X17.0648 Y-9.3028
G01 X16.9330 Y-9.4482
G01 X16.8160 Y-9.6058
G01 X16.7151 Y-9.7742
G01 X16.6312 Y-9.9516
G01 X16.5651 Y-10.1364
G01 X16.5174 Y-10.3268
G01 X16.4886 Y-10.5209
G01 X16.4790 Y-10.7170
G01 X16.4790 Y-35.9770
G00 X16.4790 Y-35.9770
G01 F60.00
G01 Z-0.7500
G01 F120.00
G01 X16.4790 Y-10.7170
G01 X16.4886 Y-10.5209
G01 X16.5174 Y-10.3268
G01 X16.5651 Y-10.1364
G01 X16.6312 Y-9.9516
G01 X16.7151 Y-9.7742
G01 X16.8160 Y-9.6058
G01 X16.9330 Y-9.4482
G01 X17.0648 Y-9.3028
G01 X17.2102 Y-9.1710
G01 X17.3678 Y-9.0540
G01 X17.5362 Y-8.9531
G01 X17.7136 Y-8.8692
G01 X17.8984 Y-8.8031
G01 X18.0888 Y-8.7554
G01 X18.2829 Y-8.7266
G01 X18.4790 Y-8.7170
G01 X68.2815 Y-8.7170
G00 X68.2815 Y-8.7170
G01 F60.00
G01 Z-1.0000
G01 F120.00
G01 X18.4790 Y-8.7170
G01 X18.2829 Y-8.7266
G01 X18.0888 Y-8.7554
G01 X17.8984 Y-8.8031
G01 X17.7136 Y-8.8692
G01 X17.5362 Y-8.9531
G01 X17.3678 Y-9.0540
G01 X17.2102 Y-9.1710
G01 X17.0648 Y-9.3028
G01 X16.9330 Y-9.4482
G01 X16.8160 Y-9.6058
G01 X16.7151 Y-9.7742
G01 X16.6312 Y-9.9516
G01 X16.5651 Y-10.1364
G01 X16.5174 Y-10.3268
G01 X16.4886 Y-10.5209
G01 X16.4790 Y-10.7170
G01 X16.4790 Y-35.9770
G00 X16.4790 Y-35.9770
G01 F60.00
G01 Z-1.2500
G01 F120.00
G01 X16.4790 Y-10.7170
G01 X16.4886 Y-10.5209
G01 X16.5174 Y-10.3268
G01 X16.5651 Y-10.1364
G01 X16.6312 Y-9.9516
G01 X16.7151 Y-9.7742
G01 X16.8160 Y-9.6058
G01 X16.9330 Y-9.4482
G01 X17.0648 Y-9.3028
G01 X17.2102 Y-9.1710
G01 X17.3678 Y-9.0540
G01 X17.5362 Y-8.9531
G01 X17.7136 Y-8.8692
G01 X17.8984 Y-8.8031
G01 X18.0888 Y-8.7554
G01 X18.2829 Y-8.7266
G01 X18.4790 Y-8.7170
G01 X68.2815 Y-8.7170
G00 X68.2815 Y-8.7170
G01 F60.00
G01 Z-1.5000
G01 F120.00
G01 X18.4790 Y-8.7170
G01 X18.2829 Y-8.7266
G01 X18.0888 Y-8.7554
G01 X17.8984 Y-8.8031
G01 X17.7136 Y-8.8692
G01 X17.5362 Y-8.9531
G01 X17.3678 Y-9.0540
G01 X17.2102 Y-9.1710
G01 X17.0648 Y-9.3028
G01 X16.9330 Y-9.4482
G01 X16.8160 Y-9.6058
G01 X16.7151 Y-9.7742
G01 X16.6312 Y-9.9516
G01 X16.5651 Y-10.1364
G01 X16.5174 Y-10.3268
G01 X16.4886 Y-10.5209
G01 X16.4790 Y-10.7170
G01 X16.4790 Y-35.9770
G00 X16.4790 Y-35.9770
G01 F60.00
G01 Z-1.7500
G01 F120.00
G01 X16.4790 Y-10.7170
G01 X16.4886 Y-10.5209
G01 X16.5174 Y-10.3268
G01 X16.5651 Y-10.1364
G01 X16.6312 Y-9.9516
G01 X16.7151 Y-9.7742
G01 X16.8160 Y-9.6058
G01 X16.9330 Y-9.4482
G01 X17.0648 Y-9.3028
G01 X17.2102 Y-9.1710
G01 X17.3678 Y-9.0540
G01 X17.5362 Y-8.9531
G01 X17.7136 Y-8.8692
G01 X17.8984 Y-8.8031
G01 X18.0888 Y-8.7554
G01 X18.2829 Y-8.7266
G01 X18.4790 Y-8.7170
G01 X68.2815 Y-8.7170
G00 X68.2815 Y-8.7170
G01 F60.00
G01 Z-2.0000
G01 F120.00
G01 X18.4790 Y-8.7170
G01 X18.2829 Y-8.7266
G01 X18.0888 Y-8.7554
G01 X17.8984 Y-8.8031
G01 X17.7136 Y-8.8692
G01 X17.5362 Y-8.9531
G01 X17.3678 Y-9.0540
G01 X17.2102 Y-9.1710
G01 X17.0648 Y-9.3028
G01 X16.9330 Y-9.4482
G01 X16.8160 Y-9.6058
G01 X16.7151 Y-9.7742
G01 X16.6312 Y-9.9516
G01 X16.5651 Y-10.1364
G01 X16.5174 Y-10.3268
G01 X16.4886 Y-10.5209
G01 X16.4790 Y-10.7170
G01 X16.4790 Y-35.9770
G00 Z2.0000
G00 X74.2815 Y-8.7170
G01 F60.00
G01 Z-0.2500
G01 F120.00
G01 X122.0840 Y-8.7170
G01 X122.2801 Y-8.7266
G01 X122.4742 Y-8.7554
G01 X122.6646 Y-8.8031
G01 X122.8494 Y-8.8692
G01 X123.0268 Y-8.9531
G01 X123.1952 Y-9.0540
G01 X123.3528 Y-9.1710
G01 X123.4982 Y-9.3028
G01 X123.6300 Y-9.4482
G01 X123.7470 Y-9.6058
G01 X123.8479 Y-9.7742
G01 X123.9318 Y-9.9516
G01 X123.9979 Y-10.1364
G01 X124.0456 Y-10.3268
G01 X124.0744 Y-10.5209
G01 X124.0840 Y-10.7170
G01 X124.0840 Y-35.9770
G00 X124.0840 Y-35.9770
G01 F60.00
G01 Z-0.5000
G01 F120.00
G01 X124.0840 Y-10.7170
G01 X124.0744 Y-10.5209
G01 X124.0456 Y-10.3268
G01 X123.9979 Y-10.1364
G01 X123.9318 Y-9.9516
G01 X123.8479 Y-9.7742
G01 X123.7470 Y-9.6058
G01 X123.6300 Y-9.4482
G01 X123.4982 Y-9.3028
G01 X123.3528 Y-9.1710
G01 X123.1952 Y-9.0540
G01 X123.0268 Y-8.9531
G01 X122.8494 Y-8.8692
G01 X122.6646 Y-8.8031
G01 X122.4742 Y-8.7554
G01 X122.2801 Y-8.7266
G01 X122.0840 Y-8.7170
G01 X74.2815 Y-8.7170
G00 X74.2815 Y-8.7170
G01 F60.00
G01 Z-0.7500
G01 F120.00
G01 X122.0840 Y-8.7170
G01 X122.2801 Y-8.7266
G01 X122.4742 Y-8.7554
G01 X122.6646 Y-8.8031
G01 X122.8494 Y-8.8692
G01 X123.0268 Y-8.9531
G01 X123.1952 Y-9.0540
G01 X123.3528 Y-9.1710
G01 X123.4982 Y-9.3028
G01 X123.6300 Y-9.4482
G01 X123.7470 Y-9.6058
G01 X123.8479 Y-9.7742
G01 X123.9318 Y-9.9516
G01 X123.9979 Y-10.1364
G01 X124.0456 Y-10.3268
G01 X124.0744 Y-10.5209
G01 X124.0840 Y-10.7170
G01 X124.0840 Y-35.9770
G00 X124.0840 Y-35.9770
G01 F60.00
G01 Z-1.0000
G01 F120.00
G01 X124.0840 Y-10.7170
G01 X124.0744 Y-10.5209
G01 X124.0456 Y-10.3268
G01 X123.9979 Y-10.1364
G01 X123.9318 Y-9.9516
G01 X123.8479 Y-9.7742
G01 X123.7470 Y-9.6058
G01 X123.6300 Y-9.4482
G01 X123.4982 Y-9.3028
G01 X123.3528 Y-9.1710
G01 X123.1952 Y-9.0540
G01 X123.0268 Y-8.9531
G01 X122.8494 Y-8.8692
G01 X122.6646 Y-8.8031
G01 X122.4742 Y-8.7554
G01 X122.2801 Y-8.7266
G01 X122.0840 Y-8.7170
G01 X74.2815 Y-8.7170
G00 X74.2815 Y-8.7170
G01 F60.00
G01 Z-1.2500
G01 F120.00
G01 X122.0840 Y-8.7170
G01 X122.2801 Y-8.7266
G01 X122.4742 Y-8.7554
G01 X122.6646 Y-8.8031
G01 X122.8494 Y-8.8692
G01 X123.0268 Y-8.9531
G01 X123.1952 Y-9.0540
G01 X123.3528 Y-9.1710
G01 X123.4982 Y-9.3028
G01 X123.6300 Y-9.4482
G01 X123.7470 Y-9.6058
G01 X123.8479 Y-9.7742
G01 X123.9318 Y-9.9516
G01 X123.9979 Y-10.1364
G01 X124.0456 Y-10.3268
G01 X124.0744 Y-10.5209
G01 X124.0840 Y-10.7170
G01 X124.0840 Y-35.9770
G00 X124.0840 Y-35.9770
G01 F60.00
G01 Z-1.5000
G01 F120.00
G01 X124.0840 Y-10.7170
G01 X124.0744 Y-10.5209
G01 X124.0456 Y-10.3268
G01 X123.9979 Y-10.1364
G01 X123.9318 Y-9.9516
G01 X123.8479 Y-9.7742
G01 X123.7470 Y-9.6058
G01 X123.6300 Y-9.4482
G01 X123.4982 Y-9.3028
G01 X123.3528 Y-9.1710
G01 X123.1952 Y-9.0540
G01 X123.0268 Y-8.9531
G01 X122.8494 Y-8.8692
G01 X122.6646 Y-8.8031
G01 X122.4742 Y-8.7554
G01 X122.2801 Y-8.7266
G01 X122.0840 Y-8.7170
G01 X74.2815 Y-8.7170
G00 X74.2815 Y-8.7170
G01 F60.00
G01 Z-1.7500
G01 F120.00
G01 X122.0840 Y-8.7170
G01 X122.2801 Y-8.7266
G01 X122.4742 Y-8.7554
G01 X122.6646 Y-8.8031
G01 X122.8494 Y-8.8692
G01 X123.0268 Y-8.9531
G01 X123.1952 Y-9.0540
G01 X123.3528 Y-9.1710
G01 X123.4982 Y-9.3028
G01 X123.6300 Y-9.4482
G01 X123.7470 Y-9.6058
G01 X123.8479 Y-9.7742
G01 X123.9318 Y-9.9516
G01 X123.9979 Y-10.1364
G01 X124.0456 Y-10.3268
G01 X124.0744 Y-10.5209
G01 X124.0840 Y-10.7170
G01 X124.0840 Y-35.9770
G00 X124.0840 Y-35.9770
G01 F60.00
G01 Z-2.0000
G01 F120.00
G01 X124.0840 Y-10.7170
G01 X124.0744 Y-10.5209
G01 X124.0456 Y-10.3268
G01 X123.9979 Y-10.1364
G01 X123.9318 Y-9.9516
G01 X123.8479 Y-9.7742
G01 X123.7470 Y-9.6058
G01 X123.6300 Y-9.4482
G01 X123.4982 Y-9.3028
G01 X123.3528 Y-9.1710
G01 X123.1952 Y-9.0540
G01 X123.0268 Y-8.9531
G01 X122.8494 Y-8.8692
G01 X122.6646 Y-8.8031
G01 X122.4742 Y-8.7554
G01 X122.2801 Y-8.7266
G01 X122.0840 Y-8.7170
G01 X74.2815 Y-8.7170
G00 Z2.0000
G00 X124.0840 Y-41.9770
G01 F60.00
G01 Z-0.2500
G01 F120.00
G01 X124.0840 Y-69.2370
G01 X124.0744 Y-69.4331
G01 X124.0456 Y-69.6272
G01 X123.9979 Y-69.8176
G01 X123.9318 Y-70.0024
G01 X123.8479 Y-70.1798
G01 X123.7470 Y-70.3482
G01 X123.6300 Y-70.5058
G01 X123.4982 Y-70.6512
G01 X123.3528 Y-70.7830
G01 X123.1952 Y-70.9000
G01 X123.0268 Y-71.0009
G01 X122.8494 Y-71.0848
G01 X122.6646 Y-71.1509
G01 X122.4742 Y-71.1986
G01 X122.2801 Y-71.2274
G01 X122.0840 Y-71.2370
G01 X74.2815 Y-71.2370
G00 X74.2815 Y-71.2370
G01 F60.00
G01 Z-0.5000
G01 F120.00
G01 X122.0840 Y-71.2370
G01 X122.2801 Y-71.2274
G01 X122.4742 Y-71.1986
G01 X122.6646 Y-71.1509
G01 X122.8494 Y-71.0848
G01 X123.0268 Y-71.0009
G01 X123.1952 Y-70.9000
G01 X123.3528 Y-70.7830
G01 X123.4982 Y-70.6512
G01 X123.6300 Y-70.5058
G01 X123.7470 Y-70.3482
G01 X123.8479 Y-70.1798
G01 X123.9318 Y-70.0024
G01 X123.9979 Y-69.8176
G01 X124.0456 Y-69.6272
G01 X124.0744 Y-69.4331
G01 X124.0840 Y-69.2370
G01 X124.0840 Y-41.9770
G00 X124.0840 Y-41.9770
G01 F60.00
G01 Z-0.7500
G01 F120.00
G01 X124.0840 Y-69.2370
G01 X124.0744 Y-69.4331
G01 X124.0456 Y-69.6272
G01 X123.9979 Y-69.8176
G01 X123.9318 Y-70.0024
G01 X123.8479 Y-70.1798
G01 X123.7470 Y-70.3482
G01 X123.6300 Y-70.5058
G01 X123.4982 Y-70.6512
G01 X123.3528 Y-70.7830
G01 X123.1952 Y-70.9000
G01 X123.0268 Y-71.0009
G01 X122.8494 Y-71.0848
G01 X122.6646 Y-71.1509
G01 X122.4742 Y-71.1986
G01 X122.2801 Y-71.2274
G01 X122.0840 Y-71.2370
G01 X74.2815 Y-71.2370
G00 X74.2815 Y-71.2370
G01 F60.00
G01 Z-1.0000
G01 F120.00
G01 X122.0840 Y-71.2370
G01 X122.2801 Y-71.2274
G01 X122.4742 Y-71.1986
G01 X122.6646 Y-71.1509
G01 X122.8494 Y-71.0848
G01 X123.0268 Y-71.0009
G01 X123.1952 Y-70.9000
G01 X123.3528 Y-70.7830
G01 X123.4982 Y-70.6512
G01 X123.6300 Y-70.5058
G01 X123.7470 Y-70.3482
G01 X123.8479 Y-70.1798
G01 X123.9318 Y-70.0024
G01 X123.9979 Y-69.8176
G01 X124.0456 Y-69.6272
G01 X124.0744 Y-69.4331
G01 X124.0840 Y-69.2370
G01 X124.0840 Y-41.9770
G00 X124.0840 Y-41.9770
G01 F60.00
G01 Z-1.2500
G01 F120.00
G01 X124.0840 Y-69.2370
G01 X124.0744 Y-69.4331
G01 X124.0456 Y-69.6272
G01 X123.9979 Y-69.8176
G01 X123.9318 Y-70.0024
G01 X123.8479 Y-70.1798
G01 X123.7470 Y-70.3482
G01 X123.6300 Y-70.5058
G01 X123.4982 Y-70.6512
G01 X123.3528 Y-70.7830
G01 X123.1952 Y-70.9000
G01 X123.0268 Y-71.0009
G01 X122.8494 Y-71.0848
G01 X122.6646 Y-71.1509
G01 X122.4742 Y-71.1986
G01 X122.2801 Y-71.2274
G01 X122.0840 Y-71.2370
G01 X74.2815 Y-71.2370
G00 X74.2815 Y-71.2370
G01 F60.00
G01 Z-1.5000
G01 F120.00
G01 X122.0840 Y-71.2370
G01 X122.2801 Y-71.2274
G01 X122.4742 Y-71.1986
G01 X122.6646 Y-71.1509
G01 X122.8494 Y-71.0848
G01 X123.0268 Y-71.0009
G01 X123.1952 Y-70.9000
G01 X123.3528 Y-70.7830
G01 X123.4982 Y-70.6512
G01 X123.6300 Y-70.5058
G01 X123.7470 Y-70.3482
G01 X123.8479 Y-70.1798
G01 X123.9318 Y-70.0024
G01 X123.9979 Y-69.8176
G01 X124.0456 Y-69.6272
G01 X124.0744 Y-69.4331
G01 X124.0840 Y-69.2370
G01 X124.0840 Y-41.9770
G00 X124.0840 Y-41.9770
G01 F60.00
G01 Z-1.7500
G01 F120.00
G01 X124.0840 Y-69.2370
G01 X124.0744 Y-69.4331
G01 X124.0456 Y-69.6272
G01 X123.9979 Y-69.8176
G01 X123.9318 Y-70.0024
G01 X123.8479 Y-70.1798
G01 X123.7470 Y-70.3482
G01 X123.6300 Y-70.5058
G01 X123.4982 Y-70.6512
G01 X123.3528 Y-70.7830
G01 X123.1952 Y-70.9000
G01 X123.0268 Y-71.0009
G01 X122.8494 Y-71.0848
G01 X122.6646 Y-71.1509
G01 X122.4742 Y-71.1986
G01 X122.2801 Y-71.2274
G01 X122.0840 Y-71.2370
G01 X74.2815 Y-71.2370
G00 X74.2815 Y-71.2370
G01 F60.00
G01 Z-2.0000
G01 F120.00
G01 X122.0840 Y-71.2370
G01 X122.2801 Y-71.2274
G01 X122.4742 Y-71.1986
G01 X122.6646 Y-71.1509
G01 X122.8494 Y-71.0848
G01 X123.0268 Y-71.0009
G01 X123.1952 Y-70.9000
G01 X123.3528 Y-70.7830
G01 X123.4982 Y-70.6512
G01 X123.6300 Y-70.5058
G01 X123.7470 Y-70.3482
G01 X123.8479 Y-70.1798
G01 X123.9318 Y-70.0024
G01 X123.9979 Y-69.8176
G01 X124.0456 Y-69.6272
G01 X124.0744 Y-69.4331
G01 X124.0840 Y-69.2370
G01 X124.0840 Y-41.9770
G00 Z2.0000
G00 X68.2815 Y-71.2370
G01 F60.00
G01 Z-0.2500
G01 F120.00
G01 X18.4790 Y-71.2370
G01 X18.2829 Y-71.2274
G01 X18.0888 Y-71.1986
G01 X17.8984 Y-71.1509
G01 X17.7136 Y-71.0848
G01 X17.5362 Y-71.0009
G01 X17.3678 Y-70.9000
G01 X17.2102 Y-70.7830
G01 X17.0648 Y-70.6512
G01 X16.9330 Y-70.5058
G01 X16.8160 Y-70.3482
G01 X16.7151 Y-70.1798
G01 X16.6312 Y-70.0024
G01 X16.5651 Y-69.8176
G01 X16.5174 Y-69.6272
G01 X16.4886 Y-69.4331
G01 X16.4790 Y-69.2370
G01 X16.4790 Y-41.9770
G00 X16.4790 Y-41.9770
G01 F60.00
G01 Z-0.5000
G01 F120.00
G01 X16.4790 Y-69.2370
G01 X16.4886 Y-69.4331
G01 X16.5174 Y-69.6272
G01 X16.5651 Y-69.8176
G01 X16.6312 Y-70.0024
G01 X16.7151 Y-70.1798
G01 X16.8160 Y-70.3482
G01 X16.9330 Y-70.5058
G01 X17.0648 Y-70.6512
G01 X17.2102 Y-70.7830
G01 X17.3678 Y-70.9000
G01 X17.5362 Y-71.0009
G01 X17.7136 Y-71.0848
G01 X17.8984 Y-71.1509
G01 X18.0888 Y-71.1986
G01 X18.2829 Y-71.2274
G01 X18.4790 Y-71.2370
G01 X68.2815 Y-71.2370
G00 X68.2815 Y-71.2370
G01 F60.00
G01 Z-0.7500
G01 F120.00
G01 X18.4790 Y-71.2370
G01 X18.2829 Y-71.2274
G01 X18.0888 Y-71.1986
G01 X17.8984 Y-71.1509
G01 X17.7136 Y-71.0848
G01 X17.5362 Y-71.0009
G01 X17.3678 Y-70.9000
G01 X17.2102 Y-70.7830
G01 X17.0648 Y-70.6512
G01 X16.9330 Y-70.5058
G01 X16.8160 Y-70.3482
G01 X16.7151 Y-70.1798
G01 X16.6312 Y-70.0024
G01 X16.5651 Y-69.8176
G01 X16.5174 Y-69.6272
G01 X16.4886 Y-69.4331
G01 X16.4790 Y-69.2370
G01 X16.4790 Y-41.9770
G00 X16.4790 Y-41.9770
G01 F60.00
G01 Z-1.0000
G01 F120.00
G01 X16.4790 Y-69.2370
G01 X16.4886 Y-69.4331
G01 X16.5174 Y-69.6272
G01 X16.5651 Y-69.8176
G01 X16.6312 Y-70.0024
G01 X16.7151 Y-70.1798
G01 X16.8160 Y-70.3482
G01 X16.9330 Y-70.5058
G01 X17.0648 Y-70.6512
G01 X17.2102 Y-70.7830
G01 X17.3678 Y-70.9000
G01 X17.5362 Y-71.0009
G01 X17.7136 Y-71.0848
G01 X17.8984 Y-71.1509
G01 X18.0888 Y-71.1986
G01 X18.2829 Y-71.2274
G01 X18.4790 Y-71.2370
G01 X68.2815 Y-71.2370
G00 X68.2815 Y-71.2370
G01 F60.00
G01 Z-1.2500
G01 F120.00
G01 X18.4790 Y-71.2370
G01 X18.2829 Y-71.2274
G01 X18.0888 Y-71.1986
G01 X17.8984 Y-71.1509
G01 X17.7136 Y-71.0848
G01 X17.5362 Y-71.0009
G01 X17.3678 Y-70.9000
G01 X17.2102 Y-70.7830
G01 X17.0648 Y-70.6512
G01 X16.9330 Y-70.5058
G01 X16.8160 Y-70.3482
G01 X16.7151 Y-70.1798
G01 X16.6312 Y-70.0024
G01 X16.5651 Y-69.8176
G01 X16.5174 Y-69.6272
G01 X16.4886 Y-69.4331
G01 X16.4790 Y-69.2370
G01 X16.4790 Y-41.9770
G00 X16.4790 Y-41.9770
G01 F60.00
G01 Z-1.5000
G01 F120.00
G01 X16.4790 Y-69.2370
G01 X16.4886 Y-69.4331
G01 X16.5174 Y-69.6272
G01 X16.5651 Y-69.8176
G01 X16.6312 Y-70.0024
G01 X16.7151 Y-70.1798
G01 X16.8160 Y-70.3482
G01 X16.9330 Y-70.5058
G01 X17.0648 Y-70.6512
G01 X17.2102 Y-70.7830
G01 X17.3678 Y-70.9000
G01 X17.5362 Y-71.0009
G01 X17.7136 Y-71.0848
G01 X17.8984 Y-71.1509
G01 X18.0888 Y-71.1986
G01 X18.2829 Y-71.2274
G01 X18.4790 Y-71.2370
G01 X68.2815 Y-71.2370
G00 X68.2815 Y-71.2370
G01 F60.00
G01 Z-1.7500
G01 F120.00
G01 X18.4790 Y-71.2370
G01 X18.2829 Y-71.2274
G01 X18.0888 Y-71.1986
G01 X17.8984 Y-71.1509
G01 X17.7136 Y-71.0848
G01 X17.5362 Y-71.0009
G01 X17.3678 Y-70.9000
G01 X17.2102 Y-70.7830
G01 X17.0648 Y-70.6512
G01 X16.9330 Y-70.5058
G01 X16.8160 Y-70.3482
G01 X16.7151 Y-70.1798
G01 X16.6312 Y-70.0024
G01 X16.5651 Y-69.8176
G01 X16.5174 Y-69.6272
G01 X16.4886 Y-69.4331
G01 X16.4790 Y-69.2370
G01 X16.4790 Y-41.9770
G00 X16.4790 Y-41.9770
G01 F60.00
G01 Z-2.0000
G01 F120.00
G01 X16.4790 Y-69.2370
G01 X16.4886 Y-69.4331
G01 X16.5174 Y-69.6272
G01 X16.5651 Y-69.8176
G01 X16.6312 Y-70.0024
G01 X16.7151 Y-70.1798
G01 X16.8160 Y-70.3482
G01 X16.9330 Y-70.5058
G01 X17.0648 Y-70.6512
G01 X17.2102 Y-70.7830
G01 X17.3678 Y-70.9000
G01 X17.5362 Y-71.0009
G01 X17.7136 Y-71.0848
G01 X17.8984 Y-71.1509
G01 X18.0888 Y-71.1986
G01 X18.2829 Y-71.2274
G01 X18.4790 Y-71.2370
G01 X68.2815 Y-71.2370
G00 Z2.0000
M05
G00 Z2.0000
G00 Z15.00
