(G-CODE GENERATED BY FLATCAM v8.994 - www.flatcam.org - Version Date: 2020/11/7)
(Name: bms test circuit-F_Cu.gbr_iso_combined_cnc)
(Type: G-code from Geometry)
(Units: MM)
(Created on Tuesday, 02 July 2024 at 00:24)
(This preprocessor is the default preprocessor used by FlatCAM.)
(It is made to work with MACH3 compatible motion controllers.)
(TOOL DIAMETER: 0.39 mm)
(Feedrate_XY: 120.0 mm/min)
(Feedrate_Z: 60.0 mm/min)
(Feedrate rapids 1500.0 mm/min)
(Z_Cut: -0.05 mm)
(Z_Move: 2.0 mm)
(Z Start: None mm)
(Z End: 10.0 mm)
(X,Y End: None mm)
(Steps per circle: 64)
(Preprocessor Geometry: default)
(X range:   21.9939 ...  117.1721  mm)
(Y range:  -68.8971 ...  -11.1920  mm)
(Spindle Speed: 0.0 RPM)
G21
G90
G94
G01 F120.00
M5
G00 Z15.0000
G00 X0.0000 Y0.0000
T1
G00 Z15.0000
M03 S10000
G01 F120.00
G00 X31.3950 Y-21.4320
G01 F60.00
G01 Z-0.0500
G01 F120.00
G01 X34.3950 Y-21.4320
G01 X34.4141 Y-21.4311
G01 X34.4283 Y-21.4291
G01 X34.4377 Y-21.4273
G01 X34.4562 Y-21.4222
G01 X34.4652 Y-21.4189
G01 X34.4784 Y-21.4133
G01 X34.4911 Y-21.4067
G01 X34.4993 Y-21.4017
G01 X34.5112 Y-21.3936
G01 X34.5187 Y-21.3877
G01 X34.5295 Y-21.3782
G01 X34.5362 Y-21.3715
G01 X34.5457 Y-21.3607
G01 X34.5544 Y-21.3493
G01 X34.5623 Y-21.3372
G01 X34.5692 Y-21.3247
G01 X34.5733 Y-21.3160
G01 X34.5786 Y-21.3027
G01 X34.5829 Y-21.2890
G01 X34.5863 Y-21.2750
G01 X34.5879 Y-21.2656
G01 X34.5895 Y-21.2513
G01 X34.5900 Y-21.2370
G01 X34.5899 Y-20.0322
G01 X34.5891 Y-20.0179
G01 X34.5879 Y-20.0084
G01 X34.5842 Y-19.9896
G01 X34.5786 Y-19.9713
G01 X34.5713 Y-19.9536
G01 X34.5647 Y-19.9409
G01 X34.5571 Y-19.9287
G01 X34.5487 Y-19.9170
G01 X34.5427 Y-19.9096
G01 X34.5329 Y-19.8991
G01 X34.5224 Y-19.8893
G01 X34.5150 Y-19.8833
G01 X34.5033 Y-19.8749
G01 X34.4911 Y-19.8673
G01 X34.4784 Y-19.8607
G01 X34.4652 Y-19.8551
G01 X34.4516 Y-19.8504
G01 X34.4377 Y-19.8467
G01 X34.4236 Y-19.8441
G01 X34.4093 Y-19.8425
G01 X34.3998 Y-19.8421
G01 X31.3950 Y-19.8420
G01 X31.3759 Y-19.8429
G01 X31.3617 Y-19.8449
G01 X31.3523 Y-19.8467
G01 X31.3430 Y-19.8491
G01 X31.3293 Y-19.8534
G01 X31.3116 Y-19.8607
G01 X31.2989 Y-19.8673
G01 X31.2867 Y-19.8749
G01 X31.2788 Y-19.8804
G01 X31.2676 Y-19.8893
G01 X31.2571 Y-19.8991
G01 X31.2473 Y-19.9096
G01 X31.2384 Y-19.9208
G01 X31.2329 Y-19.9287
G01 X31.2277 Y-19.9368
G01 X31.2208 Y-19.9493
G01 X31.2167 Y-19.9580
G01 X31.2114 Y-19.9713
G01 X31.2071 Y-19.9850
G01 X31.2037 Y-19.9990
G01 X31.2021 Y-20.0084
G01 X31.2005 Y-20.0227
G01 X31.2000 Y-20.0370
G01 X31.2002 Y-21.2466
G01 X31.2015 Y-21.2609
G01 X31.2047 Y-21.2797
G01 X31.2098 Y-21.2982
G01 X31.2167 Y-21.3160
G01 X31.2253 Y-21.3331
G01 X31.2356 Y-21.3493
G01 X31.2473 Y-21.3644
G01 X31.2605 Y-21.3782
G01 X31.2750 Y-21.3907
G01 X31.2907 Y-21.4017
G01 X31.3073 Y-21.4112
G01 X31.3248 Y-21.4189
G01 X31.3384 Y-21.4236
G01 X31.3570 Y-21.4283
G01 X31.3759 Y-21.4311
G01 X31.3950 Y-21.4320
G00 Z2.0000
G00 X31.3950 Y-21.7245
G01 F60.00
G01 Z-0.0500
G01 F120.00
G01 X34.4070 Y-21.7244
G01 X34.4309 Y-21.7232
G01 X34.4428 Y-21.7222
G01 X34.4665 Y-21.7192
G01 X34.4783 Y-21.7173
G01 X34.5018 Y-21.7127
G01 X34.5250 Y-21.7068
G01 X34.5365 Y-21.7035
G01 X34.5592 Y-21.6960
G01 X34.5816 Y-21.6874
G01 X34.6034 Y-21.6777
G01 X34.6248 Y-21.6669
G01 X34.6353 Y-21.6612
G01 X34.6456 Y-21.6551
G01 X34.6658 Y-21.6423
G01 X34.6854 Y-21.6286
G01 X34.7043 Y-21.6138
G01 X34.7134 Y-21.6061
G01 X34.7312 Y-21.5901
G01 X34.7481 Y-21.5732
G01 X34.7562 Y-21.5644
G01 X34.7718 Y-21.5463
G01 X34.7866 Y-21.5274
G01 X34.7936 Y-21.5177
G01 X34.8069 Y-21.4978
G01 X34.8192 Y-21.4773
G01 X34.8304 Y-21.4562
G01 X34.8407 Y-21.4346
G01 X34.8498 Y-21.4124
G01 X34.8540 Y-21.4012
G01 X34.8579 Y-21.3899
G01 X34.8648 Y-21.3670
G01 X34.8707 Y-21.3438
G01 X34.8753 Y-21.3203
G01 X34.8772 Y-21.3085
G01 X34.8802 Y-21.2848
G01 X34.8819 Y-21.2609
G01 X34.8825 Y-21.2370
G01 X34.8825 Y-20.0370
G01 X34.8819 Y-20.0131
G01 X34.8812 Y-20.0011
G01 X34.8788 Y-19.9773
G01 X34.8753 Y-19.9537
G01 X34.8707 Y-19.9302
G01 X34.8679 Y-19.9185
G01 X34.8615 Y-19.8955
G01 X34.8540 Y-19.8728
G01 X34.8454 Y-19.8504
G01 X34.8357 Y-19.8286
G01 X34.8304 Y-19.8178
G01 X34.8192 Y-19.7967
G01 X34.8131 Y-19.7864
G01 X34.8003 Y-19.7662
G01 X34.7866 Y-19.7466
G01 X34.7793 Y-19.7371
G01 X34.7641 Y-19.7186
G01 X34.7481 Y-19.7008
G01 X34.7312 Y-19.6839
G01 X34.7134 Y-19.6679
G01 X34.7043 Y-19.6602
G01 X34.6949 Y-19.6527
G01 X34.6757 Y-19.6384
G01 X34.6558 Y-19.6251
G01 X34.6353 Y-19.6128
G01 X34.6142 Y-19.6016
G01 X34.6034 Y-19.5963
G01 X34.5816 Y-19.5866
G01 X34.5704 Y-19.5822
G01 X34.5479 Y-19.5741
G01 X34.5365 Y-19.5705
G01 X34.5135 Y-19.5641
G01 X34.5018 Y-19.5613
G01 X34.4783 Y-19.5567
G01 X34.4665 Y-19.5548
G01 X34.4428 Y-19.5518
G01 X34.4189 Y-19.5501
G01 X34.3950 Y-19.5495
G01 X31.3830 Y-19.5496
G01 X31.3711 Y-19.5501
G01 X31.3472 Y-19.5518
G01 X31.3235 Y-19.5548
G01 X31.3117 Y-19.5567
G01 X31.2882 Y-19.5613
G01 X31.2650 Y-19.5672
G01 X31.2535 Y-19.5705
G01 X31.2308 Y-19.5780
G01 X31.2084 Y-19.5866
G01 X31.1866 Y-19.5963
G01 X31.1758 Y-19.6016
G01 X31.1547 Y-19.6128
G01 X31.1342 Y-19.6251
G01 X31.1143 Y-19.6384
G01 X31.0951 Y-19.6527
G01 X31.0857 Y-19.6602
G01 X31.0676 Y-19.6758
G01 X31.0503 Y-19.6923
G01 X31.0338 Y-19.7096
G01 X31.0259 Y-19.7186
G01 X31.0107 Y-19.7371
G01 X30.9964 Y-19.7563
G01 X30.9831 Y-19.7762
G01 X30.9708 Y-19.7967
G01 X30.9651 Y-19.8072
G01 X30.9543 Y-19.8286
G01 X30.9493 Y-19.8394
G01 X30.9402 Y-19.8616
G01 X30.9321 Y-19.8841
G01 X30.9252 Y-19.9070
G01 X30.9221 Y-19.9185
G01 X30.9169 Y-19.9419
G01 X30.9128 Y-19.9655
G01 X30.9112 Y-19.9773
G01 X30.9088 Y-20.0011
G01 X30.9076 Y-20.0250
G01 X30.9075 Y-20.0370
G01 X30.9075 Y-21.2370
G01 X30.9081 Y-21.2609
G01 X30.9088 Y-21.2729
G01 X30.9112 Y-21.2967
G01 X30.9147 Y-21.3203
G01 X30.9193 Y-21.3438
G01 X30.9252 Y-21.3670
G01 X30.9285 Y-21.3785
G01 X30.9321 Y-21.3899
G01 X30.9402 Y-21.4124
G01 X30.9493 Y-21.4346
G01 X30.9596 Y-21.4562
G01 X30.9708 Y-21.4773
G01 X30.9831 Y-21.4978
G01 X30.9964 Y-21.5177
G01 X31.0034 Y-21.5274
G01 X31.0182 Y-21.5463
G01 X31.0338 Y-21.5644
G01 X31.0503 Y-21.5817
G01 X31.0676 Y-21.5982
G01 X31.0857 Y-21.6138
G01 X31.1046 Y-21.6286
G01 X31.1242 Y-21.6423
G01 X31.1342 Y-21.6489
G01 X31.1547 Y-21.6612
G01 X31.1758 Y-21.6724
G01 X31.1974 Y-21.6827
G01 X31.2196 Y-21.6918
G01 X31.2421 Y-21.6999
G01 X31.2650 Y-21.7068
G01 X31.2882 Y-21.7127
G01 X31.2999 Y-21.7151
G01 X31.3235 Y-21.7192
G01 X31.3472 Y-21.7222
G01 X31.3711 Y-21.7239
G01 X31.3950 Y-21.7245
G00 Z2.0000
G00 X31.3950 Y-22.0170
G01 F60.00
G01 Z-0.0500
G01 F120.00
G01 X34.3950 Y-22.0170
G01 X34.4333 Y-22.0161
G01 X34.4715 Y-22.0132
G01 X34.4905 Y-22.0111
G01 X34.5284 Y-22.0055
G01 X34.5472 Y-22.0020
G01 X34.5845 Y-21.9936
G01 X34.6030 Y-21.9887
G01 X34.6397 Y-21.9776
G01 X34.6578 Y-21.9714
G01 X34.6935 Y-21.9576
G01 X34.7285 Y-21.9421
G01 X34.7457 Y-21.9337
G01 X34.7795 Y-21.9157
G01 X34.8123 Y-21.8960
G01 X34.8283 Y-21.8855
G01 X34.8596 Y-21.8635
G01 X34.8898 Y-21.8399
G01 X34.9188 Y-21.8149
G01 X34.9465 Y-21.7885
G01 X34.9599 Y-21.7748
G01 X34.9856 Y-21.7465
G01 X35.0099 Y-21.7169
G01 X35.0327 Y-21.6861
G01 X35.0435 Y-21.6703
G01 X35.0640 Y-21.6380
G01 X35.0829 Y-21.6047
G01 X35.1001 Y-21.5705
G01 X35.1156 Y-21.5355
G01 X35.1294 Y-21.4998
G01 X35.1356 Y-21.4817
G01 X35.1467 Y-21.4450
G01 X35.1516 Y-21.4265
G01 X35.1600 Y-21.3892
G01 X35.1666 Y-21.3514
G01 X35.1712 Y-21.3135
G01 X35.1741 Y-21.2753
G01 X35.1750 Y-21.2370
G01 X35.1750 Y-20.0370
G01 X35.1741 Y-19.9987
G01 X35.1729 Y-19.9796
G01 X35.1712 Y-19.9605
G01 X35.1666 Y-19.9226
G01 X35.1600 Y-19.8848
G01 X35.1516 Y-19.8475
G01 X35.1467 Y-19.8290
G01 X35.1414 Y-19.8106
G01 X35.1294 Y-19.7742
G01 X35.1227 Y-19.7563
G01 X35.1081 Y-19.7209
G01 X35.0917 Y-19.6863
G01 X35.0829 Y-19.6693
G01 X35.0640 Y-19.6360
G01 X35.0435 Y-19.6037
G01 X35.0215 Y-19.5724
G01 X35.0099 Y-19.5571
G01 X34.9856 Y-19.5275
G01 X34.9599 Y-19.4992
G01 X34.9465 Y-19.4855
G01 X34.9188 Y-19.4591
G01 X34.8898 Y-19.4341
G01 X34.8596 Y-19.4105
G01 X34.8283 Y-19.3885
G01 X34.7960 Y-19.3680
G01 X34.7795 Y-19.3583
G01 X34.7457 Y-19.3403
G01 X34.7285 Y-19.3319
G01 X34.6935 Y-19.3164
G01 X34.6578 Y-19.3026
G01 X34.6214 Y-19.2906
G01 X34.6030 Y-19.2853
G01 X34.5845 Y-19.2804
G01 X34.5472 Y-19.2720
G01 X34.5094 Y-19.2654
G01 X34.4715 Y-19.2608
G01 X34.4333 Y-19.2579
G01 X34.3950 Y-19.2570
G01 X31.3950 Y-19.2570
G01 X31.3567 Y-19.2579
G01 X31.3376 Y-19.2591
G01 X31.2995 Y-19.2629
G01 X31.2616 Y-19.2685
G01 X31.2428 Y-19.2720
G01 X31.2055 Y-19.2804
G01 X31.1870 Y-19.2853
G01 X31.1503 Y-19.2964
G01 X31.1322 Y-19.3026
G01 X31.0965 Y-19.3164
G01 X31.0615 Y-19.3319
G01 X31.0443 Y-19.3403
G01 X31.0105 Y-19.3583
G01 X30.9777 Y-19.3780
G01 X30.9617 Y-19.3885
G01 X30.9304 Y-19.4105
G01 X30.9002 Y-19.4341
G01 X30.8712 Y-19.4591
G01 X30.8435 Y-19.4855
G01 X30.8171 Y-19.5132
G01 X30.7921 Y-19.5422
G01 X30.7685 Y-19.5724
G01 X30.7465 Y-19.6037
G01 X30.7260 Y-19.6360
G01 X30.7071 Y-19.6693
G01 X30.6983 Y-19.6863
G01 X30.6819 Y-19.7209
G01 X30.6673 Y-19.7563
G01 X30.6544 Y-19.7923
G01 X30.6433 Y-19.8290
G01 X30.6340 Y-19.8661
G01 X30.6265 Y-19.9036
G01 X30.6209 Y-19.9415
G01 X30.6171 Y-19.9796
G01 X30.6152 Y-20.0179
G01 X30.6150 Y-20.0370
G01 X30.6150 Y-21.2370
G01 X30.6159 Y-21.2753
G01 X30.6171 Y-21.2944
G01 X30.6209 Y-21.3325
G01 X30.6265 Y-21.3704
G01 X30.6340 Y-21.4079
G01 X30.6433 Y-21.4450
G01 X30.6544 Y-21.4817
G01 X30.6673 Y-21.5177
G01 X30.6744 Y-21.5355
G01 X30.6899 Y-21.5705
G01 X30.7071 Y-21.6047
G01 X30.7260 Y-21.6380
G01 X30.7465 Y-21.6703
G01 X30.7685 Y-21.7016
G01 X30.7921 Y-21.7318
G01 X30.8044 Y-21.7465
G01 X30.8301 Y-21.7748
G01 X30.8572 Y-21.8019
G01 X30.8712 Y-21.8149
G01 X30.9002 Y-21.8399
G01 X30.9151 Y-21.8519
G01 X30.9459 Y-21.8747
G01 X30.9777 Y-21.8960
G01 X31.0105 Y-21.9157
G01 X31.0443 Y-21.9337
G01 X31.0789 Y-21.9501
G01 X31.0965 Y-21.9576
G01 X31.1322 Y-21.9714
G01 X31.1686 Y-21.9834
G01 X31.1870 Y-21.9887
G01 X31.2241 Y-21.9980
G01 X31.2616 Y-22.0055
G01 X31.2995 Y-22.0111
G01 X31.3376 Y-22.0149
G01 X31.3759 Y-22.0168
G01 X31.3950 Y-22.0170
G00 Z2.0000
G00 X36.3450 Y-24.3820
G01 F60.00
G01 Z-0.0500
G01 F120.00
G01 X40.8450 Y-24.3820
G01 X40.8593 Y-24.3815
G01 X40.8736 Y-24.3799
G01 X40.8877 Y-24.3773
G01 X40.9016 Y-24.3736
G01 X40.9152 Y-24.3689
G01 X40.9284 Y-24.3633
G01 X40.9369 Y-24.3590
G01 X40.9493 Y-24.3517
G01 X40.9573 Y-24.3464
G01 X40.9687 Y-24.3377
G01 X40.9760 Y-24.3315
G01 X40.9862 Y-24.3215
G01 X40.9927 Y-24.3144
G01 X41.0016 Y-24.3032
G01 X41.0123 Y-24.2872
G01 X41.0213 Y-24.2704
G01 X41.0269 Y-24.2572
G01 X41.0302 Y-24.2482
G01 X41.0342 Y-24.2344
G01 X41.0363 Y-24.2250
G01 X41.0379 Y-24.2156
G01 X41.0395 Y-24.2013
G01 X41.0400 Y-24.1870
G01 X41.0400 Y-23.1048
G01 X45.6167 Y-18.5281
G01 X60.5293 Y-18.5281
G01 X60.6789 Y-18.6777
G01 X60.6789 Y-19.0550
G01 X60.2740 Y-19.0550
G01 X60.2549 Y-19.0559
G01 X60.2407 Y-19.0579
G01 X60.2313 Y-19.0597
G01 X60.2220 Y-19.0621
G01 X60.2083 Y-19.0664
G01 X60.1950 Y-19.0717
G01 X60.1863 Y-19.0758
G01 X60.1738 Y-19.0827
G01 X60.1657 Y-19.0879
G01 X60.1578 Y-19.0934
G01 X60.1466 Y-19.1023
G01 X60.1361 Y-19.1121
G01 X60.1263 Y-19.1226
G01 X60.1203 Y-19.1300
G01 X60.1119 Y-19.1417
G01 X60.1067 Y-19.1498
G01 X60.0998 Y-19.1623
G01 X60.0957 Y-19.1710
G01 X60.0904 Y-19.1843
G01 X60.0861 Y-19.1980
G01 X60.0819 Y-19.2167
G01 X60.0795 Y-19.2357
G01 X60.0790 Y-19.2500
G01 X60.0790 Y-20.4049
G01 X56.7870 Y-20.4049
G01 X56.7483 Y-20.4068
G01 X56.7193 Y-20.4109
G01 X56.7052 Y-20.4135
G01 X56.6723 Y-20.4219
G01 X56.6402 Y-20.4332
G01 X56.6271 Y-20.4389
G01 X56.6008 Y-20.4516
G01 X56.5715 Y-20.4689
G01 X56.5635 Y-20.4742
G01 X56.5439 Y-20.4887
G01 X56.5327 Y-20.4977
G01 X56.5076 Y-20.5206
G01 X55.8725 Y-21.1557
G01 X55.8554 Y-21.1460
G01 X55.8334 Y-21.1356
G01 X55.8246 Y-21.1320
G01 X55.8017 Y-21.1238
G01 X55.7879 Y-21.1198
G01 X55.7643 Y-21.1141
G01 X55.7308 Y-21.1092
G01 X55.6970 Y-21.1075
G01 X55.3874 Y-21.1077
G01 X55.3632 Y-21.1092
G01 X55.3297 Y-21.1141
G01 X55.2969 Y-21.1224
G01 X55.2694 Y-21.1320
G01 X55.2606 Y-21.1356
G01 X55.2429 Y-21.1439
G01 X55.2260 Y-21.1530
G01 X55.2053 Y-21.1656
G01 X55.1781 Y-21.1858
G01 X55.1530 Y-21.2085
G01 X55.1303 Y-21.2336
G01 X55.1101 Y-21.2608
G01 X55.0927 Y-21.2899
G01 X55.0783 Y-21.3205
G01 X55.0669 Y-21.3524
G01 X55.0586 Y-21.3852
G01 X55.0548 Y-21.4092
G01 X55.0533 Y-21.4235
G01 X55.0520 Y-21.4525
G01 X55.0520 Y-22.6275
G01 X55.0530 Y-22.6518
G01 X55.0542 Y-22.6661
G01 X55.0586 Y-22.6948
G01 X55.0669 Y-22.7276
G01 X55.0783 Y-22.7595
G01 X55.0905 Y-22.7859
G01 X55.0950 Y-22.7943
G01 X55.1075 Y-22.8152
G01 X55.1129 Y-22.8231
G01 X55.1244 Y-22.8388
G01 X55.1366 Y-22.8536
G01 X55.1497 Y-22.8680
G01 X55.1600 Y-22.8781
G01 X55.1745 Y-22.8911
G01 X55.1819 Y-22.8972
G01 X55.2014 Y-22.9116
G01 X55.2093 Y-22.9170
G01 X55.2344 Y-22.9318
G01 X55.2650 Y-22.9462
G01 X55.2969 Y-22.9576
G01 X55.3250 Y-22.9649
G01 X55.3344 Y-22.9667
G01 X55.3584 Y-22.9703
G01 X55.3680 Y-22.9712
G01 X55.3874 Y-22.9723
G01 X55.7018 Y-22.9724
G01 X55.7260 Y-22.9712
G01 X55.7356 Y-22.9703
G01 X55.7596 Y-22.9667
G01 X55.7690 Y-22.9649
G01 X55.7971 Y-22.9576
G01 X55.8246 Y-22.9480
G01 X55.8334 Y-22.9444
G01 X55.8511 Y-22.9361
G01 X55.8680 Y-22.9270
G01 X55.8887 Y-22.9144
G01 X55.9159 Y-22.8942
G01 X55.9410 Y-22.8715
G01 X55.9606 Y-22.8500
G01 X55.9667 Y-22.8426
G01 X55.9783 Y-22.8270
G01 X55.9890 Y-22.8111
G01 X56.0013 Y-22.7901
G01 X56.0157 Y-22.7595
G01 X56.0271 Y-22.7276
G01 X56.0333 Y-22.7041
G01 X56.0362 Y-22.6901
G01 X56.0403 Y-22.6613
G01 X56.0420 Y-22.6275
G01 X56.0420 Y-22.1038
G01 X56.9507 Y-21.1951
G01 X60.0790 Y-21.1951
G01 X60.0790 Y-22.3500
G01 X60.0795 Y-22.3643
G01 X60.0805 Y-22.3739
G01 X60.0827 Y-22.3880
G01 X60.0874 Y-22.4066
G01 X60.0921 Y-22.4202
G01 X60.0957 Y-22.4290
G01 X60.1043 Y-22.4461
G01 X60.1093 Y-22.4543
G01 X60.1174 Y-22.4662
G01 X60.1295 Y-22.4810
G01 X60.1430 Y-22.4945
G01 X60.1503 Y-22.5007
G01 X60.1617 Y-22.5094
G01 X60.1738 Y-22.5173
G01 X60.1863 Y-22.5242
G01 X60.1994 Y-22.5302
G01 X60.2174 Y-22.5366
G01 X60.2313 Y-22.5403
G01 X60.2454 Y-22.5429
G01 X60.2597 Y-22.5445
G01 X60.2740 Y-22.5450
G01 X61.8788 Y-22.5449
G01 X61.8931 Y-22.5441
G01 X61.9026 Y-22.5429
G01 X61.9120 Y-22.5413
G01 X61.9260 Y-22.5379
G01 X61.9397 Y-22.5336
G01 X61.9486 Y-22.5302
G01 X61.9574 Y-22.5263
G01 X61.9701 Y-22.5197
G01 X61.9823 Y-22.5121
G01 X61.9940 Y-22.5037
G01 X62.0014 Y-22.4977
G01 X62.0119 Y-22.4879
G01 X62.0217 Y-22.4774
G01 X62.0277 Y-22.4700
G01 X62.0334 Y-22.4623
G01 X62.0413 Y-22.4502
G01 X62.0482 Y-22.4377
G01 X62.0523 Y-22.4290
G01 X62.0576 Y-22.4157
G01 X62.0606 Y-22.4066
G01 X62.0643 Y-22.3927
G01 X62.0669 Y-22.3786
G01 X62.0685 Y-22.3643
G01 X62.0689 Y-22.3548
G01 X62.0690 Y-19.2500
G01 X62.0681 Y-19.2309
G01 X62.0653 Y-19.2120
G01 X62.0632 Y-19.2026
G01 X62.0592 Y-19.1888
G01 X62.0542 Y-19.1754
G01 X62.0482 Y-19.1623
G01 X62.0413 Y-19.1498
G01 X62.0334 Y-19.1377
G01 X62.0247 Y-19.1263
G01 X62.0152 Y-19.1155
G01 X62.0085 Y-19.1088
G01 X61.9977 Y-19.0993
G01 X61.9863 Y-19.0906
G01 X61.9742 Y-19.0827
G01 X61.9617 Y-19.0758
G01 X61.9486 Y-19.0698
G01 X61.9352 Y-19.0648
G01 X61.9214 Y-19.0608
G01 X61.9120 Y-19.0587
G01 X61.8979 Y-19.0565
G01 X61.8788 Y-19.0551
G01 X61.4691 Y-19.0550
G01 X61.4691 Y-18.5140
G01 X61.4676 Y-18.4800
G01 X61.4660 Y-18.4658
G01 X61.4615 Y-18.4369
G01 X61.4521 Y-18.3993
G01 X61.4390 Y-18.3628
G01 X61.4224 Y-18.3278
G01 X61.4051 Y-18.2985
G01 X61.3970 Y-18.2867
G01 X61.3794 Y-18.2634
G01 X61.3567 Y-18.2380
G01 X60.9724 Y-17.8536
G01 X60.9509 Y-17.8338
G01 X60.9399 Y-17.8246
G01 X60.9125 Y-17.8045
G01 X60.8834 Y-17.7869
G01 X60.8707 Y-17.7802
G01 X60.8442 Y-17.7680
G01 X60.8123 Y-17.7564
G01 X60.8031 Y-17.7536
G01 X60.7794 Y-17.7476
G01 X60.7654 Y-17.7446
G01 X60.7317 Y-17.7398
G01 X60.6930 Y-17.7379
G01 X53.8491 Y-17.7379
G01 X53.8491 Y-17.6085
G01 X53.9024 Y-17.5895
G01 X53.9157 Y-17.5842
G01 X54.0131 Y-17.5381
G01 X54.0256 Y-17.5312
G01 X54.1139 Y-17.4782
G01 X54.1257 Y-17.4701
G01 X54.2121 Y-17.4057
G01 X54.2956 Y-17.3303
G01 X54.3056 Y-17.3201
G01 X54.3777 Y-17.2401
G01 X54.4476 Y-17.1459
G01 X54.5079 Y-17.0453
G01 X54.5542 Y-16.9481
G01 X54.5615 Y-16.9304
G01 X54.5945 Y-16.8380
G01 X54.6001 Y-16.8197
G01 X54.6260 Y-16.7151
G01 X54.6421 Y-16.6086
G01 X54.6439 Y-16.5896
G01 X54.6490 Y-16.4820
G01 X54.6432 Y-16.3649
G01 X54.6260 Y-16.2489
G01 X54.6001 Y-16.1443
G01 X54.5945 Y-16.1260
G01 X54.5615 Y-16.0336
G01 X54.5542 Y-16.0159
G01 X54.5079 Y-15.9187
G01 X54.4527 Y-15.8262
G01 X54.4421 Y-15.8103
G01 X54.3777 Y-15.7239
G01 X54.2990 Y-15.6370
G01 X54.2121 Y-15.5583
G01 X54.1257 Y-15.4939
G01 X54.1098 Y-15.4833
G01 X54.0173 Y-15.4281
G01 X53.9113 Y-15.3780
G01 X53.8009 Y-15.3385
G01 X53.6871 Y-15.3100
G01 X53.5711 Y-15.2928
G01 X53.4540 Y-15.2870
G01 X53.3369 Y-15.2928
G01 X53.2209 Y-15.3100
G01 X53.1071 Y-15.3385
G01 X53.0056 Y-15.3745
G01 X52.9879 Y-15.3818
G01 X52.8992 Y-15.4238
G01 X52.8824 Y-15.4328
G01 X52.7901 Y-15.4884
G01 X52.6959 Y-15.5583
G01 X52.6090 Y-15.6370
G01 X52.5365 Y-15.7167
G01 X52.5244 Y-15.7314
G01 X52.4659 Y-15.8103
G01 X52.4553 Y-15.8262
G01 X52.4001 Y-15.9187
G01 X52.3500 Y-16.0247
G01 X52.3105 Y-16.1351
G01 X52.2841 Y-16.2395
G01 X52.2803 Y-16.2583
G01 X52.2659 Y-16.3554
G01 X52.2643 Y-16.3696
G01 X52.2590 Y-16.4820
G01 X52.2641 Y-16.5896
G01 X52.2659 Y-16.6086
G01 X52.2820 Y-16.7151
G01 X52.3105 Y-16.8289
G01 X52.3465 Y-16.9304
G01 X52.3538 Y-16.9481
G01 X52.3958 Y-17.0368
G01 X52.4024 Y-17.0495
G01 X52.4604 Y-17.1459
G01 X52.5303 Y-17.2401
G01 X52.6090 Y-17.3270
G01 X52.6922 Y-17.4027
G01 X52.7034 Y-17.4116
G01 X52.7901 Y-17.4756
G01 X52.8865 Y-17.5336
G01 X52.8992 Y-17.5402
G01 X52.9923 Y-17.5842
G01 X53.0056 Y-17.5895
G01 X53.0589 Y-17.6085
G01 X53.0589 Y-17.7379
G01 X45.4530 Y-17.7379
G01 X45.4143 Y-17.7398
G01 X45.3759 Y-17.7455
G01 X45.3383 Y-17.7549
G01 X45.3062 Y-17.7662
G01 X45.2931 Y-17.7719
G01 X45.2668 Y-17.7846
G01 X45.2335 Y-17.8045
G01 X45.2024 Y-17.8276
G01 X45.1736 Y-17.8536
G01 X40.2352 Y-22.7920
G01 X36.3450 Y-22.7920
G01 X36.3307 Y-22.7925
G01 X36.3164 Y-22.7941
G01 X36.3023 Y-22.7967
G01 X36.2838 Y-22.8018
G01 X36.2660 Y-22.8087
G01 X36.2531 Y-22.8150
G01 X36.2407 Y-22.8223
G01 X36.2288 Y-22.8304
G01 X36.2140 Y-22.8425
G01 X36.2038 Y-22.8525
G01 X36.1973 Y-22.8596
G01 X36.1884 Y-22.8708
G01 X36.1829 Y-22.8787
G01 X36.1730 Y-22.8951
G01 X36.1648 Y-22.9124
G01 X36.1598 Y-22.9258
G01 X36.1571 Y-22.9350
G01 X36.1529 Y-22.9537
G01 X36.1509 Y-22.9679
G01 X36.1502 Y-22.9774
G01 X36.1500 Y-24.1870
G01 X36.1505 Y-24.2013
G01 X36.1529 Y-24.2203
G01 X36.1571 Y-24.2390
G01 X36.1631 Y-24.2572
G01 X36.1687 Y-24.2704
G01 X36.1777 Y-24.2872
G01 X36.1856 Y-24.2993
G01 X36.1973 Y-24.3144
G01 X36.2105 Y-24.3282
G01 X36.2250 Y-24.3407
G01 X36.2407 Y-24.3517
G01 X36.2573 Y-24.3612
G01 X36.2748 Y-24.3689
G01 X36.2930 Y-24.3749
G01 X36.3117 Y-24.3791
G01 X36.3307 Y-24.3815
G01 X36.3450 Y-24.3820
G00 Z2.0000
G00 X41.2761 Y-24.8370
G01 F60.00
G01 Z-0.0500
G01 F120.00
G01 X41.2941 Y-24.8493
G01 X41.3096 Y-24.8605
G01 X41.3398 Y-24.8841
G01 X41.3545 Y-24.8964
G01 X41.3828 Y-24.9221
G01 X41.3965 Y-24.9355
G01 X41.4229 Y-24.9632
G01 X41.4356 Y-24.9775
G01 X41.4599 Y-25.0071
G01 X41.4827 Y-25.0379
G01 X41.5040 Y-25.0697
G01 X41.5140 Y-25.0860
G01 X41.5261 Y-25.1069
G01 X44.2821 Y-25.1071
G01 X44.3209 Y-25.1088
G01 X44.3591 Y-25.1116
G01 X44.3971 Y-25.1163
G01 X44.4354 Y-25.1222
G01 X44.4542 Y-25.1257
G01 X44.4916 Y-25.1341
G01 X44.5291 Y-25.1438
G01 X44.5475 Y-25.1491
G01 X44.5658 Y-25.1549
G01 X44.6023 Y-25.1677
G01 X44.6381 Y-25.1815
G01 X44.6731 Y-25.1970
G01 X44.7080 Y-25.2138
G01 X44.7250 Y-25.2226
G01 X44.7418 Y-25.2319
G01 X44.7752 Y-25.2516
G01 X44.8075 Y-25.2721
G01 X44.8233 Y-25.2829
G01 X44.8546 Y-25.3058
G01 X44.8848 Y-25.3294
G01 X44.9138 Y-25.3544
G01 X44.9423 Y-25.3806
G01 X45.3840 Y-25.8220
G01 X45.4104 Y-25.8497
G01 X45.4363 Y-25.8786
G01 X45.4486 Y-25.8932
G01 X45.4722 Y-25.9234
G01 X45.4951 Y-25.9547
G01 X45.5164 Y-25.9865
G01 X45.5264 Y-26.0028
G01 X45.5461 Y-26.0362
G01 X45.5554 Y-26.0530
G01 X45.5642 Y-26.0700
G01 X45.5810 Y-26.1049
G01 X45.5965 Y-26.1399
G01 X45.6103 Y-26.1757
G01 X45.6231 Y-26.2122
G01 X45.6289 Y-26.2305
G01 X45.6342 Y-26.2489
G01 X45.6439 Y-26.2864
G01 X45.6523 Y-26.3238
G01 X45.6588 Y-26.3615
G01 X45.6643 Y-26.3999
G01 X45.6680 Y-26.4380
G01 X45.6692 Y-26.4571
G01 X45.6709 Y-26.4959
G01 X45.6711 Y-26.5150
G01 X45.6711 Y-27.0945
G01 X45.6818 Y-27.0725
G01 X45.6999 Y-27.0387
G01 X45.7321 Y-26.9848
G01 X45.7534 Y-26.9530
G01 X45.7908 Y-26.9025
G01 X45.8151 Y-26.8729
G01 X45.8573 Y-26.8264
G01 X45.8844 Y-26.7993
G01 X45.9166 Y-26.7698
G01 X45.9314 Y-26.7567
G01 X45.9314 Y-24.2413
G01 X45.8984 Y-24.2117
G01 X45.8707 Y-24.1853
G01 X45.8573 Y-24.1716
G01 X45.8278 Y-24.1394
G01 X45.8028 Y-24.1104
G01 X45.7908 Y-24.0955
G01 X45.7646 Y-24.0605
G01 X45.7426 Y-24.0292
G01 X45.7221 Y-23.9969
G01 X45.6999 Y-23.9593
G01 X45.6906 Y-23.9425
G01 X45.6734 Y-23.9083
G01 X45.6549 Y-23.8688
G01 X45.6474 Y-23.8512
G01 X45.6336 Y-23.8154
G01 X45.6191 Y-23.7742
G01 X45.6134 Y-23.7560
G01 X45.6080 Y-23.7376
G01 X45.5972 Y-23.6953
G01 X45.5888 Y-23.6579
G01 X45.5822 Y-23.6202
G01 X45.5758 Y-23.5749
G01 X45.5497 Y-23.5514
G01 X45.5220 Y-23.5250
G01 X45.0140 Y-23.0170
G01 X45.0006 Y-23.0033
G01 X44.9744 Y-22.9748
G01 X44.9494 Y-22.9458
G01 X44.9258 Y-22.9156
G01 X44.9029 Y-22.8843
G01 X44.8921 Y-22.8685
G01 X44.8816 Y-22.8525
G01 X44.8615 Y-22.8193
G01 X44.8426 Y-22.7860
G01 X44.8338 Y-22.7690
G01 X44.8170 Y-22.7341
G01 X44.8015 Y-22.6991
G01 X44.7877 Y-22.6633
G01 X44.7749 Y-22.6268
G01 X44.7691 Y-22.6085
G01 X44.7589 Y-22.5716
G01 X44.7497 Y-22.5339
G01 X44.7422 Y-22.4964
G01 X44.7392 Y-22.4775
G01 X44.7337 Y-22.4391
G01 X44.7316 Y-22.4201
G01 X44.7288 Y-22.3819
G01 X44.7271 Y-22.3431
G01 X44.7269 Y-20.2452
G01 X41.6250 Y-23.3471
G01 X41.6248 Y-24.2061
G01 X41.6229 Y-24.2444
G01 X41.6191 Y-24.2825
G01 X41.6135 Y-24.3204
G01 X41.6060 Y-24.3579
G01 X41.5967 Y-24.3950
G01 X41.5856 Y-24.4317
G01 X41.5727 Y-24.4677
G01 X41.5581 Y-24.5031
G01 X41.5417 Y-24.5377
G01 X41.5237 Y-24.5715
G01 X41.5040 Y-24.6043
G01 X41.4827 Y-24.6361
G01 X41.4599 Y-24.6669
G01 X41.4356 Y-24.6965
G01 X41.4099 Y-24.7248
G01 X41.3828 Y-24.7519
G01 X41.3545 Y-24.7776
G01 X41.3249 Y-24.8019
G01 X41.2941 Y-24.8247
G01 X41.2761 Y-24.8370
G00 Z2.0000
G00 X42.1779 Y-27.0671
G01 F60.00
G01 Z-0.0500
G01 F120.00
G01 X41.5261 Y-27.0671
G01 X41.5140 Y-27.0880
G01 X41.5040 Y-27.1043
G01 X41.4827 Y-27.1361
G01 X41.4715 Y-27.1516
G01 X41.4479 Y-27.1818
G01 X41.4229 Y-27.2108
G01 X41.3965 Y-27.2385
G01 X41.3828 Y-27.2519
G01 X41.3545 Y-27.2776
G01 X41.3249 Y-27.3019
G01 X41.3096 Y-27.3135
G01 X41.2941 Y-27.3247
G01 X41.2761 Y-27.3370
G01 X41.2941 Y-27.3493
G01 X41.3096 Y-27.3605
G01 X41.3398 Y-27.3841
G01 X41.3545 Y-27.3964
G01 X41.3828 Y-27.4221
G01 X41.3965 Y-27.4355
G01 X41.4229 Y-27.4632
G01 X41.4356 Y-27.4775
G01 X41.4599 Y-27.5071
G01 X41.4827 Y-27.5379
G01 X41.5040 Y-27.5697
G01 X41.5140 Y-27.5860
G01 X41.5261 Y-27.6069
G01 X41.6566 Y-27.6069
G01 X41.6765 Y-27.5741
G01 X41.6978 Y-27.5423
G01 X41.7791 Y-27.4327
G01 X41.8034 Y-27.4031
G01 X41.8160 Y-27.3888
G01 X41.8950 Y-27.3021
G01 X41.9084 Y-27.2884
G01 X41.9361 Y-27.2620
G01 X42.0088 Y-27.1960
G01 X42.0378 Y-27.1710
G01 X42.0680 Y-27.1475
G01 X42.1468 Y-27.0890
G01 X42.1779 Y-27.0671
G00 Z2.0000
G00 X41.5010 Y-29.6088
G01 F60.00
G01 Z-0.0500
G01 F120.00
G01 X41.5298 Y-29.5840
G01 X41.5513 Y-29.5671
G01 X41.5261 Y-29.5671
G01 X41.5140 Y-29.5880
G01 X41.5010 Y-29.6088
G00 Z2.0000
G00 X41.2761 Y-29.8370
G01 F60.00
G01 Z-0.0500
G01 F120.00
G01 X41.2774 Y-29.8378
G01 X41.2803 Y-29.8342
G01 X41.2783 Y-29.8355
G01 X41.2761 Y-29.8370
G00 Z2.0000
G00 X44.0034 Y-30.3262
G01 F60.00
G01 Z-0.0500
G01 F120.00
G01 X44.0034 Y-29.7770
G01 X43.9934 Y-29.7838
G01 X43.9732 Y-29.7966
G01 X43.8890 Y-29.8471
G01 X43.8682 Y-29.8589
G01 X43.8468 Y-29.8696
G01 X43.7581 Y-29.9116
G01 X43.7472 Y-29.9166
G01 X43.7269 Y-29.9250
G01 X43.7932 Y-29.9982
G01 X43.8089 Y-30.0163
G01 X43.8236 Y-30.0352
G01 X43.8890 Y-30.1237
G01 X43.9023 Y-30.1436
G01 X43.9086 Y-30.1538
G01 X43.9651 Y-30.2483
G01 X43.9764 Y-30.2694
G01 X44.0034 Y-30.3262
G00 Z2.0000
G00 X36.3450 Y-31.8820
G01 F60.00
G01 Z-0.0500
G01 F120.00
G01 X40.8450 Y-31.8820
G01 X40.8593 Y-31.8815
G01 X40.8736 Y-31.8799
G01 X40.8877 Y-31.8773
G01 X40.8970 Y-31.8749
G01 X40.9107 Y-31.8706
G01 X40.9196 Y-31.8672
G01 X40.9327 Y-31.8612
G01 X40.9452 Y-31.8543
G01 X40.9573 Y-31.8464
G01 X40.9650 Y-31.8407
G01 X40.9760 Y-31.8315
G01 X40.9862 Y-31.8215
G01 X40.9957 Y-31.8107
G01 X41.0044 Y-31.7993
G01 X41.0123 Y-31.7872
G01 X41.0170 Y-31.7789
G01 X41.0233 Y-31.7660
G01 X41.0302 Y-31.7482
G01 X41.0353 Y-31.7297
G01 X41.0385 Y-31.7109
G01 X41.0398 Y-31.6966
G01 X41.0400 Y-31.4821
G01 X41.5853 Y-31.4821
G01 X41.6008 Y-31.5148
G01 X41.6074 Y-31.5275
G01 X41.6603 Y-31.6158
G01 X41.6681 Y-31.6279
G01 X41.7353 Y-31.7181
G01 X41.8107 Y-31.8016
G01 X41.8209 Y-31.8116
G01 X41.8937 Y-31.8775
G01 X41.9084 Y-31.8896
G01 X41.9951 Y-31.9536
G01 X42.0915 Y-32.0116
G01 X42.1042 Y-32.0182
G01 X42.1929 Y-32.0602
G01 X42.2106 Y-32.0675
G01 X42.3121 Y-32.1035
G01 X42.4259 Y-32.1320
G01 X42.5419 Y-32.1492
G01 X42.6494 Y-32.1548
G01 X42.6686 Y-32.1548
G01 X42.7666 Y-32.1499
G01 X42.7856 Y-32.1481
G01 X42.8921 Y-32.1320
G01 X43.0059 Y-32.1035
G01 X43.1163 Y-32.0640
G01 X43.2223 Y-32.0139
G01 X43.3229 Y-31.9536
G01 X43.4171 Y-31.8837
G01 X43.5040 Y-31.8050
G01 X43.5827 Y-31.7181
G01 X43.6526 Y-31.6239
G01 X43.7129 Y-31.5233
G01 X43.7630 Y-31.4173
G01 X43.8025 Y-31.3069
G01 X43.8310 Y-31.1931
G01 X43.8482 Y-31.0771
G01 X43.8540 Y-30.9600
G01 X43.8489 Y-30.8524
G01 X43.8471 Y-30.8334
G01 X43.8310 Y-30.7269
G01 X43.8025 Y-30.6131
G01 X43.7630 Y-30.5027
G01 X43.7172 Y-30.4052
G01 X43.7082 Y-30.3884
G01 X43.6577 Y-30.3042
G01 X43.6471 Y-30.2883
G01 X43.5827 Y-30.2019
G01 X43.5040 Y-30.1150
G01 X43.4171 Y-30.0363
G01 X43.3229 Y-29.9664
G01 X43.2223 Y-29.9061
G01 X43.1251 Y-29.8598
G01 X43.1074 Y-29.8525
G01 X43.0150 Y-29.8195
G01 X42.9967 Y-29.8139
G01 X42.8921 Y-29.7880
G01 X42.7856 Y-29.7719
G01 X42.7714 Y-29.7703
G01 X42.6590 Y-29.7650
G01 X42.5419 Y-29.7708
G01 X42.4259 Y-29.7880
G01 X42.3213 Y-29.8139
G01 X42.3030 Y-29.8195
G01 X42.2106 Y-29.8525
G01 X42.1929 Y-29.8598
G01 X42.0957 Y-29.9061
G01 X42.0032 Y-29.9613
G01 X41.9911 Y-29.9691
G01 X41.9009 Y-30.0363
G01 X41.8140 Y-30.1150
G01 X41.7353 Y-30.2019
G01 X41.6654 Y-30.2961
G01 X41.6051 Y-30.3967
G01 X41.5568 Y-30.4983
G01 X41.5515 Y-30.5116
G01 X41.5169 Y-30.6085
G01 X41.5129 Y-30.6223
G01 X41.4955 Y-30.6919
G01 X41.0400 Y-30.6919
G01 X41.0398 Y-30.4774
G01 X41.0385 Y-30.4631
G01 X41.0353 Y-30.4443
G01 X41.0302 Y-30.4258
G01 X41.0233 Y-30.4080
G01 X41.0192 Y-30.3993
G01 X41.0123 Y-30.3868
G01 X41.0044 Y-30.3747
G01 X40.9957 Y-30.3633
G01 X40.9862 Y-30.3525
G01 X40.9760 Y-30.3425
G01 X40.9687 Y-30.3363
G01 X40.9573 Y-30.3276
G01 X40.9493 Y-30.3223
G01 X40.9369 Y-30.3150
G01 X40.9240 Y-30.3087
G01 X40.9107 Y-30.3034
G01 X40.8970 Y-30.2991
G01 X40.8877 Y-30.2967
G01 X40.8736 Y-30.2941
G01 X40.8593 Y-30.2925
G01 X40.8450 Y-30.2920
G01 X36.3450 Y-30.2920
G01 X36.3307 Y-30.2925
G01 X36.3164 Y-30.2941
G01 X36.3023 Y-30.2967
G01 X36.2838 Y-30.3018
G01 X36.2660 Y-30.3087
G01 X36.2531 Y-30.3150
G01 X36.2407 Y-30.3223
G01 X36.2288 Y-30.3304
G01 X36.2140 Y-30.3425
G01 X36.2038 Y-30.3525
G01 X36.1943 Y-30.3633
G01 X36.1856 Y-30.3747
G01 X36.1753 Y-30.3909
G01 X36.1687 Y-30.4036
G01 X36.1631 Y-30.4168
G01 X36.1584 Y-30.4304
G01 X36.1547 Y-30.4443
G01 X36.1515 Y-30.4631
G01 X36.1505 Y-30.4727
G01 X36.1500 Y-30.4870
G01 X36.1501 Y-31.6918
G01 X36.1515 Y-31.7109
G01 X36.1547 Y-31.7297
G01 X36.1598 Y-31.7482
G01 X36.1667 Y-31.7660
G01 X36.1753 Y-31.7831
G01 X36.1856 Y-31.7993
G01 X36.1943 Y-31.8107
G01 X36.2071 Y-31.8249
G01 X36.2213 Y-31.8377
G01 X36.2367 Y-31.8491
G01 X36.2531 Y-31.8590
G01 X36.2704 Y-31.8672
G01 X36.2884 Y-31.8736
G01 X36.3070 Y-31.8783
G01 X36.3259 Y-31.8811
G01 X36.3450 Y-31.8820
G00 Z2.0000
G00 X31.3950 Y-34.8320
G01 F60.00
G01 Z-0.0500
G01 F120.00
G01 X34.3950 Y-34.8320
G01 X34.4093 Y-34.8315
G01 X34.4189 Y-34.8305
G01 X34.4377 Y-34.8273
G01 X34.4470 Y-34.8249
G01 X34.4607 Y-34.8206
G01 X34.4784 Y-34.8133
G01 X34.4911 Y-34.8067
G01 X34.4993 Y-34.8017
G01 X34.5112 Y-34.7936
G01 X34.5187 Y-34.7877
G01 X34.5295 Y-34.7782
G01 X34.5395 Y-34.7680
G01 X34.5487 Y-34.7570
G01 X34.5544 Y-34.7493
G01 X34.5623 Y-34.7372
G01 X34.5692 Y-34.7247
G01 X34.5733 Y-34.7160
G01 X34.5786 Y-34.7027
G01 X34.5829 Y-34.6890
G01 X34.5863 Y-34.6750
G01 X34.5879 Y-34.6656
G01 X34.5895 Y-34.6513
G01 X34.5900 Y-34.6370
G01 X34.5899 Y-33.4322
G01 X34.5891 Y-33.4179
G01 X34.5879 Y-33.4084
G01 X34.5842 Y-33.3896
G01 X34.5786 Y-33.3713
G01 X34.5713 Y-33.3536
G01 X34.5647 Y-33.3409
G01 X34.5571 Y-33.3287
G01 X34.5487 Y-33.3170
G01 X34.5395 Y-33.3060
G01 X34.5329 Y-33.2991
G01 X34.5224 Y-33.2893
G01 X34.5112 Y-33.2804
G01 X34.4993 Y-33.2723
G01 X34.4869 Y-33.2650
G01 X34.4784 Y-33.2607
G01 X34.4652 Y-33.2551
G01 X34.4516 Y-33.2504
G01 X34.4424 Y-33.2478
G01 X34.4283 Y-33.2449
G01 X34.4141 Y-33.2429
G01 X34.3998 Y-33.2421
G01 X31.3950 Y-33.2420
G01 X31.3807 Y-33.2425
G01 X31.3711 Y-33.2435
G01 X31.3523 Y-33.2467
G01 X31.3384 Y-33.2504
G01 X31.3293 Y-33.2534
G01 X31.3116 Y-33.2607
G01 X31.2989 Y-33.2673
G01 X31.2867 Y-33.2749
G01 X31.2788 Y-33.2804
G01 X31.2676 Y-33.2893
G01 X31.2605 Y-33.2958
G01 X31.2505 Y-33.3060
G01 X31.2413 Y-33.3170
G01 X31.2329 Y-33.3287
G01 X31.2277 Y-33.3368
G01 X31.2208 Y-33.3493
G01 X31.2167 Y-33.3580
G01 X31.2114 Y-33.3713
G01 X31.2071 Y-33.3850
G01 X31.2037 Y-33.3990
G01 X31.2021 Y-33.4084
G01 X31.2005 Y-33.4227
G01 X31.2000 Y-33.4370
G01 X31.2002 Y-34.6466
G01 X31.2021 Y-34.6656
G01 X31.2047 Y-34.6797
G01 X31.2098 Y-34.6982
G01 X31.2167 Y-34.7160
G01 X31.2253 Y-34.7331
G01 X31.2356 Y-34.7493
G01 X31.2473 Y-34.7644
G01 X31.2605 Y-34.7782
G01 X31.2750 Y-34.7907
G01 X31.2907 Y-34.8017
G01 X31.3031 Y-34.8090
G01 X31.3204 Y-34.8172
G01 X31.3384 Y-34.8236
G01 X31.3570 Y-34.8283
G01 X31.3759 Y-34.8311
G01 X31.3950 Y-34.8320
G00 Z2.0000
G00 X31.3950 Y-35.1245
G01 F60.00
G01 Z-0.0500
G01 F120.00
G01 X34.4070 Y-35.1244
G01 X34.4309 Y-35.1232
G01 X34.4547 Y-35.1208
G01 X34.4665 Y-35.1192
G01 X34.4901 Y-35.1151
G01 X34.5018 Y-35.1127
G01 X34.5250 Y-35.1068
G01 X34.5479 Y-35.0999
G01 X34.5592 Y-35.0960
G01 X34.5816 Y-35.0874
G01 X34.6034 Y-35.0777
G01 X34.6142 Y-35.0724
G01 X34.6353 Y-35.0612
G01 X34.6558 Y-35.0489
G01 X34.6658 Y-35.0423
G01 X34.6854 Y-35.0286
G01 X34.7043 Y-35.0138
G01 X34.7224 Y-34.9982
G01 X34.7312 Y-34.9901
G01 X34.7481 Y-34.9732
G01 X34.7641 Y-34.9554
G01 X34.7793 Y-34.9369
G01 X34.7866 Y-34.9274
G01 X34.8003 Y-34.9078
G01 X34.8131 Y-34.8876
G01 X34.8192 Y-34.8773
G01 X34.8304 Y-34.8562
G01 X34.8407 Y-34.8346
G01 X34.8498 Y-34.8124
G01 X34.8540 Y-34.8012
G01 X34.8579 Y-34.7899
G01 X34.8648 Y-34.7670
G01 X34.8707 Y-34.7438
G01 X34.8753 Y-34.7203
G01 X34.8788 Y-34.6967
G01 X34.8802 Y-34.6848
G01 X34.8819 Y-34.6609
G01 X34.8825 Y-34.6370
G01 X34.8825 Y-33.4370
G01 X34.8819 Y-33.4131
G01 X34.8812 Y-33.4011
G01 X34.8788 Y-33.3773
G01 X34.8753 Y-33.3537
G01 X34.8707 Y-33.3302
G01 X34.8679 Y-33.3185
G01 X34.8615 Y-33.2955
G01 X34.8540 Y-33.2728
G01 X34.8454 Y-33.2504
G01 X34.8407 Y-33.2394
G01 X34.8304 Y-33.2178
G01 X34.8192 Y-33.1967
G01 X34.8131 Y-33.1864
G01 X34.8003 Y-33.1662
G01 X34.7866 Y-33.1466
G01 X34.7718 Y-33.1277
G01 X34.7641 Y-33.1186
G01 X34.7562 Y-33.1096
G01 X34.7397 Y-33.0923
G01 X34.7224 Y-33.0758
G01 X34.7043 Y-33.0602
G01 X34.6949 Y-33.0527
G01 X34.6854 Y-33.0454
G01 X34.6658 Y-33.0317
G01 X34.6456 Y-33.0189
G01 X34.6248 Y-33.0071
G01 X34.6034 Y-32.9963
G01 X34.5926 Y-32.9913
G01 X34.5704 Y-32.9822
G01 X34.5479 Y-32.9741
G01 X34.5365 Y-32.9705
G01 X34.5250 Y-32.9672
G01 X34.5018 Y-32.9613
G01 X34.4783 Y-32.9567
G01 X34.4547 Y-32.9532
G01 X34.4428 Y-32.9518
G01 X34.4189 Y-32.9501
G01 X34.3950 Y-32.9495
G01 X31.3830 Y-32.9496
G01 X31.3591 Y-32.9508
G01 X31.3353 Y-32.9532
G01 X31.3235 Y-32.9548
G01 X31.2999 Y-32.9589
G01 X31.2765 Y-32.9641
G01 X31.2650 Y-32.9672
G01 X31.2421 Y-32.9741
G01 X31.2196 Y-32.9822
G01 X31.2084 Y-32.9866
G01 X31.1866 Y-32.9963
G01 X31.1652 Y-33.0071
G01 X31.1547 Y-33.0128
G01 X31.1342 Y-33.0251
G01 X31.1143 Y-33.0384
G01 X31.0951 Y-33.0527
G01 X31.0857 Y-33.0602
G01 X31.0676 Y-33.0758
G01 X31.0503 Y-33.0923
G01 X31.0338 Y-33.1096
G01 X31.0182 Y-33.1277
G01 X31.0034 Y-33.1466
G01 X30.9964 Y-33.1563
G01 X30.9831 Y-33.1762
G01 X30.9769 Y-33.1864
G01 X30.9651 Y-33.2072
G01 X30.9543 Y-33.2286
G01 X30.9493 Y-33.2394
G01 X30.9402 Y-33.2616
G01 X30.9360 Y-33.2728
G01 X30.9285 Y-33.2955
G01 X30.9221 Y-33.3185
G01 X30.9169 Y-33.3419
G01 X30.9128 Y-33.3655
G01 X30.9112 Y-33.3773
G01 X30.9088 Y-33.4011
G01 X30.9076 Y-33.4250
G01 X30.9075 Y-33.4370
G01 X30.9075 Y-34.6370
G01 X30.9081 Y-34.6609
G01 X30.9088 Y-34.6729
G01 X30.9112 Y-34.6967
G01 X30.9147 Y-34.7203
G01 X30.9193 Y-34.7438
G01 X30.9252 Y-34.7670
G01 X30.9285 Y-34.7785
G01 X30.9360 Y-34.8012
G01 X30.9446 Y-34.8236
G01 X30.9543 Y-34.8454
G01 X30.9651 Y-34.8668
G01 X30.9769 Y-34.8876
G01 X30.9897 Y-34.9078
G01 X30.9964 Y-34.9177
G01 X31.0107 Y-34.9369
G01 X31.0259 Y-34.9554
G01 X31.0419 Y-34.9732
G01 X31.0503 Y-34.9817
G01 X31.0676 Y-34.9982
G01 X31.0857 Y-35.0138
G01 X31.0951 Y-35.0213
G01 X31.1143 Y-35.0356
G01 X31.1342 Y-35.0489
G01 X31.1547 Y-35.0612
G01 X31.1758 Y-35.0724
G01 X31.1974 Y-35.0827
G01 X31.2196 Y-35.0918
G01 X31.2421 Y-35.0999
G01 X31.2650 Y-35.1068
G01 X31.2882 Y-35.1127
G01 X31.3117 Y-35.1173
G01 X31.3353 Y-35.1208
G01 X31.3472 Y-35.1222
G01 X31.3711 Y-35.1239
G01 X31.3950 Y-35.1245
G00 Z2.0000
G00 X31.3950 Y-35.4170
G01 F60.00
G01 Z-0.0500
G01 F120.00
G01 X34.3950 Y-35.4170
G01 X34.4333 Y-35.4161
G01 X34.4524 Y-35.4149
G01 X34.4905 Y-35.4111
G01 X34.5284 Y-35.4055
G01 X34.5472 Y-35.4020
G01 X34.5659 Y-35.3980
G01 X34.6030 Y-35.3887
G01 X34.6397 Y-35.3776
G01 X34.6578 Y-35.3714
G01 X34.6935 Y-35.3576
G01 X34.7111 Y-35.3501
G01 X34.7457 Y-35.3337
G01 X34.7795 Y-35.3157
G01 X34.8123 Y-35.2960
G01 X34.8283 Y-35.2855
G01 X34.8596 Y-35.2635
G01 X34.8898 Y-35.2399
G01 X34.9188 Y-35.2149
G01 X34.9328 Y-35.2019
G01 X34.9599 Y-35.1748
G01 X34.9856 Y-35.1465
G01 X35.0099 Y-35.1169
G01 X35.0327 Y-35.0861
G01 X35.0435 Y-35.0703
G01 X35.0640 Y-35.0380
G01 X35.0829 Y-35.0047
G01 X35.1001 Y-34.9705
G01 X35.1081 Y-34.9531
G01 X35.1227 Y-34.9177
G01 X35.1356 Y-34.8817
G01 X35.1467 Y-34.8450
G01 X35.1560 Y-34.8079
G01 X35.1635 Y-34.7704
G01 X35.1666 Y-34.7514
G01 X35.1712 Y-34.7135
G01 X35.1741 Y-34.6753
G01 X35.1750 Y-34.6370
G01 X35.1750 Y-33.4370
G01 X35.1741 Y-33.3987
G01 X35.1729 Y-33.3796
G01 X35.1691 Y-33.3415
G01 X35.1635 Y-33.3036
G01 X35.1600 Y-33.2848
G01 X35.1516 Y-33.2475
G01 X35.1414 Y-33.2106
G01 X35.1356 Y-33.1923
G01 X35.1227 Y-33.1563
G01 X35.1156 Y-33.1385
G01 X35.1081 Y-33.1209
G01 X35.0917 Y-33.0863
G01 X35.0737 Y-33.0525
G01 X35.0540 Y-33.0197
G01 X35.0435 Y-33.0037
G01 X35.0215 Y-32.9724
G01 X34.9979 Y-32.9422
G01 X34.9856 Y-32.9275
G01 X34.9729 Y-32.9132
G01 X34.9465 Y-32.8855
G01 X34.9188 Y-32.8591
G01 X34.8898 Y-32.8341
G01 X34.8596 Y-32.8105
G01 X34.8441 Y-32.7993
G01 X34.8123 Y-32.7780
G01 X34.7795 Y-32.7583
G01 X34.7457 Y-32.7403
G01 X34.7111 Y-32.7239
G01 X34.6757 Y-32.7093
G01 X34.6578 Y-32.7026
G01 X34.6214 Y-32.6906
G01 X34.5845 Y-32.6804
G01 X34.5472 Y-32.6720
G01 X34.5284 Y-32.6685
G01 X34.5094 Y-32.6654
G01 X34.4715 Y-32.6608
G01 X34.4333 Y-32.6579
G01 X34.3950 Y-32.6570
G01 X31.3950 Y-32.6570
G01 X31.3567 Y-32.6579
G01 X31.3185 Y-32.6608
G01 X31.2995 Y-32.6629
G01 X31.2616 Y-32.6685
G01 X31.2241 Y-32.6760
G01 X31.2055 Y-32.6804
G01 X31.1870 Y-32.6853
G01 X31.1503 Y-32.6964
G01 X31.1143 Y-32.7093
G01 X31.0965 Y-32.7164
G01 X31.0789 Y-32.7239
G01 X31.0443 Y-32.7403
G01 X31.0105 Y-32.7583
G01 X30.9940 Y-32.7680
G01 X30.9617 Y-32.7885
G01 X30.9304 Y-32.8105
G01 X30.9002 Y-32.8341
G01 X30.8712 Y-32.8591
G01 X30.8435 Y-32.8855
G01 X30.8171 Y-32.9132
G01 X30.7921 Y-32.9422
G01 X30.7685 Y-32.9724
G01 X30.7465 Y-33.0037
G01 X30.7260 Y-33.0360
G01 X30.7071 Y-33.0693
G01 X30.6983 Y-33.0863
G01 X30.6819 Y-33.1209
G01 X30.6673 Y-33.1563
G01 X30.6544 Y-33.1923
G01 X30.6433 Y-33.2290
G01 X30.6340 Y-33.2661
G01 X30.6265 Y-33.3036
G01 X30.6209 Y-33.3415
G01 X30.6171 Y-33.3796
G01 X30.6152 Y-33.4179
G01 X30.6150 Y-33.4370
G01 X30.6150 Y-34.6370
G01 X30.6159 Y-34.6753
G01 X30.6171 Y-34.6944
G01 X30.6209 Y-34.7325
G01 X30.6265 Y-34.7704
G01 X30.6340 Y-34.8079
G01 X30.6433 Y-34.8450
G01 X30.6544 Y-34.8817
G01 X30.6673 Y-34.9177
G01 X30.6819 Y-34.9531
G01 X30.6983 Y-34.9877
G01 X30.7071 Y-35.0047
G01 X30.7260 Y-35.0380
G01 X30.7465 Y-35.0703
G01 X30.7685 Y-35.1016
G01 X30.7801 Y-35.1169
G01 X30.8044 Y-35.1465
G01 X30.8301 Y-35.1748
G01 X30.8572 Y-35.2019
G01 X30.8712 Y-35.2149
G01 X30.9002 Y-35.2399
G01 X30.9304 Y-35.2635
G01 X30.9459 Y-35.2747
G01 X30.9777 Y-35.2960
G01 X31.0105 Y-35.3157
G01 X31.0443 Y-35.3337
G01 X31.0789 Y-35.3501
G01 X31.0965 Y-35.3576
G01 X31.1322 Y-35.3714
G01 X31.1686 Y-35.3834
G01 X31.2055 Y-35.3936
G01 X31.2428 Y-35.4020
G01 X31.2616 Y-35.4055
G01 X31.2995 Y-35.4111
G01 X31.3185 Y-35.4132
G01 X31.3567 Y-35.4161
G01 X31.3950 Y-35.4170
G00 Z2.0000
G00 X40.6605 Y-38.9710
G01 F60.00
G01 Z-0.0500
G01 F120.00
G01 X40.6606 Y-40.2330
G01 X40.6630 Y-40.2814
G01 X40.6641 Y-40.2933
G01 X40.6670 Y-40.3170
G01 X40.6706 Y-40.3413
G01 X40.6747 Y-40.3649
G01 X40.6799 Y-40.3882
G01 X40.6889 Y-40.4236
G01 X40.6959 Y-40.4465
G01 X40.6998 Y-40.4578
G01 X40.7080 Y-40.4809
G01 X40.7166 Y-40.5032
G01 X40.7263 Y-40.5251
G01 X40.7421 Y-40.5580
G01 X40.7534 Y-40.5791
G01 X40.7594 Y-40.5895
G01 X40.7720 Y-40.6105
G01 X40.7848 Y-40.6307
G01 X40.7986 Y-40.6503
G01 X40.8204 Y-40.6795
G01 X40.8356 Y-40.6980
G01 X40.8435 Y-40.7070
G01 X40.8600 Y-40.7252
G01 X40.8765 Y-40.7425
G01 X40.8938 Y-40.7590
G01 X40.9120 Y-40.7755
G01 X40.9301 Y-40.7911
G01 X40.9395 Y-40.7986
G01 X40.9784 Y-40.8274
G01 X40.9983 Y-40.8407
G01 X41.0085 Y-40.8470
G01 X41.0295 Y-40.8596
G01 X41.0503 Y-40.8714
G01 X41.0717 Y-40.8822
G01 X41.1048 Y-40.8976
G01 X41.1158 Y-40.9024
G01 X41.1381 Y-40.9110
G01 X41.1612 Y-40.9192
G01 X41.1839 Y-40.9267
G01 X41.2070 Y-40.9331
G01 X41.2424 Y-40.9419
G01 X41.2541 Y-40.9443
G01 X41.2777 Y-40.9484
G01 X41.3020 Y-40.9520
G01 X41.3257 Y-40.9549
G01 X41.3496 Y-40.9567
G01 X41.3860 Y-40.9584
G01 X42.1600 Y-40.9584
G01 X42.1964 Y-40.9567
G01 X42.2203 Y-40.9549
G01 X42.2440 Y-40.9520
G01 X42.2683 Y-40.9484
G01 X42.2919 Y-40.9443
G01 X42.3152 Y-40.9391
G01 X42.3390 Y-40.9331
G01 X42.3621 Y-40.9267
G01 X42.3848 Y-40.9192
G01 X42.4191 Y-40.9068
G01 X42.4412 Y-40.8976
G01 X42.4743 Y-40.8822
G01 X42.4850 Y-40.8769
G01 X42.5061 Y-40.8656
G01 X42.5375 Y-40.8470
G01 X42.5577 Y-40.8342
G01 X42.5773 Y-40.8204
G01 X42.5970 Y-40.8058
G01 X42.6065 Y-40.7986
G01 X42.6250 Y-40.7834
G01 X42.6522 Y-40.7590
G01 X42.6695 Y-40.7425
G01 X42.6860 Y-40.7252
G01 X42.7104 Y-40.6980
G01 X42.7256 Y-40.6795
G01 X42.7328 Y-40.6700
G01 X42.7474 Y-40.6503
G01 X42.7612 Y-40.6307
G01 X42.7740 Y-40.6105
G01 X42.7926 Y-40.5791
G01 X42.7984 Y-40.5687
G01 X42.8092 Y-40.5473
G01 X42.8246 Y-40.5142
G01 X42.8338 Y-40.4921
G01 X42.8462 Y-40.4578
G01 X42.8537 Y-40.4351
G01 X42.8601 Y-40.4120
G01 X42.8689 Y-40.3766
G01 X42.8735 Y-40.3531
G01 X42.8754 Y-40.3413
G01 X42.8806 Y-40.3052
G01 X42.8829 Y-40.2826
G01 X43.3682 Y-40.2826
G01 X43.3704 Y-40.3042
G01 X43.3775 Y-40.3521
G01 X43.3821 Y-40.3756
G01 X43.3909 Y-40.4110
G01 X43.3973 Y-40.4341
G01 X43.4009 Y-40.4455
G01 X43.4130 Y-40.4799
G01 X43.4216 Y-40.5022
G01 X43.4313 Y-40.5241
G01 X43.4471 Y-40.5570
G01 X43.4584 Y-40.5781
G01 X43.4833 Y-40.6197
G01 X43.4966 Y-40.6396
G01 X43.5182 Y-40.6690
G01 X43.5329 Y-40.6879
G01 X43.5485 Y-40.7060
G01 X43.5650 Y-40.7242
G01 X43.5815 Y-40.7415
G01 X43.5988 Y-40.7580
G01 X43.6170 Y-40.7745
G01 X43.6351 Y-40.7901
G01 X43.6540 Y-40.8048
G01 X43.6737 Y-40.8194
G01 X43.6933 Y-40.8332
G01 X43.7135 Y-40.8460
G01 X43.7345 Y-40.8586
G01 X43.7553 Y-40.8704
G01 X43.7767 Y-40.8812
G01 X43.8098 Y-40.8966
G01 X43.8319 Y-40.9058
G01 X43.8775 Y-40.9221
G01 X43.9004 Y-40.9291
G01 X43.9358 Y-40.9381
G01 X43.9474 Y-40.9409
G01 X43.9709 Y-40.9455
G01 X44.0070 Y-40.9510
G01 X44.0307 Y-40.9539
G01 X44.0546 Y-40.9557
G01 X44.0791 Y-40.9569
G01 X44.1030 Y-40.9575
G01 X44.7280 Y-40.9575
G01 X44.7519 Y-40.9569
G01 X44.7764 Y-40.9557
G01 X44.8003 Y-40.9539
G01 X44.8240 Y-40.9510
G01 X44.8601 Y-40.9455
G01 X44.8836 Y-40.9409
G01 X44.9190 Y-40.9321
G01 X44.9421 Y-40.9257
G01 X44.9648 Y-40.9182
G01 X44.9991 Y-40.9058
G01 X45.0212 Y-40.8966
G01 X45.0321 Y-40.8917
G01 X45.0543 Y-40.8812
G01 X45.0757 Y-40.8704
G01 X45.0965 Y-40.8586
G01 X45.1175 Y-40.8460
G01 X45.1377 Y-40.8332
G01 X45.1573 Y-40.8194
G01 X45.1770 Y-40.8048
G01 X45.1865 Y-40.7976
G01 X45.2050 Y-40.7824
G01 X45.2409 Y-40.7498
G01 X45.2578 Y-40.7329
G01 X45.2660 Y-40.7242
G01 X45.2825 Y-40.7060
G01 X45.2981 Y-40.6879
G01 X45.3128 Y-40.6690
G01 X45.3274 Y-40.6493
G01 X45.3344 Y-40.6396
G01 X45.3477 Y-40.6197
G01 X45.3726 Y-40.5781
G01 X45.3784 Y-40.5677
G01 X45.3892 Y-40.5463
G01 X45.3997 Y-40.5241
G01 X45.4094 Y-40.5022
G01 X45.4180 Y-40.4799
G01 X45.4262 Y-40.4568
G01 X45.4337 Y-40.4341
G01 X45.4401 Y-40.4110
G01 X45.4489 Y-40.3756
G01 X45.4535 Y-40.3521
G01 X45.4590 Y-40.3160
G01 X45.4606 Y-40.3042
G01 X45.4630 Y-40.2804
G01 X45.4649 Y-40.2439
G01 X45.4655 Y-40.2200
G01 X45.4655 Y-38.9700
G01 X45.4649 Y-38.9461
G01 X45.4637 Y-38.9216
G01 X45.4619 Y-38.8977
G01 X45.4590 Y-38.8740
G01 X45.4554 Y-38.8497
G01 X45.4535 Y-38.8379
G01 X45.4489 Y-38.8144
G01 X45.4401 Y-38.7790
G01 X45.4337 Y-38.7559
G01 X45.4262 Y-38.7332
G01 X45.4180 Y-38.7101
G01 X45.4094 Y-38.6878
G01 X45.4046 Y-38.6768
G01 X45.3892 Y-38.6437
G01 X45.3784 Y-38.6223
G01 X45.3666 Y-38.6015
G01 X45.3540 Y-38.5805
G01 X45.3412 Y-38.5603
G01 X45.3344 Y-38.5504
G01 X45.3128 Y-38.5210
G01 X45.2981 Y-38.5021
G01 X45.2825 Y-38.4840
G01 X45.2660 Y-38.4658
G01 X45.2578 Y-38.4571
G01 X45.2409 Y-38.4402
G01 X45.2140 Y-38.4155
G01 X45.1959 Y-38.3999
G01 X45.1770 Y-38.3852
G01 X45.1573 Y-38.3706
G01 X45.1377 Y-38.3568
G01 X45.1277 Y-38.3503
G01 X45.0965 Y-38.3314
G01 X45.0757 Y-38.3196
G01 X45.0543 Y-38.3088
G01 X45.0321 Y-38.2983
G01 X45.0102 Y-38.2886
G01 X44.9991 Y-38.2842
G01 X44.9648 Y-38.2718
G01 X44.9421 Y-38.2643
G01 X44.9190 Y-38.2579
G01 X44.8952 Y-38.2519
G01 X44.8719 Y-38.2467
G01 X44.8601 Y-38.2445
G01 X44.8240 Y-38.2390
G01 X44.8003 Y-38.2361
G01 X44.7764 Y-38.2343
G01 X44.7519 Y-38.2331
G01 X44.7280 Y-38.2325
G01 X44.1030 Y-38.2325
G01 X44.0791 Y-38.2331
G01 X44.0426 Y-38.2350
G01 X44.0307 Y-38.2361
G01 X44.0070 Y-38.2390
G01 X43.9709 Y-38.2445
G01 X43.9474 Y-38.2491
G01 X43.9120 Y-38.2579
G01 X43.8889 Y-38.2643
G01 X43.8662 Y-38.2718
G01 X43.8319 Y-38.2842
G01 X43.8098 Y-38.2934
G01 X43.7767 Y-38.3088
G01 X43.7660 Y-38.3141
G01 X43.7449 Y-38.3254
G01 X43.7135 Y-38.3440
G01 X43.6933 Y-38.3568
G01 X43.6737 Y-38.3706
G01 X43.6445 Y-38.3924
G01 X43.6260 Y-38.4076
G01 X43.6170 Y-38.4155
G01 X43.5901 Y-38.4402
G01 X43.5732 Y-38.4571
G01 X43.5485 Y-38.4840
G01 X43.5329 Y-38.5021
G01 X43.5182 Y-38.5210
G01 X43.4966 Y-38.5504
G01 X43.4833 Y-38.5703
G01 X43.4644 Y-38.6015
G01 X43.4584 Y-38.6119
G01 X43.4471 Y-38.6330
G01 X43.4313 Y-38.6659
G01 X43.4216 Y-38.6878
G01 X43.4130 Y-38.7101
G01 X43.4009 Y-38.7445
G01 X43.3939 Y-38.7674
G01 X43.3849 Y-38.8028
G01 X43.3797 Y-38.8261
G01 X43.3756 Y-38.8497
G01 X43.3704 Y-38.8858
G01 X43.3682 Y-38.9074
G01 X42.8827 Y-38.9074
G01 X42.8806 Y-38.8868
G01 X42.8754 Y-38.8507
G01 X42.8713 Y-38.8271
G01 X42.8689 Y-38.8154
G01 X42.8601 Y-38.7800
G01 X42.8537 Y-38.7569
G01 X42.8462 Y-38.7342
G01 X42.8380 Y-38.7111
G01 X42.8338 Y-38.6999
G01 X42.8246 Y-38.6778
G01 X42.8092 Y-38.6447
G01 X42.7984 Y-38.6233
G01 X42.7866 Y-38.6025
G01 X42.7677 Y-38.5713
G01 X42.7612 Y-38.5613
G01 X42.7474 Y-38.5417
G01 X42.7328 Y-38.5220
G01 X42.7181 Y-38.5031
G01 X42.7025 Y-38.4850
G01 X42.6778 Y-38.4581
G01 X42.6609 Y-38.4412
G01 X42.6340 Y-38.4165
G01 X42.6159 Y-38.4009
G01 X42.6065 Y-38.3934
G01 X42.5773 Y-38.3716
G01 X42.5577 Y-38.3578
G01 X42.5375 Y-38.3450
G01 X42.5165 Y-38.3324
G01 X42.4957 Y-38.3206
G01 X42.4850 Y-38.3151
G01 X42.4521 Y-38.2993
G01 X42.4302 Y-38.2896
G01 X42.4079 Y-38.2810
G01 X42.3848 Y-38.2728
G01 X42.3621 Y-38.2653
G01 X42.3390 Y-38.2589
G01 X42.3036 Y-38.2501
G01 X42.2801 Y-38.2455
G01 X42.2322 Y-38.2384
G01 X42.2084 Y-38.2360
G01 X42.1719 Y-38.2341
G01 X42.1480 Y-38.2335
G01 X41.3860 Y-38.2336
G01 X41.3496 Y-38.2353
G01 X41.3257 Y-38.2371
G01 X41.3020 Y-38.2400
G01 X41.2659 Y-38.2455
G01 X41.2424 Y-38.2501
G01 X41.1954 Y-38.2619
G01 X41.1725 Y-38.2689
G01 X41.1381 Y-38.2810
G01 X41.1269 Y-38.2852
G01 X41.1048 Y-38.2944
G01 X41.0717 Y-38.3098
G01 X41.0503 Y-38.3206
G01 X41.0295 Y-38.3324
G01 X40.9983 Y-38.3513
G01 X40.9784 Y-38.3646
G01 X40.9395 Y-38.3934
G01 X40.9210 Y-38.4086
G01 X40.8938 Y-38.4330
G01 X40.8765 Y-38.4495
G01 X40.8600 Y-38.4668
G01 X40.8435 Y-38.4850
G01 X40.8279 Y-38.5031
G01 X40.8132 Y-38.5220
G01 X40.7986 Y-38.5417
G01 X40.7848 Y-38.5613
G01 X40.7720 Y-38.5815
G01 X40.7534 Y-38.6129
G01 X40.7421 Y-38.6340
G01 X40.7214 Y-38.6778
G01 X40.7122 Y-38.6999
G01 X40.6998 Y-38.7342
G01 X40.6923 Y-38.7569
G01 X40.6859 Y-38.7800
G01 X40.6771 Y-38.8154
G01 X40.6725 Y-38.8389
G01 X40.6670 Y-38.8750
G01 X40.6641 Y-38.8987
G01 X40.6623 Y-38.9226
G01 X40.6611 Y-38.9471
G01 X40.6605 Y-38.9710
G00 Z2.0000
G00 X40.9530 Y-38.9710
G01 F60.00
G01 Z-0.0500
G01 F120.00
G01 X40.9530 Y-40.2210
G01 X40.9551 Y-40.2646
G01 X40.9607 Y-40.3031
G01 X40.9636 Y-40.3172
G01 X40.9708 Y-40.3456
G01 X40.9736 Y-40.3547
G01 X40.9869 Y-40.3913
G01 X41.0012 Y-40.4222
G01 X41.0079 Y-40.4350
G01 X41.0280 Y-40.4682
G01 X41.0510 Y-40.4996
G01 X41.0603 Y-40.5106
G01 X41.0833 Y-40.5357
G01 X41.1084 Y-40.5587
G01 X41.1194 Y-40.5680
G01 X41.1508 Y-40.5910
G01 X41.1840 Y-40.6111
G01 X41.1968 Y-40.6178
G01 X41.2277 Y-40.6321
G01 X41.2643 Y-40.6454
G01 X41.2734 Y-40.6482
G01 X41.3018 Y-40.6554
G01 X41.3206 Y-40.6591
G01 X41.3544 Y-40.6639
G01 X41.3932 Y-40.6659
G01 X42.1528 Y-40.6659
G01 X42.1821 Y-40.6646
G01 X42.1964 Y-40.6633
G01 X42.2301 Y-40.6583
G01 X42.2442 Y-40.6554
G01 X42.2772 Y-40.6468
G01 X42.3094 Y-40.6356
G01 X42.3227 Y-40.6302
G01 X42.3535 Y-40.6157
G01 X42.3661 Y-40.6087
G01 X42.3952 Y-40.5910
G01 X42.4266 Y-40.5680
G01 X42.4376 Y-40.5587
G01 X42.4592 Y-40.5390
G01 X42.4660 Y-40.5322
G01 X42.4857 Y-40.5106
G01 X42.4950 Y-40.4996
G01 X42.5125 Y-40.4761
G01 X42.5231 Y-40.4601
G01 X42.5381 Y-40.4350
G01 X42.5427 Y-40.4265
G01 X42.5552 Y-40.4000
G01 X42.5609 Y-40.3869
G01 X42.5738 Y-40.3502
G01 X42.5824 Y-40.3172
G01 X42.5861 Y-40.2984
G01 X42.5903 Y-40.2694
G01 X42.5913 Y-40.2598
G01 X42.5930 Y-40.2210
G01 X42.5930 Y-39.9901
G01 X43.6580 Y-39.9901
G01 X43.6580 Y-40.2200
G01 X43.6594 Y-40.2541
G01 X43.6607 Y-40.2684
G01 X43.6666 Y-40.3068
G01 X43.6746 Y-40.3400
G01 X43.6786 Y-40.3537
G01 X43.6884 Y-40.3814
G01 X43.6938 Y-40.3947
G01 X43.7083 Y-40.4255
G01 X43.7153 Y-40.4381
G01 X43.7330 Y-40.4672
G01 X43.7531 Y-40.4948
G01 X43.7621 Y-40.5060
G01 X43.7817 Y-40.5277
G01 X43.7918 Y-40.5380
G01 X43.8207 Y-40.5640
G01 X43.8558 Y-40.5900
G01 X43.8932 Y-40.6125
G01 X43.9283 Y-40.6292
G01 X43.9416 Y-40.6346
G01 X43.9693 Y-40.6444
G01 X43.9830 Y-40.6484
G01 X44.0162 Y-40.6564
G01 X44.0499 Y-40.6617
G01 X44.0642 Y-40.6633
G01 X44.1030 Y-40.6650
G01 X44.7328 Y-40.6649
G01 X44.7668 Y-40.6633
G01 X44.7811 Y-40.6617
G01 X44.8148 Y-40.6564
G01 X44.8526 Y-40.6472
G01 X44.8663 Y-40.6428
G01 X44.8983 Y-40.6311
G01 X44.9335 Y-40.6147
G01 X44.9461 Y-40.6077
G01 X44.9752 Y-40.5900
G01 X45.0028 Y-40.5699
G01 X45.0140 Y-40.5609
G01 X45.0427 Y-40.5347
G01 X45.0720 Y-40.5023
G01 X45.0953 Y-40.4712
G01 X45.1031 Y-40.4591
G01 X45.1205 Y-40.4298
G01 X45.1352 Y-40.3990
G01 X45.1409 Y-40.3859
G01 X45.1524 Y-40.3537
G01 X45.1552 Y-40.3446
G01 X45.1624 Y-40.3162
G01 X45.1661 Y-40.2974
G01 X45.1709 Y-40.2636
G01 X45.1730 Y-40.2200
G01 X45.1730 Y-38.9700
G01 X45.1709 Y-38.9264
G01 X45.1661 Y-38.8926
G01 X45.1635 Y-38.8785
G01 X45.1538 Y-38.8408
G01 X45.1409 Y-38.8041
G01 X45.1352 Y-38.7910
G01 X45.1205 Y-38.7602
G01 X45.1006 Y-38.7268
G01 X45.0925 Y-38.7149
G01 X45.0750 Y-38.6914
G01 X45.0689 Y-38.6840
G01 X45.0427 Y-38.6553
G01 X45.0176 Y-38.6323
G01 X45.0066 Y-38.6230
G01 X44.9752 Y-38.6000
G01 X44.9420 Y-38.5799
G01 X44.9292 Y-38.5732
G01 X44.8983 Y-38.5589
G01 X44.8617 Y-38.5456
G01 X44.8526 Y-38.5428
G01 X44.8242 Y-38.5356
G01 X44.8054 Y-38.5319
G01 X44.7716 Y-38.5271
G01 X44.7328 Y-38.5251
G01 X44.0982 Y-38.5251
G01 X44.0642 Y-38.5267
G01 X44.0499 Y-38.5283
G01 X44.0162 Y-38.5336
G01 X43.9830 Y-38.5416
G01 X43.9693 Y-38.5456
G01 X43.9327 Y-38.5589
G01 X43.8932 Y-38.5775
G01 X43.8558 Y-38.6000
G01 X43.8207 Y-38.6260
G01 X43.7883 Y-38.6553
G01 X43.7653 Y-38.6804
G01 X43.7560 Y-38.6914
G01 X43.7385 Y-38.7149
G01 X43.7279 Y-38.7309
G01 X43.7129 Y-38.7560
G01 X43.7083 Y-38.7645
G01 X43.6958 Y-38.7910
G01 X43.6901 Y-38.8041
G01 X43.6772 Y-38.8408
G01 X43.6686 Y-38.8738
G01 X43.6649 Y-38.8926
G01 X43.6607 Y-38.9216
G01 X43.6597 Y-38.9312
G01 X43.6580 Y-38.9700
G01 X43.6580 Y-39.1999
G01 X42.5930 Y-39.1999
G01 X42.5929 Y-38.9662
G01 X42.5909 Y-38.9274
G01 X42.5861 Y-38.8936
G01 X42.5835 Y-38.8795
G01 X42.5752 Y-38.8464
G01 X42.5708 Y-38.8327
G01 X42.5609 Y-38.8051
G01 X42.5552 Y-38.7920
G01 X42.5427 Y-38.7655
G01 X42.5381 Y-38.7570
G01 X42.5231 Y-38.7319
G01 X42.5153 Y-38.7198
G01 X42.4920 Y-38.6887
G01 X42.4627 Y-38.6563
G01 X42.4303 Y-38.6270
G01 X42.3992 Y-38.6037
G01 X42.3871 Y-38.5959
G01 X42.3578 Y-38.5785
G01 X42.3270 Y-38.5638
G01 X42.3139 Y-38.5581
G01 X42.2817 Y-38.5466
G01 X42.2680 Y-38.5426
G01 X42.2348 Y-38.5346
G01 X42.2011 Y-38.5293
G01 X42.1868 Y-38.5277
G01 X42.1480 Y-38.5260
G01 X41.3932 Y-38.5261
G01 X41.3544 Y-38.5281
G01 X41.3112 Y-38.5346
G01 X41.2688 Y-38.5452
G01 X41.2366 Y-38.5564
G01 X41.2233 Y-38.5618
G01 X41.1968 Y-38.5742
G01 X41.1799 Y-38.5833
G01 X41.1508 Y-38.6010
G01 X41.1157 Y-38.6270
G01 X41.0833 Y-38.6563
G01 X41.0603 Y-38.6814
G01 X41.0510 Y-38.6924
G01 X41.0280 Y-38.7238
G01 X41.0079 Y-38.7570
G01 X41.0012 Y-38.7698
G01 X40.9869 Y-38.8007
G01 X40.9722 Y-38.8418
G01 X40.9616 Y-38.8842
G01 X40.9563 Y-38.9179
G01 X40.9547 Y-38.9322
G01 X40.9530 Y-38.9710
G00 Z2.0000
G00 X46.5863 Y-40.2731
G01 F60.00
G01 Z-0.0500
G01 F120.00
G01 X46.5916 Y-40.3068
G01 X46.5996 Y-40.3400
G01 X46.6036 Y-40.3537
G01 X46.6169 Y-40.3903
G01 X46.6355 Y-40.4298
G01 X46.6529 Y-40.4591
G01 X46.6607 Y-40.4712
G01 X46.6840 Y-40.5023
G01 X46.7133 Y-40.5347
G01 X46.7384 Y-40.5577
G01 X46.7494 Y-40.5670
G01 X46.7808 Y-40.5900
G01 X46.8140 Y-40.6101
G01 X46.8268 Y-40.6168
G01 X46.8577 Y-40.6311
G01 X46.8897 Y-40.6428
G01 X46.9080 Y-40.6484
G01 X46.9365 Y-40.6555
G01 X46.9459 Y-40.6573
G01 X46.9844 Y-40.6629
G01 X47.0232 Y-40.6649
G01 X47.6530 Y-40.6650
G01 X47.6871 Y-40.6636
G01 X47.7014 Y-40.6623
G01 X47.7398 Y-40.6564
G01 X47.7730 Y-40.6484
G01 X47.7867 Y-40.6444
G01 X47.8233 Y-40.6311
G01 X47.8585 Y-40.6147
G01 X47.8711 Y-40.6077
G01 X47.9002 Y-40.5900
G01 X47.9278 Y-40.5699
G01 X47.9390 Y-40.5609
G01 X47.9677 Y-40.5347
G01 X47.9939 Y-40.5060
G01 X48.0029 Y-40.4948
G01 X48.0230 Y-40.4672
G01 X48.0407 Y-40.4381
G01 X48.0477 Y-40.4255
G01 X48.0641 Y-40.3903
G01 X48.0788 Y-40.3492
G01 X48.0894 Y-40.3068
G01 X48.0959 Y-40.2636
G01 X48.0978 Y-40.2296
G01 X48.0980 Y-39.6841
G01 X51.3810 Y-39.6841
G01 X51.3811 Y-40.5688
G01 X51.3831 Y-40.6076
G01 X51.3879 Y-40.6414
G01 X51.3905 Y-40.6555
G01 X51.3988 Y-40.6886
G01 X51.4016 Y-40.6977
G01 X51.4114 Y-40.7254
G01 X51.4168 Y-40.7387
G01 X51.4335 Y-40.7738
G01 X51.4509 Y-40.8031
G01 X51.4587 Y-40.8152
G01 X51.4820 Y-40.8463
G01 X51.5080 Y-40.8752
G01 X51.5183 Y-40.8853
G01 X51.5437 Y-40.9080
G01 X51.5709 Y-40.9285
G01 X51.5828 Y-40.9366
G01 X51.6162 Y-40.9565
G01 X51.6513 Y-40.9732
G01 X51.6646 Y-40.9786
G01 X51.6968 Y-40.9898
G01 X51.7345 Y-40.9995
G01 X51.7486 Y-41.0021
G01 X51.7824 Y-41.0069
G01 X51.8260 Y-41.0090
G01 X57.1260 Y-41.0090
G01 X57.1696 Y-41.0069
G01 X57.2081 Y-41.0013
G01 X57.2222 Y-40.9984
G01 X57.2552 Y-40.9898
G01 X57.2874 Y-40.9786
G01 X57.3007 Y-40.9732
G01 X57.3358 Y-40.9565
G01 X57.3692 Y-40.9366
G01 X57.3811 Y-40.9285
G01 X57.4083 Y-40.9080
G01 X57.4337 Y-40.8853
G01 X57.4440 Y-40.8752
G01 X57.4700 Y-40.8463
G01 X57.4933 Y-40.8152
G01 X57.5011 Y-40.8031
G01 X57.5185 Y-40.7738
G01 X57.5332 Y-40.7430
G01 X57.5389 Y-40.7299
G01 X57.5518 Y-40.6932
G01 X57.5615 Y-40.6555
G01 X57.5641 Y-40.6414
G01 X57.5689 Y-40.6076
G01 X57.5709 Y-40.5688
G01 X57.5710 Y-34.6640
G01 X57.5689 Y-34.6204
G01 X57.5633 Y-34.5819
G01 X57.5604 Y-34.5678
G01 X57.5518 Y-34.5348
G01 X57.5406 Y-34.5026
G01 X57.5352 Y-34.4893
G01 X57.5185 Y-34.4542
G01 X57.4986 Y-34.4208
G01 X57.4905 Y-34.4089
G01 X57.4700 Y-34.3817
G01 X57.4473 Y-34.3563
G01 X57.4372 Y-34.3460
G01 X57.4083 Y-34.3200
G01 X57.3772 Y-34.2967
G01 X57.3651 Y-34.2889
G01 X57.3358 Y-34.2715
G01 X57.3050 Y-34.2568
G01 X57.2919 Y-34.2511
G01 X57.2552 Y-34.2382
G01 X57.2175 Y-34.2285
G01 X57.2034 Y-34.2259
G01 X57.1696 Y-34.2211
G01 X57.1308 Y-34.2191
G01 X51.8260 Y-34.2190
G01 X51.7824 Y-34.2211
G01 X51.7439 Y-34.2267
G01 X51.7298 Y-34.2296
G01 X51.6968 Y-34.2382
G01 X51.6646 Y-34.2494
G01 X51.6513 Y-34.2548
G01 X51.6162 Y-34.2715
G01 X51.5828 Y-34.2914
G01 X51.5709 Y-34.2995
G01 X51.5437 Y-34.3200
G01 X51.5183 Y-34.3427
G01 X51.5080 Y-34.3528
G01 X51.4820 Y-34.3817
G01 X51.4560 Y-34.4168
G01 X51.4359 Y-34.4500
G01 X51.4292 Y-34.4628
G01 X51.4149 Y-34.4937
G01 X51.4032 Y-34.5257
G01 X51.3988 Y-34.5394
G01 X51.3896 Y-34.5772
G01 X51.3837 Y-34.6156
G01 X51.3824 Y-34.6299
G01 X51.3810 Y-34.6640
G01 X51.3810 Y-38.8939
G01 X48.0913 Y-38.8939
G01 X48.0885 Y-38.8785
G01 X48.0788 Y-38.8408
G01 X48.0659 Y-38.8041
G01 X48.0602 Y-38.7910
G01 X48.0455 Y-38.7602
G01 X48.0256 Y-38.7268
G01 X48.0175 Y-38.7149
G01 X48.0000 Y-38.6914
G01 X47.9939 Y-38.6840
G01 X47.9677 Y-38.6553
G01 X47.9426 Y-38.6323
G01 X47.9316 Y-38.6230
G01 X47.9002 Y-38.6000
G01 X47.8670 Y-38.5799
G01 X47.8542 Y-38.5732
G01 X47.8233 Y-38.5589
G01 X47.7822 Y-38.5442
G01 X47.7398 Y-38.5336
G01 X47.7061 Y-38.5283
G01 X47.6918 Y-38.5267
G01 X47.6530 Y-38.5250
G01 X47.0232 Y-38.5251
G01 X46.9892 Y-38.5267
G01 X46.9749 Y-38.5283
G01 X46.9412 Y-38.5336
G01 X46.9034 Y-38.5428
G01 X46.8943 Y-38.5456
G01 X46.8666 Y-38.5554
G01 X46.8533 Y-38.5608
G01 X46.8182 Y-38.5775
G01 X46.7889 Y-38.5949
G01 X46.7768 Y-38.6027
G01 X46.7457 Y-38.6260
G01 X46.7168 Y-38.6520
G01 X46.7067 Y-38.6623
G01 X46.6840 Y-38.6877
G01 X46.6607 Y-38.7188
G01 X46.6554 Y-38.7268
G01 X46.6403 Y-38.7519
G01 X46.6333 Y-38.7645
G01 X46.6169 Y-38.7997
G01 X46.6052 Y-38.8317
G01 X46.5996 Y-38.8500
G01 X46.5925 Y-38.8785
G01 X46.5907 Y-38.8879
G01 X46.5851 Y-38.9264
G01 X46.5830 Y-38.9700
G01 X46.5830 Y-40.2200
G01 X46.5847 Y-40.2588
G01 X46.5863 Y-40.2731
G00 Z2.0000
G00 X47.8929 Y-49.4015
G01 F60.00
G01 Z-0.0500
G01 F120.00
G01 X48.3911 Y-49.4015
G01 X50.0468 Y-47.7458
G01 X50.0733 Y-47.7206
G01 X50.0886 Y-47.7073
G01 X50.1065 Y-47.6927
G01 X50.1350 Y-47.6713
G01 X50.1517 Y-47.6598
G01 X50.1721 Y-47.6468
G01 X50.1919 Y-47.6350
G01 X50.2096 Y-47.6252
G01 X50.2312 Y-47.6142
G01 X50.2521 Y-47.6044
G01 X50.2707 Y-47.5964
G01 X50.2932 Y-47.5876
G01 X50.3149 Y-47.5799
G01 X50.3342 Y-47.5738
G01 X50.3687 Y-47.5643
G01 X50.3884 Y-47.5598
G01 X50.4110 Y-47.5553
G01 X50.4349 Y-47.5514
G01 X50.4550 Y-47.5489
G01 X50.4780 Y-47.5467
G01 X50.5021 Y-47.5451
G01 X50.5339 Y-47.5444
G01 X50.5580 Y-47.5449
G01 X50.5898 Y-47.5468
G01 X50.6127 Y-47.5491
G01 X50.6376 Y-47.5524
G01 X50.9862 Y-47.6060
G01 X51.0267 Y-47.5517
G01 X51.0419 Y-47.5332
G01 X51.1157 Y-47.4515
G01 X51.1322 Y-47.4342
G01 X51.1495 Y-47.4177
G01 X51.2222 Y-47.3518
G01 X51.2403 Y-47.3361
G01 X51.2592 Y-47.3214
G01 X51.3304 Y-47.2686
G01 X50.0258 Y-47.2686
G01 X47.8929 Y-49.4015
G00 Z2.0000
G00 X50.3359 Y-49.4015
G01 F60.00
G01 Z-0.0500
G01 F120.00
G01 X51.0125 Y-49.4015
G01 X50.9610 Y-49.3320
G01 X50.9472 Y-49.3124
G01 X50.9344 Y-49.2922
G01 X50.8839 Y-49.2080
G01 X50.8721 Y-49.1872
G01 X50.8614 Y-49.1658
G01 X50.8144 Y-49.0662
G01 X50.8053 Y-49.0441
G01 X50.8011 Y-49.0329
G01 X50.7769 Y-48.9652
G01 X50.7728 Y-48.9646
G01 X50.3359 Y-49.4015
G00 Z2.0000
G00 X50.2330 Y-54.5840
G01 F60.00
G01 Z-0.0500
G01 F120.00
G01 X51.4330 Y-54.5840
G01 X51.4521 Y-54.5831
G01 X51.4663 Y-54.5811
G01 X51.4804 Y-54.5782
G01 X51.4987 Y-54.5726
G01 X51.5120 Y-54.5673
G01 X51.5249 Y-54.5610
G01 X51.5373 Y-54.5537
G01 X51.5492 Y-54.5456
G01 X51.5604 Y-54.5367
G01 X51.5709 Y-54.5269
G01 X51.5807 Y-54.5164
G01 X51.5896 Y-54.5052
G01 X51.5977 Y-54.4933
G01 X51.6072 Y-54.4767
G01 X51.6132 Y-54.4636
G01 X51.6182 Y-54.4502
G01 X51.6222 Y-54.4364
G01 X51.6251 Y-54.4223
G01 X51.6265 Y-54.4129
G01 X51.6278 Y-54.3986
G01 X51.6280 Y-54.3890
G01 X51.6279 Y-49.8842
G01 X51.6271 Y-49.8699
G01 X51.6243 Y-49.8510
G01 X51.6209 Y-49.8370
G01 X51.6149 Y-49.8188
G01 X51.6072 Y-49.8013
G01 X51.6003 Y-49.7888
G01 X51.5924 Y-49.7767
G01 X51.5837 Y-49.7653
G01 X51.5742 Y-49.7545
G01 X51.5604 Y-49.7413
G01 X51.5492 Y-49.7324
G01 X51.5373 Y-49.7243
G01 X51.5249 Y-49.7170
G01 X51.5076 Y-49.7088
G01 X51.4942 Y-49.7038
G01 X51.4804 Y-49.6998
G01 X51.4663 Y-49.6969
G01 X51.4569 Y-49.6955
G01 X51.4426 Y-49.6942
G01 X51.4330 Y-49.6940
G01 X50.2330 Y-49.6940
G01 X50.2139 Y-49.6949
G01 X50.1997 Y-49.6969
G01 X50.1810 Y-49.7011
G01 X50.1673 Y-49.7054
G01 X50.1540 Y-49.7107
G01 X50.1411 Y-49.7170
G01 X50.1287 Y-49.7243
G01 X50.1168 Y-49.7324
G01 X50.1056 Y-49.7413
G01 X50.0951 Y-49.7511
G01 X50.0853 Y-49.7616
G01 X50.0764 Y-49.7728
G01 X50.0683 Y-49.7847
G01 X50.0610 Y-49.7971
G01 X50.0528 Y-49.8144
G01 X50.0478 Y-49.8278
G01 X50.0438 Y-49.8416
G01 X50.0409 Y-49.8557
G01 X50.0395 Y-49.8651
G01 X50.0385 Y-49.8747
G01 X50.0380 Y-49.8890
G01 X50.0382 Y-54.3986
G01 X50.0395 Y-54.4129
G01 X50.0427 Y-54.4317
G01 X50.0478 Y-54.4502
G01 X50.0547 Y-54.4680
G01 X50.0633 Y-54.4851
G01 X50.0736 Y-54.5013
G01 X50.0853 Y-54.5164
G01 X50.0985 Y-54.5302
G01 X50.1093 Y-54.5397
G01 X50.1247 Y-54.5511
G01 X50.1411 Y-54.5610
G01 X50.1584 Y-54.5692
G01 X50.1764 Y-54.5756
G01 X50.1950 Y-54.5803
G01 X50.2139 Y-54.5831
G01 X50.2330 Y-54.5840
G00 Z2.0000
G00 X47.7330 Y-54.5840
G01 F60.00
G01 Z-0.0500
G01 F120.00
G01 X48.9330 Y-54.5840
G01 X48.9521 Y-54.5831
G01 X48.9663 Y-54.5811
G01 X48.9804 Y-54.5782
G01 X48.9942 Y-54.5742
G01 X49.0076 Y-54.5692
G01 X49.0207 Y-54.5632
G01 X49.0332 Y-54.5563
G01 X49.0453 Y-54.5484
G01 X49.0567 Y-54.5397
G01 X49.0675 Y-54.5302
G01 X49.0742 Y-54.5235
G01 X49.0837 Y-54.5127
G01 X49.0924 Y-54.5013
G01 X49.1003 Y-54.4892
G01 X49.1072 Y-54.4767
G01 X49.1132 Y-54.4636
G01 X49.1182 Y-54.4502
G01 X49.1222 Y-54.4364
G01 X49.1251 Y-54.4223
G01 X49.1271 Y-54.4081
G01 X49.1280 Y-54.3890
G01 X49.1280 Y-50.1958
G01 X50.6708 Y-48.6529
G01 X51.0096 Y-48.7051
G01 X51.0120 Y-48.7191
G01 X51.0141 Y-48.7285
G01 X51.0405 Y-48.8329
G01 X51.0765 Y-48.9344
G01 X51.0838 Y-48.9521
G01 X51.1301 Y-49.0493
G01 X51.1853 Y-49.1418
G01 X51.1959 Y-49.1577
G01 X51.2603 Y-49.2441
G01 X51.3324 Y-49.3241
G01 X51.3459 Y-49.3376
G01 X51.4259 Y-49.4097
G01 X51.5123 Y-49.4741
G01 X51.5282 Y-49.4847
G01 X51.6207 Y-49.5399
G01 X51.7179 Y-49.5862
G01 X51.7311 Y-49.5918
G01 X51.8280 Y-49.6265
G01 X51.8463 Y-49.6321
G01 X51.9509 Y-49.6580
G01 X52.0574 Y-49.6741
G01 X52.0764 Y-49.6759
G01 X52.1840 Y-49.6810
G01 X52.3011 Y-49.6752
G01 X52.4077 Y-49.6597
G01 X52.4265 Y-49.6559
G01 X52.5309 Y-49.6295
G01 X52.6324 Y-49.5935
G01 X52.6501 Y-49.5862
G01 X52.7473 Y-49.5399
G01 X52.8398 Y-49.4847
G01 X52.8557 Y-49.4741
G01 X52.9421 Y-49.4097
G01 X53.0221 Y-49.3376
G01 X53.0356 Y-49.3241
G01 X53.1015 Y-49.2513
G01 X53.1136 Y-49.2366
G01 X53.1776 Y-49.1499
G01 X53.2379 Y-49.0493
G01 X53.2880 Y-48.9433
G01 X53.3245 Y-48.8420
G01 X53.3301 Y-48.8237
G01 X53.3560 Y-48.7191
G01 X53.3721 Y-48.6126
G01 X53.3739 Y-48.5936
G01 X53.3790 Y-48.4860
G01 X53.3739 Y-48.3784
G01 X53.3721 Y-48.3594
G01 X53.3560 Y-48.2529
G01 X53.3301 Y-48.1483
G01 X53.3245 Y-48.1300
G01 X53.2880 Y-48.0287
G01 X53.2379 Y-47.9227
G01 X53.1776 Y-47.8221
G01 X53.1136 Y-47.7354
G01 X53.1015 Y-47.7207
G01 X53.0290 Y-47.6410
G01 X52.9493 Y-47.5685
G01 X52.9346 Y-47.5564
G01 X52.8519 Y-47.4951
G01 X52.8398 Y-47.4873
G01 X52.7473 Y-47.4321
G01 X52.6413 Y-47.3820
G01 X52.5309 Y-47.3425
G01 X52.4171 Y-47.3140
G01 X52.3011 Y-47.2968
G01 X52.1840 Y-47.2910
G01 X52.0669 Y-47.2968
G01 X51.9603 Y-47.3123
G01 X51.9415 Y-47.3161
G01 X51.8371 Y-47.3425
G01 X51.7267 Y-47.3820
G01 X51.6207 Y-47.4321
G01 X51.5282 Y-47.4873
G01 X51.5123 Y-47.4979
G01 X51.4259 Y-47.5623
G01 X51.3459 Y-47.6344
G01 X51.3324 Y-47.6479
G01 X51.2665 Y-47.7207
G01 X51.2544 Y-47.7354
G01 X51.1904 Y-47.8221
G01 X51.1348 Y-47.9144
G01 X51.1294 Y-47.9240
G01 X50.5931 Y-47.8415
G01 X50.5717 Y-47.8388
G01 X50.5593 Y-47.8378
G01 X50.5330 Y-47.8369
G01 X50.5110 Y-47.8375
G01 X50.4895 Y-47.8393
G01 X50.4771 Y-47.8409
G01 X50.4606 Y-47.8436
G01 X50.4391 Y-47.8482
G01 X50.4183 Y-47.8539
G01 X50.4019 Y-47.8593
G01 X50.3774 Y-47.8689
G01 X50.3660 Y-47.8739
G01 X50.3468 Y-47.8836
G01 X50.3317 Y-47.8920
G01 X50.3135 Y-47.9035
G01 X50.2994 Y-47.9134
G01 X50.2824 Y-47.9266
G01 X50.2692 Y-47.9378
G01 X50.2536 Y-47.9526
G01 X48.5122 Y-49.6940
G01 X47.7330 Y-49.6940
G01 X47.7139 Y-49.6949
G01 X47.6950 Y-49.6977
G01 X47.6764 Y-49.7024
G01 X47.6584 Y-49.7088
G01 X47.6453 Y-49.7148
G01 X47.6369 Y-49.7193
G01 X47.6207 Y-49.7296
G01 X47.6093 Y-49.7383
G01 X47.6020 Y-49.7445
G01 X47.5951 Y-49.7511
G01 X47.5853 Y-49.7616
G01 X47.5736 Y-49.7767
G01 X47.5657 Y-49.7888
G01 X47.5588 Y-49.8013
G01 X47.5511 Y-49.8188
G01 X47.5464 Y-49.8324
G01 X47.5427 Y-49.8463
G01 X47.5401 Y-49.8604
G01 X47.5385 Y-49.8747
G01 X47.5380 Y-49.8890
G01 X47.5381 Y-54.3938
G01 X47.5395 Y-54.4129
G01 X47.5427 Y-54.4317
G01 X47.5464 Y-54.4456
G01 X47.5528 Y-54.4636
G01 X47.5610 Y-54.4809
G01 X47.5709 Y-54.4973
G01 X47.5823 Y-54.5127
G01 X47.5951 Y-54.5269
G01 X47.6093 Y-54.5397
G01 X47.6247 Y-54.5511
G01 X47.6411 Y-54.5610
G01 X47.6584 Y-54.5692
G01 X47.6764 Y-54.5756
G01 X47.6950 Y-54.5803
G01 X47.7139 Y-54.5831
G01 X47.7330 Y-54.5840
G00 Z2.0000
G00 X52.4030 Y-56.3390
G01 F60.00
G01 Z-0.0500
G01 F120.00
G01 X52.4030 Y-59.3390
G01 X52.4039 Y-59.3773
G01 X52.4051 Y-59.3964
G01 X52.4089 Y-59.4345
G01 X52.4145 Y-59.4724
G01 X52.4220 Y-59.5099
G01 X52.4264 Y-59.5285
G01 X52.4313 Y-59.5470
G01 X52.4424 Y-59.5837
G01 X52.4486 Y-59.6018
G01 X52.4624 Y-59.6375
G01 X52.4699 Y-59.6551
G01 X52.4863 Y-59.6897
G01 X52.5043 Y-59.7235
G01 X52.5140 Y-59.7400
G01 X52.5345 Y-59.7723
G01 X52.5565 Y-59.8036
G01 X52.5801 Y-59.8338
G01 X52.6051 Y-59.8628
G01 X52.6315 Y-59.8905
G01 X52.6452 Y-59.9039
G01 X52.6735 Y-59.9296
G01 X52.7031 Y-59.9539
G01 X52.7339 Y-59.9767
G01 X52.7497 Y-59.9875
G01 X52.7820 Y-60.0080
G01 X52.8153 Y-60.0269
G01 X52.8495 Y-60.0441
G01 X52.8845 Y-60.0596
G01 X52.9023 Y-60.0667
G01 X52.9383 Y-60.0796
G01 X52.9750 Y-60.0907
G01 X52.9935 Y-60.0956
G01 X53.0308 Y-60.1040
G01 X53.0686 Y-60.1106
G01 X53.1065 Y-60.1152
G01 X53.1447 Y-60.1181
G01 X53.1830 Y-60.1190
G01 X54.3830 Y-60.1190
G01 X54.4213 Y-60.1181
G01 X54.4404 Y-60.1169
G01 X54.4595 Y-60.1152
G01 X54.4974 Y-60.1106
G01 X54.5352 Y-60.1040
G01 X54.5725 Y-60.0956
G01 X54.5910 Y-60.0907
G01 X54.6277 Y-60.0796
G01 X54.6458 Y-60.0734
G01 X54.6815 Y-60.0596
G01 X54.7165 Y-60.0441
G01 X54.7337 Y-60.0357
G01 X54.7675 Y-60.0177
G01 X54.7840 Y-60.0080
G01 X54.8163 Y-59.9875
G01 X54.8476 Y-59.9655
G01 X54.8778 Y-59.9419
G01 X54.9068 Y-59.9169
G01 X54.9345 Y-59.8905
G01 X54.9479 Y-59.8768
G01 X54.9736 Y-59.8485
G01 X54.9859 Y-59.8338
G01 X55.0095 Y-59.8036
G01 X55.0207 Y-59.7881
G01 X55.0420 Y-59.7563
G01 X55.0617 Y-59.7235
G01 X55.0797 Y-59.6897
G01 X55.0961 Y-59.6551
G01 X55.1107 Y-59.6197
G01 X55.1236 Y-59.5837
G01 X55.1294 Y-59.5654
G01 X55.1396 Y-59.5285
G01 X55.1480 Y-59.4912
G01 X55.1515 Y-59.4724
G01 X55.1546 Y-59.4534
G01 X55.1592 Y-59.4155
G01 X55.1621 Y-59.3773
G01 X55.1630 Y-59.3390
G01 X55.1630 Y-56.3390
G01 X55.1621 Y-56.3007
G01 X55.1609 Y-56.2816
G01 X55.1571 Y-56.2435
G01 X55.1515 Y-56.2056
G01 X55.1440 Y-56.1681
G01 X55.1396 Y-56.1495
G01 X55.1347 Y-56.1310
G01 X55.1236 Y-56.0943
G01 X55.1107 Y-56.0583
G01 X55.1036 Y-56.0405
G01 X55.0961 Y-56.0229
G01 X55.0797 Y-55.9883
G01 X55.0709 Y-55.9713
G01 X55.0520 Y-55.9380
G01 X55.0315 Y-55.9057
G01 X55.0095 Y-55.8744
G01 X54.9859 Y-55.8442
G01 X54.9609 Y-55.8152
G01 X54.9345 Y-55.7875
G01 X54.9068 Y-55.7611
G01 X54.8925 Y-55.7484
G01 X54.8629 Y-55.7241
G01 X54.8321 Y-55.7013
G01 X54.8003 Y-55.6800
G01 X54.7675 Y-55.6603
G01 X54.7337 Y-55.6423
G01 X54.6991 Y-55.6259
G01 X54.6637 Y-55.6113
G01 X54.6277 Y-55.5984
G01 X54.5910 Y-55.5873
G01 X54.5539 Y-55.5780
G01 X54.5164 Y-55.5705
G01 X54.4785 Y-55.5649
G01 X54.4404 Y-55.5611
G01 X54.4021 Y-55.5592
G01 X54.3830 Y-55.5590
G01 X53.1830 Y-55.5590
G01 X53.1447 Y-55.5599
G01 X53.1065 Y-55.5628
G01 X53.0875 Y-55.5649
G01 X53.0496 Y-55.5705
G01 X53.0121 Y-55.5780
G01 X52.9750 Y-55.5873
G01 X52.9566 Y-55.5926
G01 X52.9202 Y-55.6046
G01 X52.8845 Y-55.6184
G01 X52.8495 Y-55.6339
G01 X52.8153 Y-55.6511
G01 X52.7820 Y-55.6700
G01 X52.7497 Y-55.6905
G01 X52.7184 Y-55.7125
G01 X52.6882 Y-55.7361
G01 X52.6735 Y-55.7484
G01 X52.6452 Y-55.7741
G01 X52.6181 Y-55.8012
G01 X52.6051 Y-55.8152
G01 X52.5801 Y-55.8442
G01 X52.5565 Y-55.8744
G01 X52.5345 Y-55.9057
G01 X52.5140 Y-55.9380
G01 X52.5043 Y-55.9545
G01 X52.4951 Y-55.9713
G01 X52.4779 Y-56.0055
G01 X52.4624 Y-56.0405
G01 X52.4486 Y-56.0762
G01 X52.4366 Y-56.1126
G01 X52.4264 Y-56.1495
G01 X52.4220 Y-56.1681
G01 X52.4145 Y-56.2056
G01 X52.4089 Y-56.2435
G01 X52.4051 Y-56.2816
G01 X52.4032 Y-56.3199
G01 X52.4030 Y-56.3390
G00 Z2.0000
G00 X52.6955 Y-56.3390
G01 F60.00
G01 Z-0.0500
G01 F120.00
G01 X52.6956 Y-59.3510
G01 X52.6968 Y-59.3749
G01 X52.6992 Y-59.3987
G01 X52.7008 Y-59.4105
G01 X52.7049 Y-59.4341
G01 X52.7073 Y-59.4458
G01 X52.7132 Y-59.4690
G01 X52.7201 Y-59.4919
G01 X52.7240 Y-59.5032
G01 X52.7326 Y-59.5256
G01 X52.7423 Y-59.5474
G01 X52.7476 Y-59.5582
G01 X52.7588 Y-59.5793
G01 X52.7711 Y-59.5998
G01 X52.7777 Y-59.6098
G01 X52.7914 Y-59.6294
G01 X52.8062 Y-59.6483
G01 X52.8218 Y-59.6664
G01 X52.8299 Y-59.6752
G01 X52.8468 Y-59.6921
G01 X52.8646 Y-59.7081
G01 X52.8831 Y-59.7233
G01 X52.8926 Y-59.7306
G01 X52.9122 Y-59.7443
G01 X52.9324 Y-59.7571
G01 X52.9427 Y-59.7632
G01 X52.9638 Y-59.7744
G01 X52.9854 Y-59.7847
G01 X53.0076 Y-59.7938
G01 X53.0188 Y-59.7980
G01 X53.0301 Y-59.8019
G01 X53.0530 Y-59.8088
G01 X53.0762 Y-59.8147
G01 X53.0997 Y-59.8193
G01 X53.1233 Y-59.8228
G01 X53.1352 Y-59.8242
G01 X53.1591 Y-59.8259
G01 X53.1830 Y-59.8265
G01 X54.3830 Y-59.8265
G01 X54.4069 Y-59.8259
G01 X54.4189 Y-59.8252
G01 X54.4427 Y-59.8228
G01 X54.4663 Y-59.8193
G01 X54.4898 Y-59.8147
G01 X54.5015 Y-59.8119
G01 X54.5245 Y-59.8055
G01 X54.5472 Y-59.7980
G01 X54.5696 Y-59.7894
G01 X54.5806 Y-59.7847
G01 X54.6022 Y-59.7744
G01 X54.6233 Y-59.7632
G01 X54.6336 Y-59.7571
G01 X54.6538 Y-59.7443
G01 X54.6734 Y-59.7306
G01 X54.6923 Y-59.7158
G01 X54.7014 Y-59.7081
G01 X54.7104 Y-59.7002
G01 X54.7277 Y-59.6837
G01 X54.7442 Y-59.6664
G01 X54.7598 Y-59.6483
G01 X54.7673 Y-59.6389
G01 X54.7746 Y-59.6294
G01 X54.7883 Y-59.6098
G01 X54.8011 Y-59.5896
G01 X54.8129 Y-59.5688
G01 X54.8237 Y-59.5474
G01 X54.8287 Y-59.5366
G01 X54.8378 Y-59.5144
G01 X54.8459 Y-59.4919
G01 X54.8495 Y-59.4805
G01 X54.8528 Y-59.4690
G01 X54.8587 Y-59.4458
G01 X54.8633 Y-59.4223
G01 X54.8668 Y-59.3987
G01 X54.8682 Y-59.3868
G01 X54.8699 Y-59.3629
G01 X54.8705 Y-59.3390
G01 X54.8704 Y-56.3270
G01 X54.8692 Y-56.3031
G01 X54.8668 Y-56.2793
G01 X54.8652 Y-56.2675
G01 X54.8611 Y-56.2439
G01 X54.8559 Y-56.2205
G01 X54.8528 Y-56.2090
G01 X54.8459 Y-56.1861
G01 X54.8420 Y-56.1748
G01 X54.8334 Y-56.1524
G01 X54.8287 Y-56.1414
G01 X54.8184 Y-56.1198
G01 X54.8072 Y-56.0987
G01 X54.7949 Y-56.0782
G01 X54.7816 Y-56.0583
G01 X54.7673 Y-56.0391
G01 X54.7598 Y-56.0297
G01 X54.7442 Y-56.0116
G01 X54.7277 Y-55.9943
G01 X54.7192 Y-55.9859
G01 X54.7014 Y-55.9699
G01 X54.6829 Y-55.9547
G01 X54.6637 Y-55.9404
G01 X54.6538 Y-55.9337
G01 X54.6438 Y-55.9271
G01 X54.6233 Y-55.9148
G01 X54.6022 Y-55.9036
G01 X54.5806 Y-55.8933
G01 X54.5584 Y-55.8842
G01 X54.5472 Y-55.8800
G01 X54.5245 Y-55.8725
G01 X54.5015 Y-55.8661
G01 X54.4781 Y-55.8609
G01 X54.4545 Y-55.8568
G01 X54.4308 Y-55.8538
G01 X54.4189 Y-55.8528
G01 X54.3950 Y-55.8516
G01 X54.3830 Y-55.8515
G01 X53.1830 Y-55.8515
G01 X53.1710 Y-55.8516
G01 X53.1471 Y-55.8528
G01 X53.1233 Y-55.8552
G01 X53.0997 Y-55.8587
G01 X53.0762 Y-55.8633
G01 X53.0645 Y-55.8661
G01 X53.0415 Y-55.8725
G01 X53.0188 Y-55.8800
G01 X52.9964 Y-55.8886
G01 X52.9746 Y-55.8983
G01 X52.9532 Y-55.9091
G01 X52.9324 Y-55.9209
G01 X52.9122 Y-55.9337
G01 X52.9023 Y-55.9404
G01 X52.8831 Y-55.9547
G01 X52.8646 Y-55.9699
G01 X52.8468 Y-55.9859
G01 X52.8299 Y-56.0028
G01 X52.8218 Y-56.0116
G01 X52.8062 Y-56.0297
G01 X52.7914 Y-56.0486
G01 X52.7777 Y-56.0682
G01 X52.7649 Y-56.0884
G01 X52.7531 Y-56.1092
G01 X52.7476 Y-56.1198
G01 X52.7373 Y-56.1414
G01 X52.7282 Y-56.1636
G01 X52.7201 Y-56.1861
G01 X52.7132 Y-56.2090
G01 X52.7073 Y-56.2322
G01 X52.7027 Y-56.2557
G01 X52.6992 Y-56.2793
G01 X52.6968 Y-56.3031
G01 X52.6956 Y-56.3270
G01 X52.6955 Y-56.3390
G00 Z2.0000
G00 X52.9880 Y-56.3390
G01 F60.00
G01 Z-0.0500
G01 F120.00
G01 X52.9880 Y-59.3390
G01 X52.9885 Y-59.3533
G01 X52.9895 Y-59.3629
G01 X52.9927 Y-59.3817
G01 X52.9951 Y-59.3910
G01 X52.9994 Y-59.4047
G01 X53.0067 Y-59.4224
G01 X53.0133 Y-59.4351
G01 X53.0183 Y-59.4433
G01 X53.0264 Y-59.4552
G01 X53.0323 Y-59.4627
G01 X53.0418 Y-59.4735
G01 X53.0520 Y-59.4835
G01 X53.0630 Y-59.4927
G01 X53.0707 Y-59.4984
G01 X53.0828 Y-59.5063
G01 X53.0953 Y-59.5132
G01 X53.1040 Y-59.5173
G01 X53.1173 Y-59.5226
G01 X53.1310 Y-59.5269
G01 X53.1450 Y-59.5303
G01 X53.1544 Y-59.5319
G01 X53.1687 Y-59.5335
G01 X53.1830 Y-59.5340
G01 X54.3878 Y-59.5339
G01 X54.4021 Y-59.5331
G01 X54.4116 Y-59.5319
G01 X54.4304 Y-59.5282
G01 X54.4487 Y-59.5226
G01 X54.4664 Y-59.5153
G01 X54.4791 Y-59.5087
G01 X54.4913 Y-59.5011
G01 X54.5030 Y-59.4927
G01 X54.5140 Y-59.4835
G01 X54.5209 Y-59.4769
G01 X54.5307 Y-59.4664
G01 X54.5396 Y-59.4552
G01 X54.5477 Y-59.4433
G01 X54.5550 Y-59.4309
G01 X54.5593 Y-59.4224
G01 X54.5649 Y-59.4092
G01 X54.5696 Y-59.3956
G01 X54.5722 Y-59.3864
G01 X54.5751 Y-59.3723
G01 X54.5771 Y-59.3581
G01 X54.5779 Y-59.3438
G01 X54.5780 Y-56.3390
G01 X54.5771 Y-56.3199
G01 X54.5751 Y-56.3057
G01 X54.5733 Y-56.2963
G01 X54.5709 Y-56.2870
G01 X54.5666 Y-56.2733
G01 X54.5593 Y-56.2556
G01 X54.5527 Y-56.2429
G01 X54.5451 Y-56.2307
G01 X54.5367 Y-56.2190
G01 X54.5307 Y-56.2116
G01 X54.5209 Y-56.2011
G01 X54.5140 Y-56.1945
G01 X54.5030 Y-56.1853
G01 X54.4913 Y-56.1769
G01 X54.4791 Y-56.1693
G01 X54.4664 Y-56.1627
G01 X54.4576 Y-56.1588
G01 X54.4442 Y-56.1538
G01 X54.4350 Y-56.1511
G01 X54.4210 Y-56.1477
G01 X54.4116 Y-56.1461
G01 X54.3973 Y-56.1445
G01 X54.3830 Y-56.1440
G01 X53.1734 Y-56.1442
G01 X53.1544 Y-56.1461
G01 X53.1403 Y-56.1487
G01 X53.1218 Y-56.1538
G01 X53.1040 Y-56.1607
G01 X53.0869 Y-56.1693
G01 X53.0707 Y-56.1796
G01 X53.0556 Y-56.1913
G01 X53.0418 Y-56.2045
G01 X53.0323 Y-56.2153
G01 X53.0209 Y-56.2307
G01 X53.0110 Y-56.2471
G01 X53.0028 Y-56.2644
G01 X52.9964 Y-56.2824
G01 X52.9917 Y-56.3010
G01 X52.9889 Y-56.3199
G01 X52.9880 Y-56.3390
G00 Z2.0000
G00 X58.2670 Y-56.2120
G01 F60.00
G01 Z-0.0500
G01 F120.00
G01 X58.2670 Y-59.2120
G01 X58.2679 Y-59.2503
G01 X58.2708 Y-59.2885
G01 X58.2754 Y-59.3264
G01 X58.2785 Y-59.3454
G01 X58.2820 Y-59.3642
G01 X58.2904 Y-59.4015
G01 X58.3006 Y-59.4384
G01 X58.3064 Y-59.4567
G01 X58.3126 Y-59.4748
G01 X58.3264 Y-59.5105
G01 X58.3419 Y-59.5455
G01 X58.3591 Y-59.5797
G01 X58.3683 Y-59.5965
G01 X58.3880 Y-59.6293
G01 X58.3985 Y-59.6453
G01 X58.4093 Y-59.6611
G01 X58.4321 Y-59.6919
G01 X58.4564 Y-59.7215
G01 X58.4821 Y-59.7498
G01 X58.5092 Y-59.7769
G01 X58.5375 Y-59.8026
G01 X58.5522 Y-59.8149
G01 X58.5824 Y-59.8385
G01 X58.6137 Y-59.8605
G01 X58.6460 Y-59.8810
G01 X58.6625 Y-59.8907
G01 X58.6963 Y-59.9087
G01 X58.7309 Y-59.9251
G01 X58.7663 Y-59.9397
G01 X58.8023 Y-59.9526
G01 X58.8390 Y-59.9637
G01 X58.8761 Y-59.9730
G01 X58.9136 Y-59.9805
G01 X58.9515 Y-59.9861
G01 X58.9705 Y-59.9882
G01 X59.0087 Y-59.9911
G01 X59.0470 Y-59.9920
G01 X60.2470 Y-59.9920
G01 X60.2853 Y-59.9911
G01 X60.3044 Y-59.9899
G01 X60.3235 Y-59.9882
G01 X60.3614 Y-59.9836
G01 X60.3992 Y-59.9770
G01 X60.4365 Y-59.9686
G01 X60.4550 Y-59.9637
G01 X60.4917 Y-59.9526
G01 X60.5277 Y-59.9397
G01 X60.5631 Y-59.9251
G01 X60.5805 Y-59.9171
G01 X60.6147 Y-59.8999
G01 X60.6315 Y-59.8907
G01 X60.6643 Y-59.8710
G01 X60.6803 Y-59.8605
G01 X60.7116 Y-59.8385
G01 X60.7418 Y-59.8149
G01 X60.7565 Y-59.8026
G01 X60.7848 Y-59.7769
G01 X60.8119 Y-59.7498
G01 X60.8249 Y-59.7358
G01 X60.8499 Y-59.7068
G01 X60.8735 Y-59.6766
G01 X60.8955 Y-59.6453
G01 X60.9160 Y-59.6130
G01 X60.9257 Y-59.5965
G01 X60.9437 Y-59.5627
G01 X60.9601 Y-59.5281
G01 X60.9747 Y-59.4927
G01 X60.9814 Y-59.4748
G01 X60.9934 Y-59.4384
G01 X61.0036 Y-59.4015
G01 X61.0120 Y-59.3642
G01 X61.0155 Y-59.3454
G01 X61.0186 Y-59.3264
G01 X61.0232 Y-59.2885
G01 X61.0261 Y-59.2503
G01 X61.0270 Y-59.2120
G01 X61.0270 Y-56.2120
G01 X61.0261 Y-56.1737
G01 X61.0249 Y-56.1546
G01 X61.0211 Y-56.1165
G01 X61.0155 Y-56.0786
G01 X61.0080 Y-56.0411
G01 X61.0036 Y-56.0225
G01 X60.9987 Y-56.0040
G01 X60.9876 Y-55.9673
G01 X60.9747 Y-55.9313
G01 X60.9676 Y-55.9135
G01 X60.9601 Y-55.8959
G01 X60.9437 Y-55.8613
G01 X60.9349 Y-55.8443
G01 X60.9160 Y-55.8110
G01 X60.8955 Y-55.7787
G01 X60.8735 Y-55.7474
G01 X60.8499 Y-55.7172
G01 X60.8249 Y-55.6882
G01 X60.7985 Y-55.6605
G01 X60.7708 Y-55.6341
G01 X60.7565 Y-55.6214
G01 X60.7269 Y-55.5971
G01 X60.6961 Y-55.5743
G01 X60.6643 Y-55.5530
G01 X60.6315 Y-55.5333
G01 X60.5977 Y-55.5153
G01 X60.5631 Y-55.4989
G01 X60.5277 Y-55.4843
G01 X60.4917 Y-55.4714
G01 X60.4550 Y-55.4603
G01 X60.4179 Y-55.4510
G01 X60.3804 Y-55.4435
G01 X60.3425 Y-55.4379
G01 X60.3044 Y-55.4341
G01 X60.2661 Y-55.4322
G01 X60.2470 Y-55.4320
G01 X59.0470 Y-55.4320
G01 X59.0087 Y-55.4329
G01 X58.9705 Y-55.4358
G01 X58.9326 Y-55.4404
G01 X58.9136 Y-55.4435
G01 X58.8761 Y-55.4510
G01 X58.8390 Y-55.4603
G01 X58.8023 Y-55.4714
G01 X58.7663 Y-55.4843
G01 X58.7485 Y-55.4914
G01 X58.7135 Y-55.5069
G01 X58.6793 Y-55.5241
G01 X58.6460 Y-55.5430
G01 X58.6137 Y-55.5635
G01 X58.5979 Y-55.5743
G01 X58.5671 Y-55.5971
G01 X58.5375 Y-55.6214
G01 X58.5092 Y-55.6471
G01 X58.4955 Y-55.6605
G01 X58.4691 Y-55.6882
G01 X58.4441 Y-55.7172
G01 X58.4205 Y-55.7474
G01 X58.3985 Y-55.7787
G01 X58.3780 Y-55.8110
G01 X58.3683 Y-55.8275
G01 X58.3503 Y-55.8613
G01 X58.3419 Y-55.8785
G01 X58.3264 Y-55.9135
G01 X58.3126 Y-55.9492
G01 X58.3006 Y-55.9856
G01 X58.2904 Y-56.0225
G01 X58.2820 Y-56.0598
G01 X58.2785 Y-56.0786
G01 X58.2754 Y-56.0976
G01 X58.2708 Y-56.1355
G01 X58.2679 Y-56.1737
G01 X58.2670 Y-56.2120
G00 Z2.0000
G00 X58.5595 Y-56.2120
G01 F60.00
G01 Z-0.0500
G01 F120.00
G01 X58.5596 Y-59.2240
G01 X58.5608 Y-59.2479
G01 X58.5632 Y-59.2717
G01 X58.5648 Y-59.2835
G01 X58.5667 Y-59.2953
G01 X58.5713 Y-59.3188
G01 X58.5772 Y-59.3420
G01 X58.5841 Y-59.3649
G01 X58.5880 Y-59.3762
G01 X58.5966 Y-59.3986
G01 X58.6063 Y-59.4204
G01 X58.6171 Y-59.4418
G01 X58.6228 Y-59.4523
G01 X58.6351 Y-59.4728
G01 X58.6484 Y-59.4927
G01 X58.6554 Y-59.5024
G01 X58.6627 Y-59.5119
G01 X58.6779 Y-59.5304
G01 X58.6939 Y-59.5482
G01 X58.7023 Y-59.5567
G01 X58.7196 Y-59.5732
G01 X58.7377 Y-59.5888
G01 X58.7566 Y-59.6036
G01 X58.7663 Y-59.6106
G01 X58.7862 Y-59.6239
G01 X58.7964 Y-59.6301
G01 X58.8172 Y-59.6419
G01 X58.8386 Y-59.6527
G01 X58.8604 Y-59.6624
G01 X58.8716 Y-59.6668
G01 X58.8941 Y-59.6749
G01 X58.9170 Y-59.6818
G01 X58.9402 Y-59.6877
G01 X58.9637 Y-59.6923
G01 X58.9873 Y-59.6958
G01 X58.9992 Y-59.6972
G01 X59.0231 Y-59.6989
G01 X59.0470 Y-59.6995
G01 X60.2470 Y-59.6995
G01 X60.2709 Y-59.6989
G01 X60.2948 Y-59.6972
G01 X60.3185 Y-59.6942
G01 X60.3421 Y-59.6901
G01 X60.3538 Y-59.6877
G01 X60.3770 Y-59.6818
G01 X60.3999 Y-59.6749
G01 X60.4112 Y-59.6710
G01 X60.4336 Y-59.6624
G01 X60.4554 Y-59.6527
G01 X60.4768 Y-59.6419
G01 X60.4873 Y-59.6362
G01 X60.5078 Y-59.6239
G01 X60.5277 Y-59.6106
G01 X60.5374 Y-59.6036
G01 X60.5563 Y-59.5888
G01 X60.5654 Y-59.5811
G01 X60.5832 Y-59.5651
G01 X60.5917 Y-59.5567
G01 X60.6082 Y-59.5394
G01 X60.6238 Y-59.5213
G01 X60.6313 Y-59.5119
G01 X60.6386 Y-59.5024
G01 X60.6523 Y-59.4828
G01 X60.6651 Y-59.4626
G01 X60.6769 Y-59.4418
G01 X60.6824 Y-59.4312
G01 X60.6927 Y-59.4096
G01 X60.7018 Y-59.3874
G01 X60.7060 Y-59.3762
G01 X60.7135 Y-59.3535
G01 X60.7168 Y-59.3420
G01 X60.7227 Y-59.3188
G01 X60.7273 Y-59.2953
G01 X60.7308 Y-59.2717
G01 X60.7322 Y-59.2598
G01 X60.7339 Y-59.2359
G01 X60.7345 Y-59.2120
G01 X60.7344 Y-56.2000
G01 X60.7332 Y-56.1761
G01 X60.7308 Y-56.1523
G01 X60.7292 Y-56.1405
G01 X60.7251 Y-56.1169
G01 X60.7199 Y-56.0935
G01 X60.7168 Y-56.0820
G01 X60.7099 Y-56.0591
G01 X60.7060 Y-56.0478
G01 X60.6974 Y-56.0254
G01 X60.6927 Y-56.0144
G01 X60.6824 Y-55.9928
G01 X60.6712 Y-55.9717
G01 X60.6589 Y-55.9512
G01 X60.6456 Y-55.9313
G01 X60.6313 Y-55.9121
G01 X60.6238 Y-55.9027
G01 X60.6082 Y-55.8846
G01 X60.5917 Y-55.8673
G01 X60.5832 Y-55.8589
G01 X60.5654 Y-55.8429
G01 X60.5469 Y-55.8277
G01 X60.5277 Y-55.8134
G01 X60.5178 Y-55.8067
G01 X60.5078 Y-55.8001
G01 X60.4873 Y-55.7878
G01 X60.4662 Y-55.7766
G01 X60.4446 Y-55.7663
G01 X60.4224 Y-55.7572
G01 X60.4112 Y-55.7530
G01 X60.3885 Y-55.7455
G01 X60.3655 Y-55.7391
G01 X60.3421 Y-55.7339
G01 X60.3185 Y-55.7298
G01 X60.2948 Y-55.7268
G01 X60.2829 Y-55.7258
G01 X60.2590 Y-55.7246
G01 X60.2470 Y-55.7245
G01 X59.0470 Y-55.7245
G01 X59.0350 Y-55.7246
G01 X59.0111 Y-55.7258
G01 X58.9873 Y-55.7282
G01 X58.9637 Y-55.7317
G01 X58.9402 Y-55.7363
G01 X58.9285 Y-55.7391
G01 X58.9055 Y-55.7455
G01 X58.8828 Y-55.7530
G01 X58.8716 Y-55.7572
G01 X58.8494 Y-55.7663
G01 X58.8278 Y-55.7766
G01 X58.8067 Y-55.7878
G01 X58.7862 Y-55.8001
G01 X58.7663 Y-55.8134
G01 X58.7471 Y-55.8277
G01 X58.7286 Y-55.8429
G01 X58.7196 Y-55.8508
G01 X58.7023 Y-55.8673
G01 X58.6858 Y-55.8846
G01 X58.6702 Y-55.9027
G01 X58.6627 Y-55.9121
G01 X58.6484 Y-55.9313
G01 X58.6351 Y-55.9512
G01 X58.6228 Y-55.9717
G01 X58.6116 Y-55.9928
G01 X58.6013 Y-56.0144
G01 X58.5922 Y-56.0366
G01 X58.5880 Y-56.0478
G01 X58.5805 Y-56.0705
G01 X58.5741 Y-56.0935
G01 X58.5689 Y-56.1169
G01 X58.5648 Y-56.1405
G01 X58.5618 Y-56.1642
G01 X58.5601 Y-56.1881
G01 X58.5595 Y-56.2120
G00 Z2.0000
G00 X58.8520 Y-56.2120
G01 F60.00
G01 Z-0.0500
G01 F120.00
G01 X58.8520 Y-59.2120
G01 X58.8525 Y-59.2263
G01 X58.8535 Y-59.2359
G01 X58.8567 Y-59.2547
G01 X58.8618 Y-59.2732
G01 X58.8651 Y-59.2822
G01 X58.8707 Y-59.2954
G01 X58.8773 Y-59.3081
G01 X58.8849 Y-59.3203
G01 X58.8933 Y-59.3320
G01 X58.8993 Y-59.3394
G01 X58.9091 Y-59.3499
G01 X58.9160 Y-59.3565
G01 X58.9270 Y-59.3657
G01 X58.9347 Y-59.3714
G01 X58.9427 Y-59.3767
G01 X58.9551 Y-59.3840
G01 X58.9680 Y-59.3903
G01 X58.9813 Y-59.3956
G01 X58.9950 Y-59.3999
G01 X59.0090 Y-59.4033
G01 X59.0184 Y-59.4049
G01 X59.0327 Y-59.4065
G01 X59.0470 Y-59.4070
G01 X60.2518 Y-59.4069
G01 X60.2661 Y-59.4061
G01 X60.2756 Y-59.4049
G01 X60.2944 Y-59.4012
G01 X60.3127 Y-59.3956
G01 X60.3304 Y-59.3883
G01 X60.3431 Y-59.3817
G01 X60.3553 Y-59.3741
G01 X60.3670 Y-59.3657
G01 X60.3780 Y-59.3565
G01 X60.3849 Y-59.3499
G01 X60.3947 Y-59.3394
G01 X60.4036 Y-59.3282
G01 X60.4117 Y-59.3163
G01 X60.4190 Y-59.3039
G01 X60.4233 Y-59.2954
G01 X60.4289 Y-59.2822
G01 X60.4336 Y-59.2686
G01 X60.4362 Y-59.2594
G01 X60.4391 Y-59.2453
G01 X60.4411 Y-59.2311
G01 X60.4419 Y-59.2168
G01 X60.4420 Y-56.2120
G01 X60.4411 Y-56.1929
G01 X60.4391 Y-56.1787
G01 X60.4373 Y-56.1693
G01 X60.4349 Y-56.1600
G01 X60.4306 Y-56.1463
G01 X60.4233 Y-56.1286
G01 X60.4167 Y-56.1159
G01 X60.4091 Y-56.1037
G01 X60.4007 Y-56.0920
G01 X60.3947 Y-56.0846
G01 X60.3849 Y-56.0741
G01 X60.3780 Y-56.0675
G01 X60.3670 Y-56.0583
G01 X60.3553 Y-56.0499
G01 X60.3431 Y-56.0423
G01 X60.3304 Y-56.0357
G01 X60.3216 Y-56.0318
G01 X60.3082 Y-56.0268
G01 X60.2990 Y-56.0241
G01 X60.2850 Y-56.0207
G01 X60.2756 Y-56.0191
G01 X60.2613 Y-56.0175
G01 X60.2470 Y-56.0170
G01 X59.0374 Y-56.0172
G01 X59.0184 Y-56.0191
G01 X59.0043 Y-56.0217
G01 X58.9858 Y-56.0268
G01 X58.9680 Y-56.0337
G01 X58.9509 Y-56.0423
G01 X58.9347 Y-56.0526
G01 X58.9196 Y-56.0643
G01 X58.9058 Y-56.0775
G01 X58.8933 Y-56.0920
G01 X58.8823 Y-56.1077
G01 X58.8728 Y-56.1243
G01 X58.8651 Y-56.1418
G01 X58.8591 Y-56.1600
G01 X58.8549 Y-56.1787
G01 X58.8525 Y-56.1977
G01 X58.8520 Y-56.2120
G00 Z2.0000
G00 X61.5369 Y-48.4856
G01 F60.00
G01 Z-0.0500
G01 F120.00
G01 X61.5530 Y-48.5921
G01 X61.5789 Y-48.6967
G01 X61.5845 Y-48.7150
G01 X61.6175 Y-48.8074
G01 X61.6248 Y-48.8251
G01 X61.6711 Y-48.9223
G01 X61.7263 Y-49.0148
G01 X61.7369 Y-49.0307
G01 X61.8013 Y-49.1171
G01 X61.8734 Y-49.1971
G01 X61.8869 Y-49.2106
G01 X61.9669 Y-49.2827
G01 X62.0533 Y-49.3471
G01 X62.0692 Y-49.3577
G01 X62.1617 Y-49.4129
G01 X62.2539 Y-49.4568
G01 X62.2539 Y-49.5670
G01 X61.9874 Y-49.5672
G01 X61.9731 Y-49.5685
G01 X61.9543 Y-49.5717
G01 X61.9404 Y-49.5754
G01 X61.9268 Y-49.5801
G01 X61.9136 Y-49.5857
G01 X61.9009 Y-49.5923
G01 X61.8927 Y-49.5973
G01 X61.8808 Y-49.6054
G01 X61.8696 Y-49.6143
G01 X61.8591 Y-49.6241
G01 X61.8525 Y-49.6310
G01 X61.8433 Y-49.6420
G01 X61.8349 Y-49.6537
G01 X61.8273 Y-49.6659
G01 X61.8207 Y-49.6786
G01 X61.8168 Y-49.6874
G01 X61.8118 Y-49.7008
G01 X61.8078 Y-49.7146
G01 X61.8049 Y-49.7287
G01 X61.8029 Y-49.7429
G01 X61.8020 Y-49.7620
G01 X61.8020 Y-54.2620
G01 X61.8025 Y-54.2763
G01 X61.8041 Y-54.2906
G01 X61.8067 Y-54.3047
G01 X61.8091 Y-54.3140
G01 X61.8134 Y-54.3277
G01 X61.8187 Y-54.3410
G01 X61.8250 Y-54.3539
G01 X61.8349 Y-54.3703
G01 X61.8433 Y-54.3820
G01 X61.8525 Y-54.3930
G01 X61.8625 Y-54.4032
G01 X61.8733 Y-54.4127
G01 X61.8847 Y-54.4214
G01 X61.8968 Y-54.4293
G01 X61.9093 Y-54.4362
G01 X61.9224 Y-54.4422
G01 X61.9358 Y-54.4472
G01 X61.9496 Y-54.4512
G01 X61.9637 Y-54.4541
G01 X61.9779 Y-54.4561
G01 X61.9970 Y-54.4570
G01 X63.1970 Y-54.4570
G01 X63.2113 Y-54.4565
G01 X63.2256 Y-54.4549
G01 X63.2350 Y-54.4533
G01 X63.2490 Y-54.4499
G01 X63.2672 Y-54.4439
G01 X63.2804 Y-54.4383
G01 X63.2931 Y-54.4317
G01 X63.3053 Y-54.4241
G01 X63.3170 Y-54.4157
G01 X63.3280 Y-54.4065
G01 X63.3382 Y-54.3965
G01 X63.3507 Y-54.3820
G01 X63.3591 Y-54.3703
G01 X63.3690 Y-54.3539
G01 X63.3753 Y-54.3410
G01 X63.3806 Y-54.3277
G01 X63.3862 Y-54.3094
G01 X63.3891 Y-54.2953
G01 X63.3911 Y-54.2811
G01 X63.3919 Y-54.2668
G01 X63.3918 Y-49.7524
G01 X63.3905 Y-49.7381
G01 X63.3891 Y-49.7287
G01 X63.3849 Y-49.7100
G01 X63.3822 Y-49.7008
G01 X63.3772 Y-49.6874
G01 X63.3712 Y-49.6743
G01 X63.3667 Y-49.6659
G01 X63.3591 Y-49.6537
G01 X63.3536 Y-49.6458
G01 X63.3415 Y-49.6310
G01 X63.3315 Y-49.6208
G01 X63.3244 Y-49.6143
G01 X63.3093 Y-49.6026
G01 X63.2972 Y-49.5947
G01 X63.2889 Y-49.5900
G01 X63.2760 Y-49.5837
G01 X63.2672 Y-49.5801
G01 X63.2536 Y-49.5754
G01 X63.2444 Y-49.5728
G01 X63.2350 Y-49.5707
G01 X63.2209 Y-49.5685
G01 X63.2113 Y-49.5675
G01 X63.1970 Y-49.5670
G01 X63.0441 Y-49.5670
G01 X63.0441 Y-49.5097
G01 X63.0673 Y-49.5039
G01 X63.0765 Y-49.5011
G01 X63.1779 Y-49.4648
G01 X63.1911 Y-49.4592
G01 X63.2841 Y-49.4151
G01 X63.2966 Y-49.4082
G01 X63.3889 Y-49.3526
G01 X63.4794 Y-49.2857
G01 X63.4903 Y-49.2765
G01 X63.5700 Y-49.2040
G01 X63.6487 Y-49.1171
G01 X63.7186 Y-49.0229
G01 X63.7766 Y-48.9265
G01 X63.7832 Y-48.9138
G01 X63.8290 Y-48.8163
G01 X63.8685 Y-48.7059
G01 X63.8970 Y-48.5921
G01 X63.9142 Y-48.4761
G01 X63.9200 Y-48.3590
G01 X63.9142 Y-48.2419
G01 X63.8970 Y-48.1259
G01 X63.8699 Y-48.0167
G01 X63.8655 Y-48.0030
G01 X63.8290 Y-47.9017
G01 X63.7789 Y-47.7957
G01 X63.7186 Y-47.6951
G01 X63.6546 Y-47.6084
G01 X63.6425 Y-47.5937
G01 X63.5766 Y-47.5209
G01 X63.5631 Y-47.5074
G01 X63.4831 Y-47.4353
G01 X63.3967 Y-47.3709
G01 X63.3808 Y-47.3603
G01 X63.2883 Y-47.3051
G01 X63.1823 Y-47.2550
G01 X63.0719 Y-47.2155
G01 X62.9581 Y-47.1870
G01 X62.8421 Y-47.1698
G01 X62.7250 Y-47.1640
G01 X62.6079 Y-47.1698
G01 X62.4919 Y-47.1870
G01 X62.3781 Y-47.2155
G01 X62.2677 Y-47.2550
G01 X62.1617 Y-47.3051
G01 X62.0611 Y-47.3654
G01 X61.9669 Y-47.4353
G01 X61.8800 Y-47.5140
G01 X61.8013 Y-47.6009
G01 X61.7369 Y-47.6873
G01 X61.7263 Y-47.7032
G01 X61.6711 Y-47.7957
G01 X61.6248 Y-47.8929
G01 X61.6175 Y-47.9106
G01 X61.5845 Y-48.0030
G01 X61.5789 Y-48.0213
G01 X61.5530 Y-48.1259
G01 X61.5358 Y-48.2419
G01 X61.5300 Y-48.3590
G01 X61.5351 Y-48.4666
G01 X61.5369 Y-48.4856
G00 Z2.0000
G00 X63.7351 Y-47.2686
G01 F60.00
G01 Z-0.0500
G01 F120.00
G01 X63.7683 Y-47.2988
G01 X63.7852 Y-47.3157
G01 X63.8592 Y-47.3972
G01 X63.8749 Y-47.4153
G01 X63.8823 Y-47.4247
G01 X63.9480 Y-47.5130
G01 X63.9618 Y-47.5326
G01 X63.9746 Y-47.5528
G01 X64.0280 Y-47.6421
G01 X64.0694 Y-47.5547
G01 X64.0801 Y-47.5333
G01 X64.0919 Y-47.5125
G01 X64.1487 Y-47.4181
G01 X64.1620 Y-47.3982
G01 X64.1690 Y-47.3885
G01 X64.2274 Y-47.3097
G01 X64.2421 Y-47.2908
G01 X64.2615 Y-47.2686
G01 X63.7351 Y-47.2686
G00 Z2.0000
G00 X64.2039 Y-48.3611
G01 F60.00
G01 Z-0.0500
G01 F120.00
G01 X64.2200 Y-48.4676
G01 X64.2459 Y-48.5722
G01 X64.2515 Y-48.5905
G01 X64.2845 Y-48.6829
G01 X64.2918 Y-48.7006
G01 X64.3381 Y-48.7978
G01 X64.3958 Y-48.8944
G01 X64.4039 Y-48.9062
G01 X64.4683 Y-48.9926
G01 X64.5470 Y-49.0795
G01 X64.6267 Y-49.1520
G01 X64.6376 Y-49.1612
G01 X64.7241 Y-49.2254
G01 X64.7321 Y-49.2307
G01 X64.7539 Y-49.2438
G01 X64.7539 Y-49.5670
G01 X64.4874 Y-49.5672
G01 X64.4731 Y-49.5685
G01 X64.4590 Y-49.5707
G01 X64.4404 Y-49.5754
G01 X64.4268 Y-49.5801
G01 X64.4136 Y-49.5857
G01 X64.4009 Y-49.5923
G01 X64.3887 Y-49.5999
G01 X64.3808 Y-49.6054
G01 X64.3696 Y-49.6143
G01 X64.3625 Y-49.6208
G01 X64.3525 Y-49.6310
G01 X64.3433 Y-49.6420
G01 X64.3349 Y-49.6537
G01 X64.3273 Y-49.6659
G01 X64.3207 Y-49.6786
G01 X64.3151 Y-49.6918
G01 X64.3104 Y-49.7054
G01 X64.3078 Y-49.7146
G01 X64.3049 Y-49.7287
G01 X64.3029 Y-49.7429
G01 X64.3020 Y-49.7620
G01 X64.3020 Y-54.2620
G01 X64.3022 Y-54.2716
G01 X64.3035 Y-54.2859
G01 X64.3057 Y-54.3000
G01 X64.3078 Y-54.3094
G01 X64.3118 Y-54.3232
G01 X64.3168 Y-54.3366
G01 X64.3228 Y-54.3497
G01 X64.3297 Y-54.3622
G01 X64.3376 Y-54.3743
G01 X64.3493 Y-54.3894
G01 X64.3591 Y-54.3999
G01 X64.3696 Y-54.4097
G01 X64.3808 Y-54.4186
G01 X64.3927 Y-54.4267
G01 X64.4051 Y-54.4340
G01 X64.4224 Y-54.4422
G01 X64.4358 Y-54.4472
G01 X64.4496 Y-54.4512
G01 X64.4637 Y-54.4541
G01 X64.4779 Y-54.4561
G01 X64.4970 Y-54.4570
G01 X65.6970 Y-54.4570
G01 X65.7113 Y-54.4565
G01 X65.7209 Y-54.4555
G01 X65.7303 Y-54.4541
G01 X65.7444 Y-54.4512
G01 X65.7582 Y-54.4472
G01 X65.7716 Y-54.4422
G01 X65.7847 Y-54.4362
G01 X65.8013 Y-54.4267
G01 X65.8132 Y-54.4186
G01 X65.8280 Y-54.4065
G01 X65.8415 Y-54.3930
G01 X65.8507 Y-54.3820
G01 X65.8617 Y-54.3663
G01 X65.8690 Y-54.3539
G01 X65.8753 Y-54.3410
G01 X65.8806 Y-54.3277
G01 X65.8849 Y-54.3140
G01 X65.8883 Y-54.3000
G01 X65.8905 Y-54.2859
G01 X65.8919 Y-54.2668
G01 X65.8918 Y-49.7524
G01 X65.8911 Y-49.7429
G01 X65.8891 Y-49.7287
G01 X65.8862 Y-49.7146
G01 X65.8822 Y-49.7008
G01 X65.8772 Y-49.6874
G01 X65.8733 Y-49.6786
G01 X65.8690 Y-49.6701
G01 X65.8617 Y-49.6577
G01 X65.8564 Y-49.6497
G01 X65.8477 Y-49.6383
G01 X65.8382 Y-49.6275
G01 X65.8280 Y-49.6175
G01 X65.8207 Y-49.6113
G01 X65.8093 Y-49.6026
G01 X65.8013 Y-49.5973
G01 X65.7889 Y-49.5900
G01 X65.7716 Y-49.5818
G01 X65.7536 Y-49.5754
G01 X65.7350 Y-49.5707
G01 X65.7161 Y-49.5679
G01 X65.6970 Y-49.5670
G01 X65.5441 Y-49.5670
G01 X65.5441 Y-49.4188
G01 X65.6251 Y-49.4065
G01 X65.7297 Y-49.3806
G01 X65.7480 Y-49.3750
G01 X65.8404 Y-49.3420
G01 X65.8581 Y-49.3347
G01 X65.9553 Y-49.2884
G01 X66.0519 Y-49.2307
G01 X66.0637 Y-49.2226
G01 X66.1501 Y-49.1582
G01 X66.2370 Y-49.0795
G01 X66.3157 Y-48.9926
G01 X66.3856 Y-48.8984
G01 X66.4459 Y-48.7978
G01 X66.4960 Y-48.6918
G01 X66.5355 Y-48.5814
G01 X66.5619 Y-48.4770
G01 X66.5657 Y-48.4582
G01 X66.5801 Y-48.3611
G01 X66.5819 Y-48.3421
G01 X66.5870 Y-48.2345
G01 X66.5819 Y-48.1269
G01 X66.5801 Y-48.1079
G01 X66.5640 Y-48.0014
G01 X66.5381 Y-47.8968
G01 X66.5325 Y-47.8785
G01 X66.4995 Y-47.7861
G01 X66.4922 Y-47.7684
G01 X66.4459 Y-47.6712
G01 X66.3907 Y-47.5787
G01 X66.3801 Y-47.5628
G01 X66.3157 Y-47.4764
G01 X66.2370 Y-47.3895
G01 X66.1501 Y-47.3108
G01 X66.0637 Y-47.2464
G01 X66.0478 Y-47.2358
G01 X65.9553 Y-47.1806
G01 X65.8493 Y-47.1305
G01 X65.7389 Y-47.0910
G01 X65.6251 Y-47.0625
G01 X65.5091 Y-47.0453
G01 X65.3920 Y-47.0395
G01 X65.2749 Y-47.0453
G01 X65.1589 Y-47.0625
G01 X65.0451 Y-47.0910
G01 X64.9347 Y-47.1305
G01 X64.8287 Y-47.1806
G01 X64.7281 Y-47.2409
G01 X64.6339 Y-47.3108
G01 X64.5470 Y-47.3895
G01 X64.4683 Y-47.4764
G01 X64.4039 Y-47.5628
G01 X64.3933 Y-47.5787
G01 X64.3381 Y-47.6712
G01 X64.2918 Y-47.7684
G01 X64.2845 Y-47.7861
G01 X64.2515 Y-47.8785
G01 X64.2459 Y-47.8968
G01 X64.2200 Y-48.0014
G01 X64.2028 Y-48.1174
G01 X64.1970 Y-48.2345
G01 X64.2021 Y-48.3421
G01 X64.2039 Y-48.3611
G00 Z2.0000
G00 X67.0396 Y-47.5611
G01 F60.00
G01 Z-0.0500
G01 F120.00
G01 X67.0503 Y-47.5890
G01 X67.0833 Y-47.6814
G01 X67.0954 Y-47.7178
G01 X67.1056 Y-47.7547
G01 X67.1294 Y-47.8499
G01 X67.1378 Y-47.8872
G01 X67.1443 Y-47.9250
G01 X67.1587 Y-48.0220
G01 X67.1634 Y-48.0600
G01 X67.1662 Y-48.0982
G01 X67.1711 Y-48.1962
G01 X67.1720 Y-48.2345
G01 X67.1718 Y-48.2536
G01 X67.1662 Y-48.3708
G01 X67.1634 Y-48.4090
G01 X67.1587 Y-48.4470
G01 X67.1443 Y-48.5440
G01 X67.1378 Y-48.5818
G01 X67.1338 Y-48.6005
G01 X67.1056 Y-48.7143
G01 X67.0954 Y-48.7512
G01 X67.0896 Y-48.7695
G01 X67.0436 Y-48.8979
G01 X67.0290 Y-48.9333
G01 X67.0062 Y-48.9820
G01 X68.1970 Y-48.9820
G01 X68.2353 Y-48.9829
G01 X68.2735 Y-48.9858
G01 X68.3114 Y-48.9904
G01 X68.3492 Y-48.9970
G01 X68.3679 Y-49.0010
G01 X68.4050 Y-49.0103
G01 X68.4234 Y-49.0156
G01 X68.4417 Y-49.0214
G01 X68.4777 Y-49.0343
G01 X68.4955 Y-49.0414
G01 X68.5305 Y-49.0569
G01 X68.5647 Y-49.0741
G01 X68.5980 Y-49.0930
G01 X68.6303 Y-49.1135
G01 X68.6461 Y-49.1243
G01 X68.6769 Y-49.1471
G01 X68.7065 Y-49.1714
G01 X68.7208 Y-49.1841
G01 X68.7485 Y-49.2105
G01 X68.7749 Y-49.2382
G01 X68.7999 Y-49.2672
G01 X68.8235 Y-49.2974
G01 X68.8347 Y-49.3129
G01 X68.8560 Y-49.3447
G01 X68.8757 Y-49.3775
G01 X68.8849 Y-49.3943
G01 X68.9021 Y-49.4285
G01 X68.9101 Y-49.4459
G01 X68.9247 Y-49.4813
G01 X68.9376 Y-49.5173
G01 X68.9487 Y-49.5540
G01 X68.9580 Y-49.5911
G01 X68.9655 Y-49.6286
G01 X68.9686 Y-49.6476
G01 X68.9732 Y-49.6855
G01 X68.9761 Y-49.7237
G01 X68.9770 Y-49.7620
G01 X68.9770 Y-50.3151
G01 X69.0209 Y-50.3168
G01 X69.0591 Y-50.3196
G01 X69.0971 Y-50.3243
G01 X69.1354 Y-50.3302
G01 X69.1729 Y-50.3377
G01 X69.2106 Y-50.3469
G01 X69.2475 Y-50.3571
G01 X69.2839 Y-50.3691
G01 X69.3203 Y-50.3824
G01 X69.3557 Y-50.3970
G01 X69.3908 Y-50.4134
G01 X69.4250 Y-50.4306
G01 X69.4583 Y-50.4495
G01 X69.4915 Y-50.4696
G01 X69.5233 Y-50.4909
G01 X69.5546 Y-50.5138
G01 X69.5848 Y-50.5374
G01 X69.5994 Y-50.5497
G01 X69.6283 Y-50.5756
G01 X69.6560 Y-50.6020
G01 X70.5990 Y-51.5449
G01 X72.1920 Y-49.9520
G01 X72.2197 Y-49.9256
G01 X72.2486 Y-49.8997
G01 X72.2632 Y-49.8874
G01 X72.2934 Y-49.8638
G01 X72.3247 Y-49.8409
G01 X72.3405 Y-49.8301
G01 X72.3565 Y-49.8196
G01 X72.3897 Y-49.7995
G01 X72.4062 Y-49.7899
G01 X72.4400 Y-49.7718
G01 X72.4923 Y-49.7470
G01 X72.5277 Y-49.7324
G01 X72.5822 Y-49.7129
G01 X72.6189 Y-49.7018
G01 X72.6564 Y-49.6921
G01 X72.6938 Y-49.6837
G01 X72.7126 Y-49.6802
G01 X72.7509 Y-49.6743
G01 X72.7889 Y-49.6696
G01 X72.8271 Y-49.6668
G01 X72.8659 Y-49.6651
G01 X74.8555 Y-49.6649
G01 X74.8938 Y-49.6658
G01 X74.9325 Y-49.6680
G01 X74.9706 Y-49.6717
G01 X75.0090 Y-49.6772
G01 X75.0467 Y-49.6837
G01 X75.0841 Y-49.6921
G01 X75.1216 Y-49.7018
G01 X75.1400 Y-49.7071
G01 X75.1764 Y-49.7191
G01 X75.2128 Y-49.7324
G01 X75.2482 Y-49.7470
G01 X75.2833 Y-49.7634
G01 X75.3175 Y-49.7806
G01 X75.3508 Y-49.7995
G01 X75.3840 Y-49.8196
G01 X75.4158 Y-49.8409
G01 X75.4330 Y-49.8534
G01 X75.5397 Y-49.8534
G01 X75.5693 Y-49.8204
G01 X75.5957 Y-49.7927
G01 X75.6234 Y-49.7663
G01 X75.6559 Y-49.7371
G01 X75.6855 Y-49.7128
G01 X75.7205 Y-49.6866
G01 X75.7518 Y-49.6646
G01 X75.7841 Y-49.6441
G01 X75.8217 Y-49.6219
G01 X75.8555 Y-49.6038
G01 X75.8948 Y-49.5849
G01 X75.9298 Y-49.5694
G01 X75.9656 Y-49.5556
G01 X76.0068 Y-49.5411
G01 X76.0250 Y-49.5354
G01 X76.0619 Y-49.5251
G01 X76.1043 Y-49.5148
G01 X76.1419 Y-49.5073
G01 X76.2040 Y-49.4981
G01 X76.2421 Y-49.4943
G01 X76.3049 Y-49.4912
G01 X77.0759 Y-49.4910
G01 X75.1460 Y-47.5611
G01 X67.0396 Y-47.5611
G00 Z2.0000
G00 X69.5293 Y-45.6081
G01 F60.00
G01 Z-0.0500
G01 F120.00
G01 X69.5346 Y-45.6418
G01 X69.5452 Y-45.6842
G01 X69.5599 Y-45.7253
G01 X69.5742 Y-45.7562
G01 X69.5833 Y-45.7731
G01 X69.5984 Y-45.7982
G01 X69.6037 Y-45.8062
G01 X69.6270 Y-45.8373
G01 X69.6497 Y-45.8627
G01 X69.6633 Y-45.8763
G01 X69.6850 Y-45.8959
G01 X69.6924 Y-45.9020
G01 X69.7238 Y-45.9250
G01 X69.7570 Y-45.9451
G01 X69.7655 Y-45.9497
G01 X69.7920 Y-45.9622
G01 X69.8096 Y-45.9696
G01 X69.8418 Y-45.9808
G01 X69.8795 Y-45.9905
G01 X69.8936 Y-45.9931
G01 X69.9274 Y-45.9979
G01 X69.9710 Y-46.0000
G01 X70.5960 Y-46.0000
G01 X70.6396 Y-45.9979
G01 X70.6781 Y-45.9923
G01 X70.6922 Y-45.9894
G01 X70.7252 Y-45.9808
G01 X70.7663 Y-45.9661
G01 X70.8015 Y-45.9497
G01 X70.8141 Y-45.9427
G01 X70.8432 Y-45.9250
G01 X70.8746 Y-45.9020
G01 X70.8856 Y-45.8927
G01 X70.9107 Y-45.8697
G01 X70.9400 Y-45.8373
G01 X70.9660 Y-45.8022
G01 X70.9861 Y-45.7690
G01 X70.9928 Y-45.7562
G01 X71.0071 Y-45.7253
G01 X71.0204 Y-45.6887
G01 X71.0244 Y-45.6750
G01 X71.0315 Y-45.6465
G01 X71.0333 Y-45.6371
G01 X71.0377 Y-45.6081
G01 X71.0393 Y-45.5938
G01 X71.0410 Y-45.5550
G01 X71.0410 Y-44.7313
G01 X72.2193 Y-43.5530
G01 X74.0060 Y-45.3397
G01 X74.0314 Y-45.3624
G01 X74.0625 Y-45.3855
G01 X74.0958 Y-45.4054
G01 X74.1221 Y-45.4181
G01 X74.1397 Y-45.4255
G01 X74.1627 Y-45.4336
G01 X74.1765 Y-45.4376
G01 X74.2002 Y-45.4435
G01 X74.2096 Y-45.4454
G01 X74.2338 Y-45.4490
G01 X74.2480 Y-45.4506
G01 X74.2820 Y-45.4521
G01 X99.3010 Y-45.4521
G01 X99.3397 Y-45.4502
G01 X99.3781 Y-45.4445
G01 X99.4157 Y-45.4351
G01 X99.4522 Y-45.4220
G01 X99.4872 Y-45.4054
G01 X99.5205 Y-45.3855
G01 X99.5516 Y-45.3624
G01 X99.5804 Y-45.3364
G01 X103.6557 Y-41.2611
G01 X106.0370 Y-41.2611
G01 X106.0757 Y-41.2592
G01 X106.1094 Y-41.2544
G01 X106.1188 Y-41.2525
G01 X106.1425 Y-41.2466
G01 X106.1608 Y-41.2411
G01 X106.1838 Y-41.2328
G01 X106.1969 Y-41.2271
G01 X106.2232 Y-41.2144
G01 X106.2484 Y-41.1996
G01 X106.2605 Y-41.1918
G01 X106.2839 Y-41.1744
G01 X106.2949 Y-41.1652
G01 X106.3130 Y-41.1487
G01 X107.9938 Y-39.4680
G01 X108.0076 Y-39.4736
G01 X108.0398 Y-39.4848
G01 X108.0775 Y-39.4945
G01 X108.0916 Y-39.4971
G01 X108.1206 Y-39.5013
G01 X108.1302 Y-39.5023
G01 X108.1594 Y-39.5038
G01 X108.8190 Y-39.5040
G01 X108.8578 Y-39.5023
G01 X108.8721 Y-39.5007
G01 X108.9011 Y-39.4963
G01 X108.9152 Y-39.4934
G01 X108.9482 Y-39.4848
G01 X108.9804 Y-39.4736
G01 X108.9937 Y-39.4682
G01 X109.0245 Y-39.4537
G01 X109.0371 Y-39.4467
G01 X109.0622 Y-39.4316
G01 X109.0741 Y-39.4235
G01 X109.1013 Y-39.4030
G01 X109.1337 Y-39.3737
G01 X109.1630 Y-39.3413
G01 X109.1835 Y-39.3141
G01 X109.1916 Y-39.3022
G01 X109.2115 Y-39.2688
G01 X109.2262 Y-39.2380
G01 X109.2319 Y-39.2249
G01 X109.2448 Y-39.1882
G01 X109.2545 Y-39.1505
G01 X109.2571 Y-39.1364
G01 X109.2619 Y-39.1026
G01 X109.2638 Y-39.0686
G01 X109.2640 Y-37.7590
G01 X109.2623 Y-37.7202
G01 X109.2607 Y-37.7059
G01 X109.2554 Y-37.6722
G01 X109.2474 Y-37.6390
G01 X109.2434 Y-37.6253
G01 X109.2301 Y-37.5887
G01 X109.2115 Y-37.5492
G01 X109.1941 Y-37.5199
G01 X109.1863 Y-37.5078
G01 X109.1630 Y-37.4767
G01 X109.1337 Y-37.4443
G01 X109.1013 Y-37.4150
G01 X109.0662 Y-37.3890
G01 X109.0330 Y-37.3689
G01 X109.0202 Y-37.3622
G01 X108.9893 Y-37.3479
G01 X108.9527 Y-37.3346
G01 X108.9390 Y-37.3306
G01 X108.9105 Y-37.3235
G01 X108.8891 Y-37.3198
G01 X108.8891 Y-37.2537
G01 X109.0307 Y-37.1120
G01 X109.0534 Y-37.0866
G01 X109.0738 Y-37.0595
G01 X109.0816 Y-37.0474
G01 X109.0964 Y-37.0222
G01 X109.1130 Y-36.9872
G01 X109.1261 Y-36.9507
G01 X109.1334 Y-36.9224
G01 X109.1364 Y-36.9084
G01 X109.1412 Y-36.8747
G01 X109.1431 Y-36.8360
G01 X109.1431 Y-34.8857
G01 X109.1600 Y-34.8771
G01 X109.1892 Y-34.8596
G01 X109.2011 Y-34.8515
G01 X109.2246 Y-34.8340
G01 X109.2320 Y-34.8279
G01 X109.2607 Y-34.8017
G01 X109.2837 Y-34.7766
G01 X109.2930 Y-34.7656
G01 X109.3160 Y-34.7342
G01 X109.3361 Y-34.7010
G01 X109.3428 Y-34.6882
G01 X109.3571 Y-34.6573
G01 X109.3688 Y-34.6253
G01 X109.3732 Y-34.6116
G01 X109.3824 Y-34.5738
G01 X109.3883 Y-34.5354
G01 X109.3896 Y-34.5211
G01 X109.3910 Y-34.4870
G01 X109.3910 Y-33.1870
G01 X109.3893 Y-33.1482
G01 X109.3877 Y-33.1339
G01 X109.3824 Y-33.1002
G01 X109.3744 Y-33.0670
G01 X109.3704 Y-33.0533
G01 X109.3589 Y-33.0211
G01 X109.3532 Y-33.0080
G01 X109.3385 Y-32.9772
G01 X109.3211 Y-32.9479
G01 X109.3133 Y-32.9358
G01 X109.2930 Y-32.9084
G01 X109.2837 Y-32.8974
G01 X109.2607 Y-32.8723
G01 X109.2320 Y-32.8461
G01 X109.2246 Y-32.8400
G01 X109.2011 Y-32.8225
G01 X109.1892 Y-32.8144
G01 X109.1600 Y-32.7969
G01 X109.1431 Y-32.7883
G01 X109.1431 Y-31.4317
G01 X109.1600 Y-31.4231
G01 X109.1892 Y-31.4056
G01 X109.2011 Y-31.3975
G01 X109.2246 Y-31.3800
G01 X109.2320 Y-31.3739
G01 X109.2607 Y-31.3477
G01 X109.2837 Y-31.3226
G01 X109.2930 Y-31.3116
G01 X109.3160 Y-31.2802
G01 X109.3361 Y-31.2470
G01 X109.3428 Y-31.2342
G01 X109.3571 Y-31.2033
G01 X109.3688 Y-31.1713
G01 X109.3732 Y-31.1576
G01 X109.3824 Y-31.1198
G01 X109.3877 Y-31.0861
G01 X109.3893 Y-31.0718
G01 X109.3910 Y-31.0330
G01 X109.3909 Y-29.7782
G01 X109.3889 Y-29.7394
G01 X109.3824 Y-29.6962
G01 X109.3718 Y-29.6538
G01 X109.3571 Y-29.6127
G01 X109.3385 Y-29.5732
G01 X109.3186 Y-29.5398
G01 X109.3105 Y-29.5279
G01 X109.2900 Y-29.5007
G01 X109.2673 Y-29.4753
G01 X109.2572 Y-29.4650
G01 X109.2283 Y-29.4390
G01 X109.1972 Y-29.4157
G01 X109.1851 Y-29.4079
G01 X109.1558 Y-29.3905
G01 X109.1250 Y-29.3758
G01 X109.1119 Y-29.3701
G01 X109.0752 Y-29.3572
G01 X109.0375 Y-29.3475
G01 X109.0234 Y-29.3449
G01 X108.9896 Y-29.3401
G01 X108.9460 Y-29.3380
G01 X108.3210 Y-29.3380
G01 X108.2822 Y-29.3397
G01 X108.2679 Y-29.3413
G01 X108.2342 Y-29.3466
G01 X108.1964 Y-29.3558
G01 X108.1827 Y-29.3602
G01 X108.1507 Y-29.3719
G01 X108.1155 Y-29.3883
G01 X108.1029 Y-29.3953
G01 X108.0778 Y-29.4104
G01 X108.0698 Y-29.4157
G01 X108.0387 Y-29.4390
G01 X108.0063 Y-29.4683
G01 X107.9770 Y-29.5007
G01 X107.9510 Y-29.5358
G01 X107.9285 Y-29.5732
G01 X107.9099 Y-29.6127
G01 X107.8952 Y-29.6538
G01 X107.8855 Y-29.6915
G01 X107.8829 Y-29.7056
G01 X107.8781 Y-29.7394
G01 X107.8760 Y-29.7830
G01 X107.8760 Y-30.6067
G01 X107.7918 Y-30.6909
G01 X105.7749 Y-30.6909
G01 X105.7614 Y-30.6630
G01 X105.7453 Y-30.6357
G01 X105.7375 Y-30.6237
G01 X105.7216 Y-30.6021
G01 X105.7126 Y-30.5909
G01 X105.6913 Y-30.5674
G01 X105.6811 Y-30.5574
G01 X105.6574 Y-30.5363
G01 X105.6322 Y-30.5173
G01 X105.6203 Y-30.5092
G01 X105.5932 Y-30.4929
G01 X105.5804 Y-30.4863
G01 X105.5517 Y-30.4730
G01 X105.5220 Y-30.4621
G01 X105.5083 Y-30.4578
G01 X105.4776 Y-30.4501
G01 X105.4635 Y-30.4474
G01 X105.4322 Y-30.4430
G01 X105.3910 Y-30.4410
G01 X104.6362 Y-30.4411
G01 X104.5998 Y-30.4430
G01 X104.5591 Y-30.4491
G01 X104.5191 Y-30.4591
G01 X104.4892 Y-30.4695
G01 X104.4715 Y-30.4768
G01 X104.4473 Y-30.4884
G01 X104.4388 Y-30.4929
G01 X104.4077 Y-30.5118
G01 X104.3746 Y-30.5363
G01 X104.3440 Y-30.5640
G01 X104.3163 Y-30.5946
G01 X104.2918 Y-30.6277
G01 X104.2753 Y-30.6547
G01 X104.2684 Y-30.6673
G01 X104.2568 Y-30.6915
G01 X104.2495 Y-30.7092
G01 X104.2405 Y-30.7345
G01 X104.2378 Y-30.7437
G01 X104.2312 Y-30.7697
G01 X104.2282 Y-30.7838
G01 X104.2230 Y-30.8198
G01 X104.2211 Y-30.8562
G01 X104.2211 Y-31.3158
G01 X104.2230 Y-31.3522
G01 X104.2282 Y-31.3882
G01 X104.2301 Y-31.3976
G01 X104.2365 Y-31.4237
G01 X104.2421 Y-31.4420
G01 X104.2530 Y-31.4717
G01 X104.2663 Y-31.5004
G01 X104.2729 Y-31.5132
G01 X104.2918 Y-31.5443
G01 X104.3133 Y-31.5737
G01 X104.3226 Y-31.5847
G01 X104.3440 Y-31.6080
G01 X104.3709 Y-31.6326
G01 X104.3821 Y-31.6416
G01 X104.4077 Y-31.6602
G01 X104.4388 Y-31.6791
G01 X104.4516 Y-31.6857
G01 X104.4803 Y-31.6990
G01 X104.5145 Y-31.7115
G01 X104.5283 Y-31.7155
G01 X104.5544 Y-31.7219
G01 X104.5638 Y-31.7238
G01 X104.5998 Y-31.7290
G01 X104.6410 Y-31.7310
G01 X105.3910 Y-31.7310
G01 X105.4322 Y-31.7290
G01 X105.4729 Y-31.7229
G01 X105.5037 Y-31.7155
G01 X105.5175 Y-31.7115
G01 X105.5473 Y-31.7008
G01 X105.5605 Y-31.6952
G01 X105.5890 Y-31.6814
G01 X105.6163 Y-31.6653
G01 X105.6283 Y-31.6575
G01 X105.6574 Y-31.6357
G01 X105.6811 Y-31.6146
G01 X105.6913 Y-31.6046
G01 X105.7126 Y-31.5811
G01 X105.7216 Y-31.5699
G01 X105.7375 Y-31.5483
