(Exported by FreeCAD)
(Post Processor: linuxcnc_post)
(Output Time:2024-08-14 15:09:13.563205)
(begin preamble)
G17 G54 G40 G49 G80 G90
G21
(begin operation: Fixture)
(machine units: mm/min)
G54 
(finish operation: Fixture)
(begin operation: TC: 2.3mm_endmill)
(machine units: mm/min)
(TC: 2.3mm_endmill) 
M5
M6 T11 
G43 H11 
M3 S10000 
(finish operation: TC: 2.3mm_endmill)
(begin operation: Helix)
(machine units: mm/min)
(Helix) 
(helix cut operation) 
G0 Z5.000 
G0 Z5.000 
G0 X18.119 Y-9.635 Z5.000 
G0 X18.119 Y-9.635 Z0.000 
G0 X18.569 Y-9.635 
G1 Z0.000 F160.000 
G2 X17.669 Y-9.635 Z-0.750 I-0.450 J0.000 F200.000 
G2 X18.569 Y-9.635 Z-1.500 I0.450 J0.000 F200.000 
G2 X17.669 Y-9.635 Z-2.250 I-0.450 J0.000 F200.000 
G2 X18.569 Y-9.635 Z-3.000 I0.450 J0.000 F200.000 
G2 X17.669 Y-9.635 Z-3.000 I-0.450 J0.000 F200.000 
G2 X18.569 Y-9.635 Z-3.000 I0.450 J0.000 F200.000 
G0 X18.119 Y-9.635 Z-3.000 
G0 Z0.000 
G0 Z5.000 
G0 X18.118 Y-90.383 Z5.000 
G0 X18.118 Y-90.383 Z0.000 
G0 X18.568 Y-90.383 
G1 Z0.000 F160.000 
G2 X17.668 Y-90.383 Z-0.750 I-0.450 J0.000 F200.000 
G2 X18.568 Y-90.383 Z-1.500 I0.450 J0.000 F200.000 
G2 X17.668 Y-90.383 Z-2.250 I-0.450 J0.000 F200.000 
G2 X18.568 Y-90.383 Z-3.000 I0.450 J0.000 F200.000 
G2 X17.668 Y-90.383 Z-3.000 I-0.450 J0.000 F200.000 
G2 X18.568 Y-90.383 Z-3.000 I0.450 J0.000 F200.000 
G0 X18.118 Y-90.383 Z-3.000 
G0 Z0.000 
G0 Z5.000 
G0 X110.899 Y-90.378 Z5.000 
G0 X110.899 Y-90.378 Z0.000 
G0 X111.349 Y-90.378 
G1 Z0.000 F160.000 
G2 X110.449 Y-90.378 Z-0.750 I-0.450 J0.000 F200.000 
G2 X111.349 Y-90.378 Z-1.500 I0.450 J0.000 F200.000 
G2 X110.449 Y-90.378 Z-2.250 I-0.450 J0.000 F200.000 
G2 X111.349 Y-90.378 Z-3.000 I0.450 J0.000 F200.000 
G2 X110.449 Y-90.378 Z-3.000 I-0.450 J0.000 F200.000 
G2 X111.349 Y-90.378 Z-3.000 I0.450 J0.000 F200.000 
G0 X110.899 Y-90.378 Z-3.000 
G0 Z0.000 
G0 Z5.000 
G0 X110.910 Y-9.585 Z5.000 
G0 X110.910 Y-9.585 Z0.000 
G0 X111.360 Y-9.585 
G1 Z0.000 F160.000 
G2 X110.460 Y-9.585 Z-0.750 I-0.450 J0.000 F200.000 
G2 X111.360 Y-9.585 Z-1.500 I0.450 J0.000 F200.000 
G2 X110.460 Y-9.585 Z-2.250 I-0.450 J0.000 F200.000 
G2 X111.360 Y-9.585 Z-3.000 I0.450 J0.000 F200.000 
G2 X110.460 Y-9.585 Z-3.000 I-0.450 J0.000 F200.000 
G2 X111.360 Y-9.585 Z-3.000 I0.450 J0.000 F200.000 
G0 X110.910 Y-9.585 Z-3.000 
G0 Z0.000 
G0 Z5.000 
(finish operation: Helix)
(begin operation: Profile)
(machine units: mm/min)
(Profile) 
(Compensated Tool Path. Diameter: 2.3) 
G0 Z5.000 
G0 X127.224 Y-1.775 
G0 Z3.000 
G1 X127.224 Y-1.775 Z-2.300 F160.000 
G2 X128.144 Y-3.887 Z-2.300 I-2.231 J-2.228 F200.000 
G1 X128.150 Y-96.000 Z-2.300 F200.000 
G2 X125.113 Y-99.144 Z-2.300 I-3.153 J0.006 F200.000 
G1 X4.000 Y-99.150 Z-2.300 F200.000 
G2 X0.856 Y-96.113 Z-2.300 I0.006 J3.153 F200.000 
G1 X0.850 Y-4.000 Z-2.300 F200.000 
G2 X3.887 Y-0.856 Z-2.300 I3.153 J-0.006 F200.000 
G1 X125.000 Y-0.850 Z-2.300 F200.000 
G2 X127.224 Y-1.775 Z-2.300 I-0.006 J-3.153 F200.000 
G1 X127.224 Y-1.775 Z-3.000 F160.000 
G2 X128.144 Y-3.887 Z-3.000 I-2.231 J-2.228 F200.000 
G1 X128.150 Y-96.000 Z-3.000 F200.000 
G2 X125.113 Y-99.144 Z-3.000 I-3.153 J0.006 F200.000 
G1 X4.000 Y-99.150 Z-3.000 F200.000 
G2 X0.856 Y-96.113 Z-3.000 I0.006 J3.153 F200.000 
G1 X0.850 Y-4.000 Z-3.000 F200.000 
G2 X3.887 Y-0.856 Z-3.000 I3.153 J-0.006 F200.000 
G1 X125.000 Y-0.850 Z-3.000 F200.000 
G2 X127.224 Y-1.775 Z-3.000 I-0.006 J-3.153 F200.000 
G0 Z5.000 
G0 Z5.000 
(finish operation: Profile)
(begin postamble)
M05
G17 G54 G90 G80 G40
M2
