(Exported by FreeCAD)
(Post Processor: linuxcnc_post)
(Output Time:2024-08-14 13:05:00.718006)
(begin preamble)
G17 G54 G40 G49 G80 G90
G21
(begin operation: Fixture)
(machine units: mm/min)
G54 
(finish operation: Fixture)
(begin operation: TC: EndMill01)
(machine units: mm/min)
(TC: EndMill01) 
M5
M6 T10 
G43 H10 
M3 S10000 
(finish operation: TC: EndMill01)
(begin operation: Display Pocket)
(machine units: mm/min)
(Display Pocket) 
G0 Z5.000 
G0 X98.737 Y-18.133 
G0 Z3.000 
G1 X98.737 Y-18.133 Z-2.300 F120.000 
G1 X98.574 Y-17.970 Z-2.300 F200.000 
G1 X44.427 Y-17.970 Z-2.300 F200.000 
G1 X44.100 Y-18.296 Z-2.300 F200.000 
G1 X44.100 Y-46.004 Z-2.300 F200.000 
G1 X44.427 Y-46.330 Z-2.300 F200.000 
G1 X98.574 Y-46.330 Z-2.300 F200.000 
G1 X98.900 Y-46.004 Z-2.300 F200.000 
G1 X98.900 Y-18.296 Z-2.300 F200.000 
G1 X98.737 Y-18.133 Z-2.300 F200.000 
G0 Z5.000 
G0 X97.750 Y-19.120 Z5.000 
G0 X97.750 Y-19.120 Z3.000 
G1 X97.750 Y-19.120 Z-2.300 F120.000 
G1 X45.250 Y-19.120 Z-2.300 F200.000 
G1 X45.250 Y-45.180 Z-2.300 F200.000 
G1 X97.750 Y-45.180 Z-2.300 F200.000 
G1 X97.750 Y-19.120 Z-2.300 F200.000 
G0 Z5.000 
G0 X96.600 Y-20.270 Z5.000 
G0 X96.600 Y-20.270 Z3.000 
G1 X96.600 Y-20.270 Z-2.300 F120.000 
G1 X46.400 Y-20.270 Z-2.300 F200.000 
G1 X46.400 Y-44.030 Z-2.300 F200.000 
G1 X96.600 Y-44.030 Z-2.300 F200.000 
G1 X96.600 Y-20.270 Z-2.300 F200.000 
G0 Z5.000 
G0 X95.450 Y-21.420 Z5.000 
G0 X95.450 Y-21.420 Z3.000 
G1 X95.450 Y-21.420 Z-2.300 F120.000 
G1 X47.550 Y-21.420 Z-2.300 F200.000 
G1 X47.550 Y-42.880 Z-2.300 F200.000 
G1 X95.450 Y-42.880 Z-2.300 F200.000 
G1 X95.450 Y-21.420 Z-2.300 F200.000 
G0 Z5.000 
G0 X94.300 Y-22.570 Z5.000 
G0 X94.300 Y-22.570 Z3.000 
G1 X94.300 Y-22.570 Z-2.300 F120.000 
G1 X48.700 Y-22.570 Z-2.300 F200.000 
G1 X48.700 Y-41.730 Z-2.300 F200.000 
G1 X94.300 Y-41.730 Z-2.300 F200.000 
G1 X94.300 Y-22.570 Z-2.300 F200.000 
G0 Z5.000 
G0 X93.150 Y-23.720 Z5.000 
G0 X93.150 Y-23.720 Z3.000 
G1 X93.150 Y-23.720 Z-2.300 F120.000 
G1 X49.850 Y-23.720 Z-2.300 F200.000 
G1 X49.850 Y-40.580 Z-2.300 F200.000 
G1 X93.150 Y-40.580 Z-2.300 F200.000 
G1 X93.150 Y-23.720 Z-2.300 F200.000 
G0 Z5.000 
G0 X92.000 Y-24.870 Z5.000 
G0 X92.000 Y-24.870 Z3.000 
G1 X92.000 Y-24.870 Z-2.300 F120.000 
G1 X51.000 Y-24.870 Z-2.300 F200.000 
G1 X51.000 Y-39.430 Z-2.300 F200.000 
G1 X92.000 Y-39.430 Z-2.300 F200.000 
G1 X92.000 Y-24.870 Z-2.300 F200.000 
G0 Z5.000 
G0 X90.850 Y-26.020 Z5.000 
G0 X90.850 Y-26.020 Z3.000 
G1 X90.850 Y-26.020 Z-2.300 F120.000 
G1 X52.150 Y-26.020 Z-2.300 F200.000 
G1 X52.150 Y-38.280 Z-2.300 F200.000 
G1 X90.850 Y-38.280 Z-2.300 F200.000 
G1 X90.850 Y-26.020 Z-2.300 F200.000 
G0 Z5.000 
G0 X89.700 Y-27.170 Z5.000 
G0 X89.700 Y-27.170 Z3.000 
G1 X89.700 Y-27.170 Z-2.300 F120.000 
G1 X53.300 Y-27.170 Z-2.300 F200.000 
G1 X53.300 Y-37.130 Z-2.300 F200.000 
G1 X89.700 Y-37.130 Z-2.300 F200.000 
G1 X89.700 Y-27.170 Z-2.300 F200.000 
G0 Z5.000 
G0 X88.550 Y-28.320 Z5.000 
G0 X88.550 Y-28.320 Z3.000 
G1 X88.550 Y-28.320 Z-2.300 F120.000 
G1 X54.450 Y-28.320 Z-2.300 F200.000 
G1 X54.450 Y-35.980 Z-2.300 F200.000 
G1 X88.550 Y-35.980 Z-2.300 F200.000 
G1 X88.550 Y-28.320 Z-2.300 F200.000 
G0 Z5.000 
G0 X87.400 Y-29.470 Z5.000 
G0 X87.400 Y-29.470 Z3.000 
G1 X87.400 Y-29.470 Z-2.300 F120.000 
G1 X55.600 Y-29.470 Z-2.300 F200.000 
G1 X55.600 Y-34.830 Z-2.300 F200.000 
G1 X87.400 Y-34.830 Z-2.300 F200.000 
G1 X87.400 Y-29.470 Z-2.300 F200.000 
G0 Z5.000 
G0 X86.250 Y-30.620 Z5.000 
G0 X86.250 Y-30.620 Z3.000 
G1 X86.250 Y-30.620 Z-2.300 F120.000 
G1 X56.750 Y-30.620 Z-2.300 F200.000 
G1 X56.750 Y-33.680 Z-2.300 F200.000 
G1 X86.250 Y-33.680 Z-2.300 F200.000 
G1 X86.250 Y-30.620 Z-2.300 F200.000 
G0 Z5.000 
G0 X85.100 Y-31.770 Z5.000 
G0 X85.100 Y-31.770 Z3.000 
G1 X85.100 Y-31.770 Z-2.300 F120.000 
G1 X57.900 Y-31.770 Z-2.300 F200.000 
G1 X57.900 Y-32.530 Z-2.300 F200.000 
G1 X85.100 Y-32.530 Z-2.300 F200.000 
G1 X85.100 Y-31.770 Z-2.300 F200.000 
G1 X85.100 Y-31.770 Z-3.000 F120.000 
G1 X57.900 Y-31.770 Z-3.000 F200.000 
G1 X57.900 Y-32.530 Z-3.000 F200.000 
G1 X85.100 Y-32.530 Z-3.000 F200.000 
G1 X85.100 Y-31.770 Z-3.000 F200.000 
G0 Z5.000 
G0 Y-30.620 Z5.000 
G0 Y-30.620 Z3.000 
G1 X85.100 Y-30.620 Z-3.000 F120.000 
G1 X56.750 Y-30.620 Z-3.000 F200.000 
G1 X56.750 Y-33.680 Z-3.000 F200.000 
G1 X86.250 Y-33.680 Z-3.000 F200.000 
G1 X86.250 Y-30.620 Z-3.000 F200.000 
G1 X85.100 Y-30.620 Z-3.000 F200.000 
G0 Z5.000 
G0 Y-29.470 Z5.000 
G0 Y-29.470 Z3.000 
G1 X85.100 Y-29.470 Z-3.000 F120.000 
G1 X55.600 Y-29.470 Z-3.000 F200.000 
G1 X55.600 Y-34.830 Z-3.000 F200.000 
G1 X87.400 Y-34.830 Z-3.000 F200.000 
G1 X87.400 Y-29.470 Z-3.000 F200.000 
G1 X85.100 Y-29.470 Z-3.000 F200.000 
G0 Z5.000 
G0 Y-28.320 Z5.000 
G0 Y-28.320 Z3.000 
G1 X85.100 Y-28.320 Z-3.000 F120.000 
G1 X54.450 Y-28.320 Z-3.000 F200.000 
G1 X54.450 Y-35.980 Z-3.000 F200.000 
G1 X88.550 Y-35.980 Z-3.000 F200.000 
G1 X88.550 Y-28.320 Z-3.000 F200.000 
G1 X85.100 Y-28.320 Z-3.000 F200.000 
G0 Z5.000 
G0 Y-27.170 Z5.000 
G0 Y-27.170 Z3.000 
G1 X85.100 Y-27.170 Z-3.000 F120.000 
G1 X53.300 Y-27.170 Z-3.000 F200.000 
G1 X53.300 Y-37.130 Z-3.000 F200.000 
G1 X89.700 Y-37.130 Z-3.000 F200.000 
G1 X89.700 Y-27.170 Z-3.000 F200.000 
G1 X85.100 Y-27.170 Z-3.000 F200.000 
G0 Z5.000 
G0 Y-26.020 Z5.000 
G0 Y-26.020 Z3.000 
G1 X85.100 Y-26.020 Z-3.000 F120.000 
G1 X52.150 Y-26.020 Z-3.000 F200.000 
G1 X52.150 Y-38.280 Z-3.000 F200.000 
G1 X90.850 Y-38.280 Z-3.000 F200.000 
G1 X90.850 Y-26.020 Z-3.000 F200.000 
G1 X85.100 Y-26.020 Z-3.000 F200.000 
G0 Z5.000 
G0 Y-24.870 Z5.000 
G0 Y-24.870 Z3.000 
G1 X85.100 Y-24.870 Z-3.000 F120.000 
G1 X51.000 Y-24.870 Z-3.000 F200.000 
G1 X51.000 Y-39.430 Z-3.000 F200.000 
G1 X92.000 Y-39.430 Z-3.000 F200.000 
G1 X92.000 Y-24.870 Z-3.000 F200.000 
G1 X85.100 Y-24.870 Z-3.000 F200.000 
G0 Z5.000 
G0 Y-23.720 Z5.000 
G0 Y-23.720 Z3.000 
G1 X85.100 Y-23.720 Z-3.000 F120.000 
G1 X49.850 Y-23.720 Z-3.000 F200.000 
G1 X49.850 Y-40.580 Z-3.000 F200.000 
G1 X93.150 Y-40.580 Z-3.000 F200.000 
G1 X93.150 Y-23.720 Z-3.000 F200.000 
G1 X85.100 Y-23.720 Z-3.000 F200.000 
G0 Z5.000 
G0 Y-22.570 Z5.000 
G0 Y-22.570 Z3.000 
G1 X85.100 Y-22.570 Z-3.000 F120.000 
G1 X48.700 Y-22.570 Z-3.000 F200.000 
G1 X48.700 Y-41.730 Z-3.000 F200.000 
G1 X94.300 Y-41.730 Z-3.000 F200.000 
G1 X94.300 Y-22.570 Z-3.000 F200.000 
G1 X85.100 Y-22.570 Z-3.000 F200.000 
G0 Z5.000 
G0 Y-21.420 Z5.000 
G0 Y-21.420 Z3.000 
G1 X85.100 Y-21.420 Z-3.000 F120.000 
G1 X47.550 Y-21.420 Z-3.000 F200.000 
G1 X47.550 Y-42.880 Z-3.000 F200.000 
G1 X95.450 Y-42.880 Z-3.000 F200.000 
G1 X95.450 Y-21.420 Z-3.000 F200.000 
G1 X85.100 Y-21.420 Z-3.000 F200.000 
G0 Z5.000 
G0 Y-20.270 Z5.000 
G0 Y-20.270 Z3.000 
G1 X85.100 Y-20.270 Z-3.000 F120.000 
G1 X46.400 Y-20.270 Z-3.000 F200.000 
G1 X46.400 Y-44.030 Z-3.000 F200.000 
G1 X96.600 Y-44.030 Z-3.000 F200.000 
G1 X96.600 Y-20.270 Z-3.000 F200.000 
G1 X85.100 Y-20.270 Z-3.000 F200.000 
G0 Z5.000 
G0 Y-19.120 Z5.000 
G0 Y-19.120 Z3.000 
G1 X85.100 Y-19.120 Z-3.000 F120.000 
G1 X45.250 Y-19.120 Z-3.000 F200.000 
G1 X45.250 Y-45.180 Z-3.000 F200.000 
G1 X97.750 Y-45.180 Z-3.000 F200.000 
G1 X97.750 Y-19.120 Z-3.000 F200.000 
G1 X85.100 Y-19.120 Z-3.000 F200.000 
G0 Z5.000 
G0 Y-17.970 Z5.000 
G0 Y-17.970 Z3.000 
G1 X85.100 Y-17.970 Z-3.000 F120.000 
G1 X44.427 Y-17.970 Z-3.000 F200.000 
G1 X44.100 Y-18.296 Z-3.000 F200.000 
G1 X44.100 Y-46.004 Z-3.000 F200.000 
G1 X44.427 Y-46.330 Z-3.000 F200.000 
G1 X98.574 Y-46.330 Z-3.000 F200.000 
G1 X98.900 Y-46.004 Z-3.000 F200.000 
G1 X98.900 Y-18.296 Z-3.000 F200.000 
G1 X98.574 Y-17.970 Z-3.000 F200.000 
G1 X85.100 Y-17.970 Z-3.000 F200.000 
G0 Z5.000 
G0 Z5.000 
(finish operation: Display Pocket)
(begin operation: Helix)
(machine units: mm/min)
(Helix) 
(helix cut operation) 
G0 Z5.000 
G0 Z5.000 
G0 X9.219 Y-9.229 Z5.000 
G0 X9.219 Y-9.229 Z0.000 
G0 X9.669 Y-9.229 
G1 Z0.000 F120.000 
G2 X8.769 Y-9.229 Z-0.750 I-0.450 J0.000 F200.000 
G2 X9.669 Y-9.229 Z-1.500 I0.450 J0.000 F200.000 
G2 X8.769 Y-9.229 Z-2.250 I-0.450 J0.000 F200.000 
G2 X9.669 Y-9.229 Z-3.000 I0.450 J0.000 F200.000 
G2 X8.769 Y-9.229 Z-3.000 I-0.450 J0.000 F200.000 
G2 X9.669 Y-9.229 Z-3.000 I0.450 J0.000 F200.000 
G0 X9.219 Y-9.229 Z-3.000 
G0 Z0.000 
G0 Z5.000 
G0 X24.150 Y-33.930 Z5.000 
G0 X24.150 Y-33.930 Z0.000 
G0 X26.250 Y-33.930 
G1 Z0.000 F120.000 
G2 X22.050 Y-33.930 Z-0.750 I-2.100 J0.000 F200.000 
G2 X26.250 Y-33.930 Z-1.500 I2.100 J0.000 F200.000 
G2 X22.050 Y-33.930 Z-2.250 I-2.100 J0.000 F200.000 
G2 X26.250 Y-33.930 Z-3.000 I2.100 J0.000 F200.000 
G2 X22.050 Y-33.930 Z-3.000 I-2.100 J0.000 F200.000 
G2 X26.250 Y-33.930 Z-3.000 I2.100 J0.000 F200.000 
G0 Z0.000 
G0 X25.300 Y-33.930 
G1 Z0.000 F120.000 
G2 X23.000 Y-33.930 Z-0.750 I-1.150 J0.000 F200.000 
G2 X25.300 Y-33.930 Z-1.500 I1.150 J0.000 F200.000 
G2 X23.000 Y-33.930 Z-2.250 I-1.150 J0.000 F200.000 
G2 X25.300 Y-33.930 Z-3.000 I1.150 J0.000 F200.000 
G2 X23.000 Y-33.930 Z-3.000 I-1.150 J0.000 F200.000 
G2 X25.300 Y-33.930 Z-3.000 I1.150 J0.000 F200.000 
G0 Z0.000 
G0 Z5.000 
G0 X9.218 Y-51.567 Z5.000 
G0 X9.218 Y-51.567 Z0.000 
G0 X9.668 Y-51.567 
G1 Z0.000 F120.000 
G2 X8.768 Y-51.567 Z-0.750 I-0.450 J0.000 F200.000 
G2 X9.668 Y-51.567 Z-1.500 I0.450 J0.000 F200.000 
G2 X8.768 Y-51.567 Z-2.250 I-0.450 J0.000 F200.000 
G2 X9.668 Y-51.567 Z-3.000 I0.450 J0.000 F200.000 
G2 X8.768 Y-51.567 Z-3.000 I-0.450 J0.000 F200.000 
G2 X9.668 Y-51.567 Z-3.000 I0.450 J0.000 F200.000 
G0 X9.218 Y-51.567 Z-3.000 
G0 Z0.000 
G0 Z5.000 
G0 X38.600 Y-56.630 Z5.000 
G0 X38.600 Y-56.630 Z0.000 
G0 X38.800 Y-56.630 
G1 Z0.000 F120.000 
G2 X38.400 Y-56.630 Z-0.750 I-0.200 J0.000 F200.000 
G2 X38.800 Y-56.630 Z-1.500 I0.200 J0.000 F200.000 
G2 X38.400 Y-56.630 Z-2.250 I-0.200 J0.000 F200.000 
G2 X38.800 Y-56.630 Z-3.000 I0.200 J0.000 F200.000 
G2 X38.400 Y-56.630 Z-3.000 I-0.200 J0.000 F200.000 
G2 X38.800 Y-56.630 Z-3.000 I0.200 J0.000 F200.000 
G0 X38.600 Y-56.630 Z-3.000 
G0 Z0.000 
G0 Z5.000 
G0 X42.780 Y-78.500 Z5.000 
G0 X42.780 Y-78.500 Z0.000 
G0 X45.380 Y-78.500 
G1 Z0.000 F120.000 
G2 X40.180 Y-78.500 Z-0.750 I-2.600 J0.000 F200.000 
G2 X45.380 Y-78.500 Z-1.500 I2.600 J0.000 F200.000 
G2 X40.180 Y-78.500 Z-2.250 I-2.600 J0.000 F200.000 
G2 X45.380 Y-78.500 Z-3.000 I2.600 J0.000 F200.000 
G2 X40.180 Y-78.500 Z-3.000 I-2.600 J0.000 F200.000 
G2 X45.380 Y-78.500 Z-3.000 I2.600 J0.000 F200.000 
G0 Z0.000 
G0 X44.655 Y-78.500 
G1 Z0.000 F120.000 
G2 X40.905 Y-78.500 Z-0.750 I-1.875 J0.000 F200.000 
G2 X44.655 Y-78.500 Z-1.500 I1.875 J0.000 F200.000 
G2 X40.905 Y-78.500 Z-2.250 I-1.875 J0.000 F200.000 
G2 X44.655 Y-78.500 Z-3.000 I1.875 J0.000 F200.000 
G2 X40.905 Y-78.500 Z-3.000 I-1.875 J0.000 F200.000 
G2 X44.655 Y-78.500 Z-3.000 I1.875 J0.000 F200.000 
G0 Z0.000 
G0 X43.930 Y-78.500 
G1 Z0.000 F120.000 
G2 X41.630 Y-78.500 Z-0.750 I-1.150 J0.000 F200.000 
G2 X43.930 Y-78.500 Z-1.500 I1.150 J0.000 F200.000 
G2 X41.630 Y-78.500 Z-2.250 I-1.150 J0.000 F200.000 
G2 X43.930 Y-78.500 Z-3.000 I1.150 J0.000 F200.000 
G2 X41.630 Y-78.500 Z-3.000 I-1.150 J0.000 F200.000 
G2 X43.930 Y-78.500 Z-3.000 I1.150 J0.000 F200.000 
G0 Z0.000 
G0 Z5.000 
G0 X24.050 Y-78.500 Z5.000 
G0 X24.050 Y-78.500 Z0.000 
G0 X26.650 Y-78.500 
G1 Z0.000 F120.000 
G2 X21.450 Y-78.500 Z-0.750 I-2.600 J0.000 F200.000 
G2 X26.650 Y-78.500 Z-1.500 I2.600 J0.000 F200.000 
G2 X21.450 Y-78.500 Z-2.250 I-2.600 J0.000 F200.000 
G2 X26.650 Y-78.500 Z-3.000 I2.600 J0.000 F200.000 
G2 X21.450 Y-78.500 Z-3.000 I-2.600 J0.000 F200.000 
G2 X26.650 Y-78.500 Z-3.000 I2.600 J0.000 F200.000 
G0 Z0.000 
G0 X25.925 Y-78.500 
G1 Z0.000 F120.000 
G2 X22.175 Y-78.500 Z-0.750 I-1.875 J0.000 F200.000 
G2 X25.925 Y-78.500 Z-1.500 I1.875 J0.000 F200.000 
G2 X22.175 Y-78.500 Z-2.250 I-1.875 J0.000 F200.000 
G2 X25.925 Y-78.500 Z-3.000 I1.875 J0.000 F200.000 
G2 X22.175 Y-78.500 Z-3.000 I-1.875 J0.000 F200.000 
G2 X25.925 Y-78.500 Z-3.000 I1.875 J0.000 F200.000 
G0 Z0.000 
G0 X25.200 Y-78.500 
G1 Z0.000 F120.000 
G2 X22.900 Y-78.500 Z-0.750 I-1.150 J0.000 F200.000 
G2 X25.200 Y-78.500 Z-1.500 I1.150 J0.000 F200.000 
G2 X22.900 Y-78.500 Z-2.250 I-1.150 J0.000 F200.000 
G2 X25.200 Y-78.500 Z-3.000 I1.150 J0.000 F200.000 
G2 X22.900 Y-78.500 Z-3.000 I-1.150 J0.000 F200.000 
G2 X25.200 Y-78.500 Z-3.000 I1.150 J0.000 F200.000 
G0 Z0.000 
G0 Z5.000 
G0 X9.223 Y-90.724 Z5.000 
G0 X9.223 Y-90.724 Z0.000 
G0 X9.673 Y-90.724 
G1 Z0.000 F120.000 
G2 X8.773 Y-90.724 Z-0.750 I-0.450 J0.000 F200.000 
G2 X9.673 Y-90.724 Z-1.500 I0.450 J0.000 F200.000 
G2 X8.773 Y-90.724 Z-2.250 I-0.450 J0.000 F200.000 
G2 X9.673 Y-90.724 Z-3.000 I0.450 J0.000 F200.000 
G2 X8.773 Y-90.724 Z-3.000 I-0.450 J0.000 F200.000 
G2 X9.673 Y-90.724 Z-3.000 I0.450 J0.000 F200.000 
G0 X9.223 Y-90.724 Z-3.000 
G0 Z0.000 
G0 Z5.000 
G0 X61.819 Y-78.500 Z5.000 
G0 X61.819 Y-78.500 Z0.000 
G0 X64.419 Y-78.500 
G1 Z0.000 F120.000 
G2 X59.219 Y-78.500 Z-0.750 I-2.600 J0.000 F200.000 
G2 X64.419 Y-78.500 Z-1.500 I2.600 J0.000 F200.000 
G2 X59.219 Y-78.500 Z-2.250 I-2.600 J0.000 F200.000 
G2 X64.419 Y-78.500 Z-3.000 I2.600 J0.000 F200.000 
G2 X59.219 Y-78.500 Z-3.000 I-2.600 J0.000 F200.000 
G2 X64.419 Y-78.500 Z-3.000 I2.600 J0.000 F200.000 
G0 Z0.000 
G0 X63.694 Y-78.500 
G1 Z0.000 F120.000 
G2 X59.944 Y-78.500 Z-0.750 I-1.875 J0.000 F200.000 
G2 X63.694 Y-78.500 Z-1.500 I1.875 J0.000 F200.000 
G2 X59.944 Y-78.500 Z-2.250 I-1.875 J0.000 F200.000 
G2 X63.694 Y-78.500 Z-3.000 I1.875 J0.000 F200.000 
G2 X59.944 Y-78.500 Z-3.000 I-1.875 J0.000 F200.000 
G2 X63.694 Y-78.500 Z-3.000 I1.875 J0.000 F200.000 
G0 Z0.000 
G0 X62.969 Y-78.500 
G1 Z0.000 F120.000 
G2 X60.669 Y-78.500 Z-0.750 I-1.150 J0.000 F200.000 
G2 X62.969 Y-78.500 Z-1.500 I1.150 J0.000 F200.000 
G2 X60.669 Y-78.500 Z-2.250 I-1.150 J0.000 F200.000 
G2 X62.969 Y-78.500 Z-3.000 I1.150 J0.000 F200.000 
G2 X60.669 Y-78.500 Z-3.000 I-1.150 J0.000 F200.000 
G2 X62.969 Y-78.500 Z-3.000 I1.150 J0.000 F200.000 
G0 Z0.000 
G0 Z5.000 
G0 X80.880 Y-78.500 Z5.000 
G0 X80.880 Y-78.500 Z0.000 
G0 X83.480 Y-78.500 
G1 Z0.000 F120.000 
G2 X78.280 Y-78.500 Z-0.750 I-2.600 J0.000 F200.000 
G2 X83.480 Y-78.500 Z-1.500 I2.600 J0.000 F200.000 
G2 X78.280 Y-78.500 Z-2.250 I-2.600 J0.000 F200.000 
G2 X83.480 Y-78.500 Z-3.000 I2.600 J0.000 F200.000 
G2 X78.280 Y-78.500 Z-3.000 I-2.600 J0.000 F200.000 
G2 X83.480 Y-78.500 Z-3.000 I2.600 J0.000 F200.000 
G0 Z0.000 
G0 X82.755 Y-78.500 
G1 Z0.000 F120.000 
G2 X79.005 Y-78.500 Z-0.750 I-1.875 J0.000 F200.000 
G2 X82.755 Y-78.500 Z-1.500 I1.875 J0.000 F200.000 
G2 X79.005 Y-78.500 Z-2.250 I-1.875 J0.000 F200.000 
G2 X82.755 Y-78.500 Z-3.000 I1.875 J0.000 F200.000 
G2 X79.005 Y-78.500 Z-3.000 I-1.875 J0.000 F200.000 
G2 X82.755 Y-78.500 Z-3.000 I1.875 J0.000 F200.000 
G0 Z0.000 
G0 X82.030 Y-78.500 
G1 Z0.000 F120.000 
G2 X79.730 Y-78.500 Z-0.750 I-1.150 J0.000 F200.000 
G2 X82.030 Y-78.500 Z-1.500 I1.150 J0.000 F200.000 
G2 X79.730 Y-78.500 Z-2.250 I-1.150 J0.000 F200.000 
G2 X82.030 Y-78.500 Z-3.000 I1.150 J0.000 F200.000 
G2 X79.730 Y-78.500 Z-3.000 I-1.150 J0.000 F200.000 
G2 X82.030 Y-78.500 Z-3.000 I1.150 J0.000 F200.000 
G0 Z0.000 
G0 Z5.000 
G0 X99.920 Y-78.500 Z5.000 
G0 X99.920 Y-78.500 Z0.000 
G0 X102.520 Y-78.500 
G1 Z0.000 F120.000 
G2 X97.320 Y-78.500 Z-0.750 I-2.600 J0.000 F200.000 
G2 X102.520 Y-78.500 Z-1.500 I2.600 J0.000 F200.000 
G2 X97.320 Y-78.500 Z-2.250 I-2.600 J0.000 F200.000 
G2 X102.520 Y-78.500 Z-3.000 I2.600 J0.000 F200.000 
G2 X97.320 Y-78.500 Z-3.000 I-2.600 J0.000 F200.000 
G2 X102.520 Y-78.500 Z-3.000 I2.600 J0.000 F200.000 
G0 Z0.000 
G0 X101.795 Y-78.500 
G1 Z0.000 F120.000 
G2 X98.045 Y-78.500 Z-0.750 I-1.875 J0.000 F200.000 
G2 X101.795 Y-78.500 Z-1.500 I1.875 J0.000 F200.000 
G2 X98.045 Y-78.500 Z-2.250 I-1.875 J0.000 F200.000 
G2 X101.795 Y-78.500 Z-3.000 I1.875 J0.000 F200.000 
G2 X98.045 Y-78.500 Z-3.000 I-1.875 J0.000 F200.000 
G2 X101.795 Y-78.500 Z-3.000 I1.875 J0.000 F200.000 
G0 Z0.000 
G0 X101.070 Y-78.500 
G1 Z0.000 F120.000 
G2 X98.770 Y-78.500 Z-0.750 I-1.150 J0.000 F200.000 
G2 X101.070 Y-78.500 Z-1.500 I1.150 J0.000 F200.000 
G2 X98.770 Y-78.500 Z-2.250 I-1.150 J0.000 F200.000 
G2 X101.070 Y-78.500 Z-3.000 I1.150 J0.000 F200.000 
G2 X98.770 Y-78.500 Z-3.000 I-1.150 J0.000 F200.000 
G2 X101.070 Y-78.500 Z-3.000 I1.150 J0.000 F200.000 
G0 Z0.000 
G0 Z5.000 
G0 X104.100 Y-56.630 Z5.000 
G0 X104.100 Y-56.630 Z0.000 
G0 X104.300 Y-56.630 
G1 Z0.000 F120.000 
G2 X103.900 Y-56.630 Z-0.750 I-0.200 J0.000 F200.000 
G2 X104.300 Y-56.630 Z-1.500 I0.200 J0.000 F200.000 
G2 X103.900 Y-56.630 Z-2.250 I-0.200 J0.000 F200.000 
G2 X104.300 Y-56.630 Z-3.000 I0.200 J0.000 F200.000 
G2 X103.900 Y-56.630 Z-3.000 I-0.200 J0.000 F200.000 
G2 X104.300 Y-56.630 Z-3.000 I0.200 J0.000 F200.000 
G0 X104.100 Y-56.630 Z-3.000 
G0 Z0.000 
G0 Z5.000 
G0 X119.727 Y-48.378 Z5.000 
G0 X119.727 Y-48.378 Z0.000 
G0 X120.177 Y-48.378 
G1 Z0.000 F120.000 
G2 X119.277 Y-48.378 Z-0.750 I-0.450 J0.000 F200.000 
G2 X120.177 Y-48.378 Z-1.500 I0.450 J0.000 F200.000 
G2 X119.277 Y-48.378 Z-2.250 I-0.450 J0.000 F200.000 
G2 X120.177 Y-48.378 Z-3.000 I0.450 J0.000 F200.000 
G2 X119.277 Y-48.378 Z-3.000 I-0.450 J0.000 F200.000 
G2 X120.177 Y-48.378 Z-3.000 I0.450 J0.000 F200.000 
G0 X119.727 Y-48.378 Z-3.000 
G0 Z0.000 
G0 Z5.000 
G0 X104.100 Y-13.170 Z5.000 
G0 X104.100 Y-13.170 Z0.000 
G0 X104.300 Y-13.170 
G1 Z0.000 F120.000 
G2 X103.900 Y-13.170 Z-0.750 I-0.200 J0.000 F200.000 
G2 X104.300 Y-13.170 Z-1.500 I0.200 J0.000 F200.000 
G2 X103.900 Y-13.170 Z-2.250 I-0.200 J0.000 F200.000 
G2 X104.300 Y-13.170 Z-3.000 I0.200 J0.000 F200.000 
G2 X103.900 Y-13.170 Z-3.000 I-0.200 J0.000 F200.000 
G2 X104.300 Y-13.170 Z-3.000 I0.200 J0.000 F200.000 
G0 X104.100 Y-13.170 Z-3.000 
G0 Z0.000 
G0 Z5.000 
G0 X119.724 Y-9.222 Z5.000 
G0 X119.724 Y-9.222 Z0.000 
G0 X120.174 Y-9.222 
G1 Z0.000 F120.000 
G2 X119.274 Y-9.222 Z-0.750 I-0.450 J0.000 F200.000 
G2 X120.174 Y-9.222 Z-1.500 I0.450 J0.000 F200.000 
G2 X119.274 Y-9.222 Z-2.250 I-0.450 J0.000 F200.000 
G2 X120.174 Y-9.222 Z-3.000 I0.450 J0.000 F200.000 
G2 X119.274 Y-9.222 Z-3.000 I-0.450 J0.000 F200.000 
G2 X120.174 Y-9.222 Z-3.000 I0.450 J0.000 F200.000 
G0 X119.724 Y-9.222 Z-3.000 
G0 Z0.000 
G0 Z5.000 
G0 X38.600 Y-13.180 Z5.000 
G0 X38.600 Y-13.180 Z0.000 
G0 X38.800 Y-13.180 
G1 Z0.000 F120.000 
G2 X38.400 Y-13.180 Z-0.750 I-0.200 J0.000 F200.000 
G2 X38.800 Y-13.180 Z-1.500 I0.200 J0.000 F200.000 
G2 X38.400 Y-13.180 Z-2.250 I-0.200 J0.000 F200.000 
G2 X38.800 Y-13.180 Z-3.000 I0.200 J0.000 F200.000 
G2 X38.400 Y-13.180 Z-3.000 I-0.200 J0.000 F200.000 
G2 X38.800 Y-13.180 Z-3.000 I0.200 J0.000 F200.000 
G0 X38.600 Y-13.180 Z-3.000 
G0 Z0.000 
G0 Z5.000 
G0 X119.723 Y-90.722 Z5.000 
G0 X119.723 Y-90.722 Z0.000 
G0 X120.173 Y-90.722 
G1 Z0.000 F120.000 
G2 X119.273 Y-90.722 Z-0.750 I-0.450 J0.000 F200.000 
G2 X120.173 Y-90.722 Z-1.500 I0.450 J0.000 F200.000 
G2 X119.273 Y-90.722 Z-2.250 I-0.450 J0.000 F200.000 
G2 X120.173 Y-90.722 Z-3.000 I0.450 J0.000 F200.000 
G2 X119.273 Y-90.722 Z-3.000 I-0.450 J0.000 F200.000 
G2 X120.173 Y-90.722 Z-3.000 I0.450 J0.000 F200.000 
G0 X119.723 Y-90.722 Z-3.000 
G0 Z0.000 
G0 Z5.000 
(finish operation: Helix)
(begin operation: Profile)
(machine units: mm/min)
(Profile) 
(Compensated Tool Path. Diameter: 2.3) 
G0 Z5.000 
G0 X127.225 Y-1.771 
G0 Z3.000 
G1 X127.225 Y-1.771 Z-2.300 F120.000 
G2 X128.145 Y-3.883 Z-2.300 I-2.231 J-2.228 F200.000 
G1 X128.150 Y-96.000 Z-2.300 F200.000 
G2 X125.113 Y-99.144 Z-2.300 I-3.153 J0.006 F200.000 
G1 X4.000 Y-99.150 Z-2.300 F200.000 
G2 X0.856 Y-96.113 Z-2.300 I0.006 J3.153 F200.000 
G1 X0.850 Y-3.996 Z-2.300 F200.000 
G2 X3.887 Y-0.852 Z-2.300 I3.153 J-0.006 F200.000 
G1 X125.000 Y-0.846 Z-2.300 F200.000 
G2 X127.225 Y-1.771 Z-2.300 I-0.006 J-3.153 F200.000 
G1 X127.225 Y-1.771 Z-3.000 F120.000 
G2 X128.145 Y-3.883 Z-3.000 I-2.231 J-2.228 F200.000 
G1 X128.150 Y-96.000 Z-3.000 F200.000 
G2 X125.113 Y-99.144 Z-3.000 I-3.153 J0.006 F200.000 
G1 X4.000 Y-99.150 Z-3.000 F200.000 
G2 X0.856 Y-96.113 Z-3.000 I0.006 J3.153 F200.000 
G1 X0.850 Y-3.996 Z-3.000 F200.000 
G2 X3.887 Y-0.852 Z-3.000 I3.153 J-0.006 F200.000 
G1 X125.000 Y-0.846 Z-3.000 F200.000 
G2 X127.225 Y-1.771 Z-3.000 I-0.006 J-3.153 F200.000 
G0 Z5.000 
G0 Z5.000 
(finish operation: Profile)
(begin postamble)
M05
G17 G54 G90 G80 G40
M2
