(Exported by FreeCAD)
(Post Processor: KineticNCBeamicon2_post)
(Output Time:2024-12-16 10:07:13.418031)
(begin preamble)
%
G17 G21 G40 G49 G80 G90
M08
G21
(begin operation: Fixture)
(machine: not set, mm/min)
G54
(finish operation: Fixture)
(begin operation: 2.3mm_endmill002)
(machine: not set, mm/min)
(2.3mm_endmill002)
M05
M09M6 T2
M3 S10000
(finish operation: 2.3mm_endmill002)
(begin operation: Profile)
(machine: not set, mm/min)
(Profile)
(Compensated Tool Path. Diameter: 2.3)
G0 Z5.000
G0 X36.511 Y-75.700
G0 Z3.000
G1 X36.511 Y-75.700 Z-2.300 F120.000
G2 X37.055 Y-77.050 Z-2.300 I-1.315 J-1.315 F160.000
G1 X37.055 Y-140.960 Z-2.300 F160.000
G2 X35.160 Y-142.855 Z-2.300 I-1.859 J-0.036 F160.000
G1 X30.250 Y-142.855 Z-2.300 F160.000
G2 X28.355 Y-140.960 Z-2.300 I-0.036 J1.859 F160.000
G1 X28.355 Y-77.050 Z-2.300 F160.000
G2 X30.250 Y-75.155 Z-2.300 I1.859 J0.036 F160.000
G1 X35.160 Y-75.155 Z-2.300 F160.000
G2 X36.511 Y-75.700 Z-2.300 I0.036 J-1.859 F160.000
G1 X36.511 Y-75.700 Z-3.000 F120.000
G2 X37.055 Y-77.050 Z-3.000 I-1.315 J-1.315 F160.000
G1 X37.055 Y-140.960 Z-3.000 F160.000
G2 X35.160 Y-142.855 Z-3.000 I-1.859 J-0.036 F160.000
G1 X30.250 Y-142.855 Z-3.000 F160.000
G2 X28.355 Y-140.960 Z-3.000 I-0.036 J1.859 F160.000
G1 X28.355 Y-77.050 Z-3.000 F160.000
G2 X30.250 Y-75.155 Z-3.000 I1.859 J0.036 F160.000
G1 X35.160 Y-75.155 Z-3.000 F160.000
G2 X36.511 Y-75.700 Z-3.000 I0.036 J-1.859 F160.000
G0 Z5.000
G0 Z5.000
(finish operation: Profile)
(begin operation: Helix)
(machine: not set, mm/min)
(Helix)
(helix cut operation)
G0 Z5.000
G0 Z5.000
G0 X13.005 Y-11.005 Z5.000
G0 X13.005 Y-11.005 Z0.000
G0 X13.505 Y-11.005
G1 Z0.000 F120.000
G2 X12.505 Y-11.005 Z-0.750 I-0.500 J0.000 F160.000
G2 X13.505 Y-11.005 Z-1.500 I0.500 J0.000 F160.000
G2 X12.505 Y-11.005 Z-2.250 I-0.500 J0.000 F160.000
G2 X13.505 Y-11.005 Z-3.000 I0.500 J0.000 F160.000
G2 X12.505 Y-11.005 Z-3.000 I-0.500 J0.000 F160.000
G2 X13.505 Y-11.005 Z-3.000 I0.500 J0.000 F160.000
G0 X13.005 Y-11.005 Z-3.000
G0 Z0.000
G0 Z5.000
G0 X25.713 Y-16.005 Z5.000
G0 X25.713 Y-16.005 Z0.000
G0 X26.213 Y-16.005
G1 Z0.000 F120.000
G2 X25.213 Y-16.005 Z-0.750 I-0.500 J0.000 F160.000
G2 X26.213 Y-16.005 Z-1.500 I0.500 J0.000 F160.000
G2 X25.213 Y-16.005 Z-2.250 I-0.500 J0.000 F160.000
G2 X26.213 Y-16.005 Z-3.000 I0.500 J0.000 F160.000
G2 X25.213 Y-16.005 Z-3.000 I-0.500 J0.000 F160.000
G2 X26.213 Y-16.005 Z-3.000 I0.500 J0.000 F160.000
G0 X25.713 Y-16.005 Z-3.000
G0 Z0.000
G0 Z5.000
G0 X10.105 Y-35.905 Z5.000
G0 X10.105 Y-35.905 Z0.000
G0 X10.605 Y-35.905
G1 Z0.000 F120.000
G2 X9.605 Y-35.905 Z-0.750 I-0.500 J0.000 F160.000
G2 X10.605 Y-35.905 Z-1.500 I0.500 J0.000 F160.000
G2 X9.605 Y-35.905 Z-2.250 I-0.500 J0.000 F160.000
G2 X10.605 Y-35.905 Z-3.000 I0.500 J0.000 F160.000
G2 X9.605 Y-35.905 Z-3.000 I-0.500 J0.000 F160.000
G2 X10.605 Y-35.905 Z-3.000 I0.500 J0.000 F160.000
G0 X10.105 Y-35.905 Z-3.000
G0 Z0.000
G0 Z5.000
G0 X10.105 Y-55.905 Z5.000
G0 X10.105 Y-55.905 Z0.000
G0 X10.605 Y-55.905
G1 Z0.000 F120.000
G2 X9.605 Y-55.905 Z-0.750 I-0.500 J0.000 F160.000
G2 X10.605 Y-55.905 Z-1.500 I0.500 J0.000 F160.000
G2 X9.605 Y-55.905 Z-2.250 I-0.500 J0.000 F160.000
G2 X10.605 Y-55.905 Z-3.000 I0.500 J0.000 F160.000
G2 X9.605 Y-55.905 Z-3.000 I-0.500 J0.000 F160.000
G2 X10.605 Y-55.905 Z-3.000 I0.500 J0.000 F160.000
G0 X10.105 Y-55.905 Z-3.000
G0 Z0.000
G0 Z5.000
G0 X10.105 Y-95.905 Z5.000
G0 X10.105 Y-95.905 Z0.000
G0 X10.605 Y-95.905
G1 Z0.000 F120.000
G2 X9.605 Y-95.905 Z-0.750 I-0.500 J0.000 F160.000
G2 X10.605 Y-95.905 Z-1.500 I0.500 J0.000 F160.000
G2 X9.605 Y-95.905 Z-2.250 I-0.500 J0.000 F160.000
G2 X10.605 Y-95.905 Z-3.000 I0.500 J0.000 F160.000
G2 X9.605 Y-95.905 Z-3.000 I-0.500 J0.000 F160.000
G2 X10.605 Y-95.905 Z-3.000 I0.500 J0.000 F160.000
G0 X10.105 Y-95.905 Z-3.000
G0 Z0.000
G0 Z5.000
G0 X10.105 Y-135.905 Z5.000
G0 X10.105 Y-135.905 Z0.000
G0 X10.605 Y-135.905
G1 Z0.000 F120.000
G2 X9.605 Y-135.905 Z-0.750 I-0.500 J0.000 F160.000
G2 X10.605 Y-135.905 Z-1.500 I0.500 J0.000 F160.000
G2 X9.605 Y-135.905 Z-2.250 I-0.500 J0.000 F160.000
G2 X10.605 Y-135.905 Z-3.000 I0.500 J0.000 F160.000
G2 X9.605 Y-135.905 Z-3.000 I-0.500 J0.000 F160.000
G2 X10.605 Y-135.905 Z-3.000 I0.500 J0.000 F160.000
G0 X10.105 Y-135.905 Z-3.000
G0 Z0.000
G0 Z5.000
G0 X25.305 Y-149.005 Z5.000
G0 X25.305 Y-149.005 Z0.000
G0 X25.805 Y-149.005
G1 Z0.000 F120.000
G2 X24.805 Y-149.005 Z-0.750 I-0.500 J0.000 F160.000
G2 X25.805 Y-149.005 Z-1.500 I0.500 J0.000 F160.000
G2 X24.805 Y-149.005 Z-2.250 I-0.500 J0.000 F160.000
G2 X25.805 Y-149.005 Z-3.000 I0.500 J0.000 F160.000
G2 X24.805 Y-149.005 Z-3.000 I-0.500 J0.000 F160.000
G2 X25.805 Y-149.005 Z-3.000 I0.500 J0.000 F160.000
G0 X25.305 Y-149.005 Z-3.000
G0 Z0.000
G0 Z5.000
G0 X65.305 Y-149.005 Z5.000
G0 X65.305 Y-149.005 Z0.000
G0 X65.805 Y-149.005
G1 Z0.000 F120.000
G2 X64.805 Y-149.005 Z-0.750 I-0.500 J0.000 F160.000
G2 X65.805 Y-149.005 Z-1.500 I0.500 J0.000 F160.000
G2 X64.805 Y-149.005 Z-2.250 I-0.500 J0.000 F160.000
G2 X65.805 Y-149.005 Z-3.000 I0.500 J0.000 F160.000
G2 X64.805 Y-149.005 Z-3.000 I-0.500 J0.000 F160.000
G2 X65.805 Y-149.005 Z-3.000 I0.500 J0.000 F160.000
G0 X65.305 Y-149.005 Z-3.000
G0 Z0.000
G0 Z5.000
G0 X105.305 Y-149.005 Z5.000
G0 X105.305 Y-149.005 Z0.000
G0 X105.805 Y-149.005
G1 Z0.000 F120.000
G2 X104.805 Y-149.005 Z-0.750 I-0.500 J0.000 F160.000
G2 X105.805 Y-149.005 Z-1.500 I0.500 J0.000 F160.000
G2 X104.805 Y-149.005 Z-2.250 I-0.500 J0.000 F160.000
G2 X105.805 Y-149.005 Z-3.000 I0.500 J0.000 F160.000
G2 X104.805 Y-149.005 Z-3.000 I-0.500 J0.000 F160.000
G2 X105.805 Y-149.005 Z-3.000 I0.500 J0.000 F160.000
G0 X105.305 Y-149.005 Z-3.000
G0 Z0.000
G0 Z5.000
G0 X139.005 Y-144.005 Z5.000
G0 X139.005 Y-144.005 Z0.000
G0 X139.505 Y-144.005
G1 Z0.000 F120.000
G2 X138.505 Y-144.005 Z-0.750 I-0.500 J0.000 F160.000
G2 X139.505 Y-144.005 Z-1.500 I0.500 J0.000 F160.000
G2 X138.505 Y-144.005 Z-2.250 I-0.500 J0.000 F160.000
G2 X139.505 Y-144.005 Z-3.000 I0.500 J0.000 F160.000
G2 X138.505 Y-144.005 Z-3.000 I-0.500 J0.000 F160.000
G2 X139.505 Y-144.005 Z-3.000 I0.500 J0.000 F160.000
G0 X139.005 Y-144.005 Z-3.000
G0 Z0.000
G0 Z5.000
G0 X145.005 Y-120.005 Z5.000
G0 X145.005 Y-120.005 Z0.000
G0 X145.505 Y-120.005
G1 Z0.000 F120.000
G2 X144.505 Y-120.005 Z-0.750 I-0.500 J0.000 F160.000
G2 X145.505 Y-120.005 Z-1.500 I0.500 J0.000 F160.000
G2 X144.505 Y-120.005 Z-2.250 I-0.500 J0.000 F160.000
G2 X145.505 Y-120.005 Z-3.000 I0.500 J0.000 F160.000
G2 X144.505 Y-120.005 Z-3.000 I-0.500 J0.000 F160.000
G2 X145.505 Y-120.005 Z-3.000 I0.500 J0.000 F160.000
G0 X145.005 Y-120.005 Z-3.000
G0 Z0.000
G0 Z5.000
G0 X182.505 Y-89.005 Z5.000
G0 X182.505 Y-89.005 Z0.000
G0 X183.005 Y-89.005
G1 Z0.000 F120.000
G2 X182.005 Y-89.005 Z-0.750 I-0.500 J0.000 F160.000
G2 X183.005 Y-89.005 Z-1.500 I0.500 J0.000 F160.000
G2 X182.005 Y-89.005 Z-2.250 I-0.500 J0.000 F160.000
G2 X183.005 Y-89.005 Z-3.000 I0.500 J0.000 F160.000
G2 X182.005 Y-89.005 Z-3.000 I-0.500 J0.000 F160.000
G2 X183.005 Y-89.005 Z-3.000 I0.500 J0.000 F160.000
G0 X182.505 Y-89.005 Z-3.000
G0 Z0.000
G0 Z5.000
G0 X222.005 Y-84.005 Z5.000
G0 X222.005 Y-84.005 Z0.000
G0 X222.505 Y-84.005
G1 Z0.000 F120.000
G2 X221.505 Y-84.005 Z-0.750 I-0.500 J0.000 F160.000
G2 X222.505 Y-84.005 Z-1.500 I0.500 J0.000 F160.000
G2 X221.505 Y-84.005 Z-2.250 I-0.500 J0.000 F160.000
G2 X222.505 Y-84.005 Z-3.000 I0.500 J0.000 F160.000
G2 X221.505 Y-84.005 Z-3.000 I-0.500 J0.000 F160.000
G2 X222.505 Y-84.005 Z-3.000 I0.500 J0.000 F160.000
G0 X222.005 Y-84.005 Z-3.000
G0 Z0.000
G0 Z5.000
G0 X222.005 Y-64.005 Z5.000
G0 X222.005 Y-64.005 Z0.000
G0 X222.505 Y-64.005
G1 Z0.000 F120.000
G2 X221.505 Y-64.005 Z-0.750 I-0.500 J0.000 F160.000
G2 X222.505 Y-64.005 Z-1.500 I0.500 J0.000 F160.000
G2 X221.505 Y-64.005 Z-2.250 I-0.500 J0.000 F160.000
G2 X222.505 Y-64.005 Z-3.000 I0.500 J0.000 F160.000
G2 X221.505 Y-64.005 Z-3.000 I-0.500 J0.000 F160.000
G2 X222.505 Y-64.005 Z-3.000 I0.500 J0.000 F160.000
G0 X222.005 Y-64.005 Z-3.000
G0 Z0.000
G0 Z5.000
G0 X222.005 Y-44.005 Z5.000
G0 X222.005 Y-44.005 Z0.000
G0 X222.505 Y-44.005
G1 Z0.000 F120.000
G2 X221.505 Y-44.005 Z-0.750 I-0.500 J0.000 F160.000
G2 X222.505 Y-44.005 Z-1.500 I0.500 J0.000 F160.000
G2 X221.505 Y-44.005 Z-2.250 I-0.500 J0.000 F160.000
G2 X222.505 Y-44.005 Z-3.000 I0.500 J0.000 F160.000
G2 X221.505 Y-44.005 Z-3.000 I-0.500 J0.000 F160.000
G2 X222.505 Y-44.005 Z-3.000 I0.500 J0.000 F160.000
G0 X222.005 Y-44.005 Z-3.000
G0 Z0.000
G0 Z5.000
G0 X182.005 Y-44.005 Z5.000
G0 X182.005 Y-44.005 Z0.000
G0 X182.505 Y-44.005
G1 Z0.000 F120.000
G2 X181.505 Y-44.005 Z-0.750 I-0.500 J0.000 F160.000
G2 X182.505 Y-44.005 Z-1.500 I0.500 J0.000 F160.000
G2 X181.505 Y-44.005 Z-2.250 I-0.500 J0.000 F160.000
G2 X182.505 Y-44.005 Z-3.000 I0.500 J0.000 F160.000
G2 X181.505 Y-44.005 Z-3.000 I-0.500 J0.000 F160.000
G2 X182.505 Y-44.005 Z-3.000 I0.500 J0.000 F160.000
G0 X182.005 Y-44.005 Z-3.000
G0 Z0.000
G0 Z5.000
G0 X142.005 Y-44.005 Z5.000
G0 X142.005 Y-44.005 Z0.000
G0 X142.505 Y-44.005
G1 Z0.000 F120.000
G2 X141.505 Y-44.005 Z-0.750 I-0.500 J0.000 F160.000
G2 X142.505 Y-44.005 Z-1.500 I0.500 J0.000 F160.000
G2 X141.505 Y-44.005 Z-2.250 I-0.500 J0.000 F160.000
G2 X142.505 Y-44.005 Z-3.000 I0.500 J0.000 F160.000
G2 X141.505 Y-44.005 Z-3.000 I-0.500 J0.000 F160.000
G2 X142.505 Y-44.005 Z-3.000 I0.500 J0.000 F160.000
G0 X142.005 Y-44.005 Z-3.000
G0 Z0.000
G0 Z5.000
G0 X102.005 Y-40.005 Z5.000
G0 X102.005 Y-40.005 Z0.000
G0 X102.505 Y-40.005
G1 Z0.000 F120.000
G2 X101.505 Y-40.005 Z-0.750 I-0.500 J0.000 F160.000
G2 X102.505 Y-40.005 Z-1.500 I0.500 J0.000 F160.000
G2 X101.505 Y-40.005 Z-2.250 I-0.500 J0.000 F160.000
G2 X102.505 Y-40.005 Z-3.000 I0.500 J0.000 F160.000
G2 X101.505 Y-40.005 Z-3.000 I-0.500 J0.000 F160.000
G2 X102.505 Y-40.005 Z-3.000 I0.500 J0.000 F160.000
G0 X102.005 Y-40.005 Z-3.000
G0 Z0.000
G0 Z5.000
G0 X63.205 Y-30.005 Z5.000
G0 X63.205 Y-30.005 Z0.000
G0 X63.705 Y-30.005
G1 Z0.000 F120.000
G2 X62.705 Y-30.005 Z-0.750 I-0.500 J0.000 F160.000
G2 X63.705 Y-30.005 Z-1.500 I0.500 J0.000 F160.000
G2 X62.705 Y-30.005 Z-2.250 I-0.500 J0.000 F160.000
G2 X63.705 Y-30.005 Z-3.000 I0.500 J0.000 F160.000
G2 X62.705 Y-30.005 Z-3.000 I-0.500 J0.000 F160.000
G2 X63.705 Y-30.005 Z-3.000 I0.500 J0.000 F160.000
G0 X63.205 Y-30.005 Z-3.000
G0 Z0.000
G0 Z5.000
(finish operation: Helix)
(begin operation: Profile001)
(machine: not set, mm/min)
(Profile001)
(Compensated Tool Path. Diameter: 2.3)
G0 Z5.000
G0 X219.915 Y-33.240
G0 Z3.000
G1 X219.915 Y-33.240 Z-2.300 F120.000
G2 X228.121 Y-43.959 Z-2.300 I-2.893 J-10.715 F160.000
G1 X228.121 Y-84.006 Z-2.300 F160.000
G2 X217.058 Y-95.155 Z-2.300 I-11.152 J0.002 F160.000
G1 X187.116 Y-95.156 Z-2.300 F160.000
G3 X148.159 Y-143.971 Z-2.300 I8.127 J-46.438 F160.000
G2 X137.056 Y-155.182 Z-2.300 I-11.161 J-0.050 F160.000
G1 X14.004 Y-155.183 Z-2.300 F160.000
G2 X2.851 Y-144.068 Z-2.300 I0.019 J11.172 F160.000
G1 X2.850 Y-14.011 Z-2.300 F160.000
G2 X13.954 Y-2.851 Z-2.300 I11.156 J0.004 F160.000
G2 X14.488 Y-2.957 Z-2.300 I0.050 J-1.149 F160.000
G3 X216.845 Y-32.857 Z-2.300 I150.367 J317.944 F160.000
G2 X219.915 Y-33.240 Z-2.300 I0.177 J-11.097 F160.000
G1 X219.915 Y-33.240 Z-3.000 F120.000
G2 X228.121 Y-43.959 Z-3.000 I-2.893 J-10.715 F160.000
G1 X228.121 Y-84.006 Z-3.000 F160.000
G2 X217.058 Y-95.155 Z-3.000 I-11.152 J0.002 F160.000
G1 X187.116 Y-95.156 Z-3.000 F160.000
G3 X148.159 Y-143.971 Z-3.000 I8.127 J-46.438 F160.000
G2 X137.056 Y-155.182 Z-3.000 I-11.161 J-0.050 F160.000
G1 X14.004 Y-155.183 Z-3.000 F160.000
G2 X2.851 Y-144.068 Z-3.000 I0.019 J11.172 F160.000
G1 X2.850 Y-14.011 Z-3.000 F160.000
G2 X13.954 Y-2.851 Z-3.000 I11.156 J0.004 F160.000
G2 X14.488 Y-2.957 Z-3.000 I0.050 J-1.149 F160.000
G3 X216.845 Y-32.857 Z-3.000 I150.367 J317.944 F160.000
G2 X219.915 Y-33.240 Z-3.000 I0.177 J-11.097 F160.000
G0 Z5.000
G0 Z5.000
(finish operation: Profile001)
(begin postamble)
M05 M09
G17 G90 G80 G40
M30
