(Exported by FreeCAD)
(Post Processor: KineticNCBeamicon2_post)
(Output Time:2024-12-15 16:40:57.351937)
(begin preamble)
%
G17 G21 G40 G49 G80 G90
M08
G21
(begin operation: Fixture)
(machine: not set, mm/min)
G54
(finish operation: Fixture)
(begin operation: 2.3mm_endmill002)
(machine: not set, mm/min)
(2.3mm_endmill002)
M05
M09M6 T2
M3 S10000
(finish operation: 2.3mm_endmill002)
(begin operation: Profile)
(machine: not set, mm/min)
(Profile)
(Compensated Tool Path. Diameter: 2.3)
G0 Z5.000
G0 X142.311 Y-194.461
G0 Z3.000
G1 X142.311 Y-194.461 Z-2.300 F120.000
G2 X142.855 Y-195.811 Z-2.300 I-1.315 J-1.315 F200.000
G1 X142.855 Y-200.721 Z-2.300 F200.000
G2 X140.960 Y-202.616 Z-2.300 I-1.859 J-0.036 F200.000
G1 X77.050 Y-202.616 Z-2.300 F200.000
G2 X75.155 Y-200.721 Z-2.300 I-0.036 J1.859 F200.000
G1 X75.155 Y-195.811 Z-2.300 F200.000
G2 X77.050 Y-193.916 Z-2.300 I1.859 J0.036 F200.000
G1 X140.960 Y-193.916 Z-2.300 F200.000
G2 X142.311 Y-194.461 Z-2.300 I0.036 J-1.859 F200.000
G1 X142.311 Y-194.461 Z-3.000 F120.000
G2 X142.855 Y-195.811 Z-3.000 I-1.315 J-1.315 F200.000
G1 X142.855 Y-200.721 Z-3.000 F200.000
G2 X140.960 Y-202.616 Z-3.000 I-1.859 J-0.036 F200.000
G1 X77.050 Y-202.616 Z-3.000 F200.000
G2 X75.155 Y-200.721 Z-3.000 I-0.036 J1.859 F200.000
G1 X75.155 Y-195.811 Z-3.000 F200.000
G2 X77.050 Y-193.916 Z-3.000 I1.859 J0.036 F200.000
G1 X140.960 Y-193.916 Z-3.000 F200.000
G2 X142.311 Y-194.461 Z-3.000 I0.036 J-1.859 F200.000
G0 Z5.000
G0 Z5.000
(finish operation: Profile)
(begin operation: Profile001)
(machine: not set, mm/min)
(Profile001)
(Compensated Tool Path. Diameter: 2.3)
G0 Z5.000
G0 X95.021 Y-12.276
G0 Z3.000
G1 X95.021 Y-12.276 Z-2.300 F120.000
G2 X95.155 Y-13.913 Z-2.300 I-11.017 J-1.726 F200.000
G1 X95.156 Y-43.855 Z-2.300 F200.000
G3 X143.971 Y-82.812 Z-2.300 I46.438 J8.127 F200.000
G2 X155.182 Y-93.915 Z-2.300 I0.050 J-11.161 F200.000
G1 X155.183 Y-216.967 Z-2.300 F200.000
G2 X144.068 Y-228.120 Z-2.300 I-11.172 J0.019 F200.000
G1 X14.011 Y-228.121 Z-2.300 F200.000
G2 X2.851 Y-217.018 Z-2.300 I-0.004 J11.156 F200.000
G2 X2.957 Y-216.484 Z-2.300 I1.149 J0.050 F200.000
G3 X32.857 Y-14.127 Z-2.300 I-317.944 J150.367 F200.000
G2 X43.959 Y-2.851 Z-2.300 I11.097 J0.177 F200.000
G1 X84.006 Y-2.850 Z-2.300 F200.000
G2 X95.021 Y-12.276 Z-2.300 I-0.002 J-11.152 F200.000
G1 X95.021 Y-12.276 Z-3.000 F120.000
G2 X95.155 Y-13.913 Z-3.000 I-11.017 J-1.726 F200.000
G1 X95.156 Y-43.855 Z-3.000 F200.000
G3 X143.971 Y-82.812 Z-3.000 I46.438 J8.127 F200.000
G2 X155.182 Y-93.915 Z-3.000 I0.050 J-11.161 F200.000
G1 X155.183 Y-216.967 Z-3.000 F200.000
G2 X144.068 Y-228.120 Z-3.000 I-11.172 J0.019 F200.000
G1 X14.011 Y-228.121 Z-3.000 F200.000
G2 X2.851 Y-217.018 Z-3.000 I-0.004 J11.156 F200.000
G2 X2.957 Y-216.484 Z-3.000 I1.149 J0.050 F200.000
G3 X32.857 Y-14.127 Z-3.000 I-317.944 J150.367 F200.000
G2 X43.959 Y-2.851 Z-3.000 I11.097 J0.177 F200.000
G1 X84.006 Y-2.850 Z-3.000 F200.000
G2 X95.021 Y-12.276 Z-3.000 I-0.002 J-11.152 F200.000
G0 Z5.000
G0 Z5.000
(finish operation: Profile001)
(begin operation: Helix)
(machine: not set, mm/min)
(Helix)
(helix cut operation)
G0 Z5.000
G0 Z5.000
G0 X44.005 Y-8.966 Z5.000
G0 X44.005 Y-8.966 Z0.000
G0 X44.505 Y-8.966
G1 Z0.000 F120.000
G2 X43.505 Y-8.966 Z-0.750 I-0.500 J0.000 F200.000
G2 X44.505 Y-8.966 Z-1.500 I0.500 J0.000 F200.000
G2 X43.505 Y-8.966 Z-2.250 I-0.500 J0.000 F200.000
G2 X44.505 Y-8.966 Z-3.000 I0.500 J0.000 F200.000
G2 X43.505 Y-8.966 Z-3.000 I-0.500 J0.000 F200.000
G2 X44.505 Y-8.966 Z-3.000 I0.500 J0.000 F200.000
G0 X44.005 Y-8.966 Z-3.000
G0 Z0.000
G0 Z5.000
G0 X64.005 Y-8.966 Z5.000
G0 X64.005 Y-8.966 Z0.000
G0 X64.505 Y-8.966
G1 Z0.000 F120.000
G2 X63.505 Y-8.966 Z-0.750 I-0.500 J0.000 F200.000
G2 X64.505 Y-8.966 Z-1.500 I0.500 J0.000 F200.000
G2 X63.505 Y-8.966 Z-2.250 I-0.500 J0.000 F200.000
G2 X64.505 Y-8.966 Z-3.000 I0.500 J0.000 F200.000
G2 X63.505 Y-8.966 Z-3.000 I-0.500 J0.000 F200.000
G2 X64.505 Y-8.966 Z-3.000 I0.500 J0.000 F200.000
G0 X64.005 Y-8.966 Z-3.000
G0 Z0.000
G0 Z5.000
G0 X84.005 Y-8.966 Z5.000
G0 X84.005 Y-8.966 Z0.000
G0 X84.505 Y-8.966
G1 Z0.000 F120.000
G2 X83.505 Y-8.966 Z-0.750 I-0.500 J0.000 F200.000
G2 X84.505 Y-8.966 Z-1.500 I0.500 J0.000 F200.000
G2 X83.505 Y-8.966 Z-2.250 I-0.500 J0.000 F200.000
G2 X84.505 Y-8.966 Z-3.000 I0.500 J0.000 F200.000
G2 X83.505 Y-8.966 Z-3.000 I-0.500 J0.000 F200.000
G2 X84.505 Y-8.966 Z-3.000 I0.500 J0.000 F200.000
G0 X84.005 Y-8.966 Z-3.000
G0 Z0.000
G0 Z5.000
G0 X89.005 Y-48.466 Z5.000
G0 X89.005 Y-48.466 Z0.000
G0 X89.505 Y-48.466
G1 Z0.000 F120.000
G2 X88.505 Y-48.466 Z-0.750 I-0.500 J0.000 F200.000
G2 X89.505 Y-48.466 Z-1.500 I0.500 J0.000 F200.000
G2 X88.505 Y-48.466 Z-2.250 I-0.500 J0.000 F200.000
G2 X89.505 Y-48.466 Z-3.000 I0.500 J0.000 F200.000
G2 X88.505 Y-48.466 Z-3.000 I-0.500 J0.000 F200.000
G2 X89.505 Y-48.466 Z-3.000 I0.500 J0.000 F200.000
G0 X89.005 Y-48.466 Z-3.000
G0 Z0.000
G0 Z5.000
G0 X44.005 Y-48.966 Z5.000
G0 X44.005 Y-48.966 Z0.000
G0 X44.505 Y-48.966
G1 Z0.000 F120.000
G2 X43.505 Y-48.966 Z-0.750 I-0.500 J0.000 F200.000
G2 X44.505 Y-48.966 Z-1.500 I0.500 J0.000 F200.000
G2 X43.505 Y-48.966 Z-2.250 I-0.500 J0.000 F200.000
G2 X44.505 Y-48.966 Z-3.000 I0.500 J0.000 F200.000
G2 X43.505 Y-48.966 Z-3.000 I-0.500 J0.000 F200.000
G2 X44.505 Y-48.966 Z-3.000 I0.500 J0.000 F200.000
G0 X44.005 Y-48.966 Z-3.000
G0 Z0.000
G0 Z5.000
G0 X44.005 Y-88.966 Z5.000
G0 X44.005 Y-88.966 Z0.000
G0 X44.505 Y-88.966
G1 Z0.000 F120.000
G2 X43.505 Y-88.966 Z-0.750 I-0.500 J0.000 F200.000
G2 X44.505 Y-88.966 Z-1.500 I0.500 J0.000 F200.000
G2 X43.505 Y-88.966 Z-2.250 I-0.500 J0.000 F200.000
G2 X44.505 Y-88.966 Z-3.000 I0.500 J0.000 F200.000
G2 X43.505 Y-88.966 Z-3.000 I-0.500 J0.000 F200.000
G2 X44.505 Y-88.966 Z-3.000 I0.500 J0.000 F200.000
G0 X44.005 Y-88.966 Z-3.000
G0 Z0.000
G0 Z5.000
G0 X40.005 Y-128.966 Z5.000
G0 X40.005 Y-128.966 Z0.000
G0 X40.505 Y-128.966
G1 Z0.000 F120.000
G2 X39.505 Y-128.966 Z-0.750 I-0.500 J0.000 F200.000
G2 X40.505 Y-128.966 Z-1.500 I0.500 J0.000 F200.000
G2 X39.505 Y-128.966 Z-2.250 I-0.500 J0.000 F200.000
G2 X40.505 Y-128.966 Z-3.000 I0.500 J0.000 F200.000
G2 X39.505 Y-128.966 Z-3.000 I-0.500 J0.000 F200.000
G2 X40.505 Y-128.966 Z-3.000 I0.500 J0.000 F200.000
G0 X40.005 Y-128.966 Z-3.000
G0 Z0.000
G0 Z5.000
G0 X30.005 Y-167.766 Z5.000
G0 X30.005 Y-167.766 Z0.000
G0 X30.505 Y-167.766
G1 Z0.000 F120.000
G2 X29.505 Y-167.766 Z-0.750 I-0.500 J0.000 F200.000
G2 X30.505 Y-167.766 Z-1.500 I0.500 J0.000 F200.000
G2 X29.505 Y-167.766 Z-2.250 I-0.500 J0.000 F200.000
G2 X30.505 Y-167.766 Z-3.000 I0.500 J0.000 F200.000
G2 X29.505 Y-167.766 Z-3.000 I-0.500 J0.000 F200.000
G2 X30.505 Y-167.766 Z-3.000 I0.500 J0.000 F200.000
G0 X30.005 Y-167.766 Z-3.000
G0 Z0.000
G0 Z5.000
G0 X16.005 Y-205.258 Z5.000
G0 X16.005 Y-205.258 Z0.000
G0 X16.505 Y-205.258
G1 Z0.000 F120.000
G2 X15.505 Y-205.258 Z-0.750 I-0.500 J0.000 F200.000
G2 X16.505 Y-205.258 Z-1.500 I0.500 J0.000 F200.000
G2 X15.505 Y-205.258 Z-2.250 I-0.500 J0.000 F200.000
G2 X16.505 Y-205.258 Z-3.000 I0.500 J0.000 F200.000
G2 X15.505 Y-205.258 Z-3.000 I-0.500 J0.000 F200.000
G2 X16.505 Y-205.258 Z-3.000 I0.500 J0.000 F200.000
G0 X16.005 Y-205.258 Z-3.000
G0 Z0.000
G0 Z5.000
G0 X11.005 Y-217.966 Z5.000
G0 X11.005 Y-217.966 Z0.000
G0 X11.505 Y-217.966
G1 Z0.000 F120.000
G2 X10.505 Y-217.966 Z-0.750 I-0.500 J0.000 F200.000
G2 X11.505 Y-217.966 Z-1.500 I0.500 J0.000 F200.000
G2 X10.505 Y-217.966 Z-2.250 I-0.500 J0.000 F200.000
G2 X11.505 Y-217.966 Z-3.000 I0.500 J0.000 F200.000
G2 X10.505 Y-217.966 Z-3.000 I-0.500 J0.000 F200.000
G2 X11.505 Y-217.966 Z-3.000 I0.500 J0.000 F200.000
G0 X11.005 Y-217.966 Z-3.000
G0 Z0.000
G0 Z5.000
G0 X35.905 Y-220.866 Z5.000
G0 X35.905 Y-220.866 Z0.000
G0 X36.405 Y-220.866
G1 Z0.000 F120.000
G2 X35.405 Y-220.866 Z-0.750 I-0.500 J0.000 F200.000
G2 X36.405 Y-220.866 Z-1.500 I0.500 J0.000 F200.000
G2 X35.405 Y-220.866 Z-2.250 I-0.500 J0.000 F200.000
G2 X36.405 Y-220.866 Z-3.000 I0.500 J0.000 F200.000
G2 X35.405 Y-220.866 Z-3.000 I-0.500 J0.000 F200.000
G2 X36.405 Y-220.866 Z-3.000 I0.500 J0.000 F200.000
G0 X35.905 Y-220.866 Z-3.000
G0 Z0.000
G0 Z5.000
G0 X55.905 Y-220.866 Z5.000
G0 X55.905 Y-220.866 Z0.000
G0 X56.405 Y-220.866
G1 Z0.000 F120.000
G2 X55.405 Y-220.866 Z-0.750 I-0.500 J0.000 F200.000
G2 X56.405 Y-220.866 Z-1.500 I0.500 J0.000 F200.000
G2 X55.405 Y-220.866 Z-2.250 I-0.500 J0.000 F200.000
G2 X56.405 Y-220.866 Z-3.000 I0.500 J0.000 F200.000
G2 X55.405 Y-220.866 Z-3.000 I-0.500 J0.000 F200.000
G2 X56.405 Y-220.866 Z-3.000 I0.500 J0.000 F200.000
G0 X55.905 Y-220.866 Z-3.000
G0 Z0.000
G0 Z5.000
G0 X95.905 Y-220.866 Z5.000
G0 X95.905 Y-220.866 Z0.000
G0 X96.405 Y-220.866
G1 Z0.000 F120.000
G2 X95.405 Y-220.866 Z-0.750 I-0.500 J0.000 F200.000
G2 X96.405 Y-220.866 Z-1.500 I0.500 J0.000 F200.000
G2 X95.405 Y-220.866 Z-2.250 I-0.500 J0.000 F200.000
G2 X96.405 Y-220.866 Z-3.000 I0.500 J0.000 F200.000
G2 X95.405 Y-220.866 Z-3.000 I-0.500 J0.000 F200.000
G2 X96.405 Y-220.866 Z-3.000 I0.500 J0.000 F200.000
G0 X95.905 Y-220.866 Z-3.000
G0 Z0.000
G0 Z5.000
G0 X135.905 Y-220.866 Z5.000
G0 X135.905 Y-220.866 Z0.000
G0 X136.405 Y-220.866
G1 Z0.000 F120.000
G2 X135.405 Y-220.866 Z-0.750 I-0.500 J0.000 F200.000
G2 X136.405 Y-220.866 Z-1.500 I0.500 J0.000 F200.000
G2 X135.405 Y-220.866 Z-2.250 I-0.500 J0.000 F200.000
G2 X136.405 Y-220.866 Z-3.000 I0.500 J0.000 F200.000
G2 X135.405 Y-220.866 Z-3.000 I-0.500 J0.000 F200.000
G2 X136.405 Y-220.866 Z-3.000 I0.500 J0.000 F200.000
G0 X135.905 Y-220.866 Z-3.000
G0 Z0.000
G0 Z5.000
G0 X149.005 Y-205.666 Z5.000
G0 X149.005 Y-205.666 Z0.000
G0 X149.505 Y-205.666
G1 Z0.000 F120.000
G2 X148.505 Y-205.666 Z-0.750 I-0.500 J0.000 F200.000
G2 X149.505 Y-205.666 Z-1.500 I0.500 J0.000 F200.000
G2 X148.505 Y-205.666 Z-2.250 I-0.500 J0.000 F200.000
G2 X149.505 Y-205.666 Z-3.000 I0.500 J0.000 F200.000
G2 X148.505 Y-205.666 Z-3.000 I-0.500 J0.000 F200.000
G2 X149.505 Y-205.666 Z-3.000 I0.500 J0.000 F200.000
G0 X149.005 Y-205.666 Z-3.000
G0 Z0.000
G0 Z5.000
G0 X149.005 Y-165.666 Z5.000
G0 X149.005 Y-165.666 Z0.000
G0 X149.505 Y-165.666
G1 Z0.000 F120.000
G2 X148.505 Y-165.666 Z-0.750 I-0.500 J0.000 F200.000
G2 X149.505 Y-165.666 Z-1.500 I0.500 J0.000 F200.000
G2 X148.505 Y-165.666 Z-2.250 I-0.500 J0.000 F200.000
G2 X149.505 Y-165.666 Z-3.000 I0.500 J0.000 F200.000
G2 X148.505 Y-165.666 Z-3.000 I-0.500 J0.000 F200.000
G2 X149.505 Y-165.666 Z-3.000 I0.500 J0.000 F200.000
G0 X149.005 Y-165.666 Z-3.000
G0 Z0.000
G0 Z5.000
G0 X149.005 Y-125.666 Z5.000
G0 X149.005 Y-125.666 Z0.000
G0 X149.505 Y-125.666
G1 Z0.000 F120.000
G2 X148.505 Y-125.666 Z-0.750 I-0.500 J0.000 F200.000
G2 X149.505 Y-125.666 Z-1.500 I0.500 J0.000 F200.000
G2 X148.505 Y-125.666 Z-2.250 I-0.500 J0.000 F200.000
G2 X149.505 Y-125.666 Z-3.000 I0.500 J0.000 F200.000
G2 X148.505 Y-125.666 Z-3.000 I-0.500 J0.000 F200.000
G2 X149.505 Y-125.666 Z-3.000 I0.500 J0.000 F200.000
G0 X149.005 Y-125.666 Z-3.000
G0 Z0.000
G0 Z5.000
G0 X144.005 Y-91.966 Z5.000
G0 X144.005 Y-91.966 Z0.000
G0 X144.505 Y-91.966
G1 Z0.000 F120.000
G2 X143.505 Y-91.966 Z-0.750 I-0.500 J0.000 F200.000
G2 X144.505 Y-91.966 Z-1.500 I0.500 J0.000 F200.000
G2 X143.505 Y-91.966 Z-2.250 I-0.500 J0.000 F200.000
G2 X144.505 Y-91.966 Z-3.000 I0.500 J0.000 F200.000
G2 X143.505 Y-91.966 Z-3.000 I-0.500 J0.000 F200.000
G2 X144.505 Y-91.966 Z-3.000 I0.500 J0.000 F200.000
G0 X144.005 Y-91.966 Z-3.000
G0 Z0.000
G0 Z5.000
G0 X120.005 Y-85.966 Z5.000
G0 X120.005 Y-85.966 Z0.000
G0 X120.505 Y-85.966
G1 Z0.000 F120.000
G2 X119.505 Y-85.966 Z-0.750 I-0.500 J0.000 F200.000
G2 X120.505 Y-85.966 Z-1.500 I0.500 J0.000 F200.000
G2 X119.505 Y-85.966 Z-2.250 I-0.500 J0.000 F200.000
G2 X120.505 Y-85.966 Z-3.000 I0.500 J0.000 F200.000
G2 X119.505 Y-85.966 Z-3.000 I-0.500 J0.000 F200.000
G2 X120.505 Y-85.966 Z-3.000 I0.500 J0.000 F200.000
G0 X120.005 Y-85.966 Z-3.000
G0 Z0.000
G0 Z5.000
(finish operation: Helix)
(begin postamble)
M05 M09
G17 G90 G80 G40
M30
