(Exported by FreeCAD)
(Post Processor: KineticNCBeamicon2_post)
(Output Time:2024-12-15 16:25:07.467597)
(begin preamble)
%
G17 G21 G40 G49 G80 G90
M08
G21
(begin operation: Fixture)
(machine: not set, mm/min)
G54
(finish operation: Fixture)
(begin operation: 2mm_Endmill001)
(machine: not set, mm/min)
(2mm_Endmill001)
M05
M09M6 T2
M3 S10000
(finish operation: 2mm_Endmill001)
(begin operation: Helix)
(machine: not set, mm/min)
(Helix)
(helix cut operation)
G0 Z5.000
G0 Z5.000
G0 X9.600 Y-10.000 Z5.000
G0 X9.600 Y-10.000 Z0.000
G0 X10.250 Y-10.000
G1 Z0.000 F120.000
G2 X8.950 Y-10.000 Z-0.750 I-0.650 J0.000 F200.000
G2 X10.250 Y-10.000 Z-1.500 I0.650 J0.000 F200.000
G2 X8.950 Y-10.000 Z-2.250 I-0.650 J0.000 F200.000
G2 X10.250 Y-10.000 Z-3.000 I0.650 J0.000 F200.000
G2 X8.950 Y-10.000 Z-3.000 I-0.650 J0.000 F200.000
G2 X10.250 Y-10.000 Z-3.000 I0.650 J0.000 F200.000
G0 X9.600 Y-10.000 Z-3.000
G0 Z0.000
G0 Z5.000
G0 X24.000 Y-32.000 Z5.000
G0 X24.000 Y-32.000 Z0.000
G0 X26.750 Y-32.000
G1 Z0.000 F120.000
G2 X21.250 Y-32.000 Z-0.750 I-2.750 J0.000 F200.000
G2 X26.750 Y-32.000 Z-1.500 I2.750 J0.000 F200.000
G2 X21.250 Y-32.000 Z-2.250 I-2.750 J0.000 F200.000
G2 X26.750 Y-32.000 Z-3.000 I2.750 J0.000 F200.000
G2 X21.250 Y-32.000 Z-3.000 I-2.750 J0.000 F200.000
G2 X26.750 Y-32.000 Z-3.000 I2.750 J0.000 F200.000
G0 Z0.000
G0 X25.875 Y-32.000
G1 Z0.000 F120.000
G2 X22.125 Y-32.000 Z-0.750 I-1.875 J0.000 F200.000
G2 X25.875 Y-32.000 Z-1.500 I1.875 J0.000 F200.000
G2 X22.125 Y-32.000 Z-2.250 I-1.875 J0.000 F200.000
G2 X25.875 Y-32.000 Z-3.000 I1.875 J0.000 F200.000
G2 X22.125 Y-32.000 Z-3.000 I-1.875 J0.000 F200.000
G2 X25.875 Y-32.000 Z-3.000 I1.875 J0.000 F200.000
G0 Z0.000
G0 X25.000 Y-32.000
G1 Z0.000 F120.000
G2 X23.000 Y-32.000 Z-0.750 I-1.000 J0.000 F200.000
G2 X25.000 Y-32.000 Z-1.500 I1.000 J0.000 F200.000
G2 X23.000 Y-32.000 Z-2.250 I-1.000 J0.000 F200.000
G2 X25.000 Y-32.000 Z-3.000 I1.000 J0.000 F200.000
G2 X23.000 Y-32.000 Z-3.000 I-1.000 J0.000 F200.000
G2 X25.000 Y-32.000 Z-3.000 I1.000 J0.000 F200.000
G0 Z0.000
G0 Z5.000
G0 X44.023 Y-26.687 Z5.000
G0 X44.023 Y-26.687 Z0.000
G0 X44.773 Y-26.687
G1 Z0.000 F120.000
G2 X43.273 Y-26.687 Z-0.750 I-0.750 J0.000 F200.000
G2 X44.773 Y-26.687 Z-1.500 I0.750 J0.000 F200.000
G2 X43.273 Y-26.687 Z-2.250 I-0.750 J0.000 F200.000
G2 X44.773 Y-26.687 Z-3.000 I0.750 J0.000 F200.000
G2 X43.273 Y-26.687 Z-3.000 I-0.750 J0.000 F200.000
G2 X44.773 Y-26.687 Z-3.000 I0.750 J0.000 F200.000
G0 X44.023 Y-26.687 Z-3.000
G0 Z0.000
G0 Z5.000
G0 X55.100 Y-9.500 Z5.000
G0 X55.100 Y-9.500 Z0.000
G0 X55.750 Y-9.500
G1 Z0.000 F120.000
G2 X54.450 Y-9.500 Z-0.750 I-0.650 J0.000 F200.000
G2 X55.750 Y-9.500 Z-1.500 I0.650 J0.000 F200.000
G2 X54.450 Y-9.500 Z-2.250 I-0.650 J0.000 F200.000
G2 X55.750 Y-9.500 Z-3.000 I0.650 J0.000 F200.000
G2 X54.450 Y-9.500 Z-3.000 I-0.650 J0.000 F200.000
G2 X55.750 Y-9.500 Z-3.000 I0.650 J0.000 F200.000
G0 X55.100 Y-9.500 Z-3.000
G0 Z0.000
G0 Z5.000
G0 X56.779 Y-65.946 Z5.000
G0 X56.779 Y-65.946 Z0.000
G0 X57.529 Y-65.946
G1 Z0.000 F120.000
G2 X56.029 Y-65.946 Z-0.750 I-0.750 J0.000 F200.000
G2 X57.529 Y-65.946 Z-1.500 I0.750 J0.000 F200.000
G2 X56.029 Y-65.946 Z-2.250 I-0.750 J0.000 F200.000
G2 X57.529 Y-65.946 Z-3.000 I0.750 J0.000 F200.000
G2 X56.029 Y-65.946 Z-3.000 I-0.750 J0.000 F200.000
G2 X57.529 Y-65.946 Z-3.000 I0.750 J0.000 F200.000
G0 X56.779 Y-65.946 Z-3.000
G0 Z0.000
G0 Z5.000
G0 X79.000 Y-83.000 Z5.000
G0 X79.000 Y-83.000 Z0.000
G0 X79.650 Y-83.000
G1 Z0.000 F120.000
G2 X78.350 Y-83.000 Z-0.750 I-0.650 J0.000 F200.000
G2 X79.650 Y-83.000 Z-1.500 I0.650 J0.000 F200.000
G2 X78.350 Y-83.000 Z-2.250 I-0.650 J0.000 F200.000
G2 X79.650 Y-83.000 Z-3.000 I0.650 J0.000 F200.000
G2 X78.350 Y-83.000 Z-3.000 I-0.650 J0.000 F200.000
G2 X79.650 Y-83.000 Z-3.000 I0.650 J0.000 F200.000
G0 X79.000 Y-83.000 Z-3.000
G0 Z0.000
G0 Z5.000
G0 X24.000 Y-62.000 Z5.000
G0 X24.000 Y-62.000 Z0.000
G0 X26.750 Y-62.000
G1 Z0.000 F120.000
G2 X21.250 Y-62.000 Z-0.750 I-2.750 J0.000 F200.000
G2 X26.750 Y-62.000 Z-1.500 I2.750 J0.000 F200.000
G2 X21.250 Y-62.000 Z-2.250 I-2.750 J0.000 F200.000
G2 X26.750 Y-62.000 Z-3.000 I2.750 J0.000 F200.000
G2 X21.250 Y-62.000 Z-3.000 I-2.750 J0.000 F200.000
G2 X26.750 Y-62.000 Z-3.000 I2.750 J0.000 F200.000
G0 Z0.000
G0 X25.875 Y-62.000
G1 Z0.000 F120.000
G2 X22.125 Y-62.000 Z-0.750 I-1.875 J0.000 F200.000
G2 X25.875 Y-62.000 Z-1.500 I1.875 J0.000 F200.000
G2 X22.125 Y-62.000 Z-2.250 I-1.875 J0.000 F200.000
G2 X25.875 Y-62.000 Z-3.000 I1.875 J0.000 F200.000
G2 X22.125 Y-62.000 Z-3.000 I-1.875 J0.000 F200.000
G2 X25.875 Y-62.000 Z-3.000 I1.875 J0.000 F200.000
G0 Z0.000
G0 X25.000 Y-62.000
G1 Z0.000 F120.000
G2 X23.000 Y-62.000 Z-0.750 I-1.000 J0.000 F200.000
G2 X25.000 Y-62.000 Z-1.500 I1.000 J0.000 F200.000
G2 X23.000 Y-62.000 Z-2.250 I-1.000 J0.000 F200.000
G2 X25.000 Y-62.000 Z-3.000 I1.000 J0.000 F200.000
G2 X23.000 Y-62.000 Z-3.000 I-1.000 J0.000 F200.000
G2 X25.000 Y-62.000 Z-3.000 I1.000 J0.000 F200.000
G0 Z0.000
G0 Z5.000
G0 X9.000 Y-83.210 Z5.000
G0 X9.000 Y-83.210 Z0.000
G0 X9.650 Y-83.210
G1 Z0.000 F120.000
G2 X8.350 Y-83.210 Z-0.750 I-0.650 J0.000 F200.000
G2 X9.650 Y-83.210 Z-1.500 I0.650 J0.000 F200.000
G2 X8.350 Y-83.210 Z-2.250 I-0.650 J0.000 F200.000
G2 X9.650 Y-83.210 Z-3.000 I0.650 J0.000 F200.000
G2 X8.350 Y-83.210 Z-3.000 I-0.650 J0.000 F200.000
G2 X9.650 Y-83.210 Z-3.000 I0.650 J0.000 F200.000
G0 X9.000 Y-83.210 Z-3.000
G0 Z0.000
G0 Z5.000
(finish operation: Helix)
(begin operation: Profile)
(machine: not set, mm/min)
(Profile)
(Compensated Tool Path. Diameter: 2.0)
G0 Z5.000
G0 X62.447 Y-11.116
G0 Z3.000
G1 X62.447 Y-11.116 Z-2.000 F120.000
G1 X86.211 Y-81.769 Z-2.000 F200.000
G2 X79.632 Y-90.998 Z-2.000 I-6.636 J-2.230 F200.000
G1 X10.000 Y-91.000 Z-2.000 F200.000
G2 X3.002 Y-84.056 Z-2.000 I0.002 J7.001 F200.000
G1 X3.000 Y-10.000 Z-2.000 F200.000
G2 X9.944 Y-3.002 Z-2.000 I7.001 J-0.002 F200.000
G1 X54.688 Y-3.000 Z-2.000 F200.000
G2 X61.303 Y-7.715 Z-2.000 I-0.003 J-7.003 F200.000
G1 X62.447 Y-11.116 Z-2.000 F200.000
G1 X62.447 Y-11.116 Z-3.000 F120.000
G1 X86.211 Y-81.769 Z-3.000 F200.000
G2 X79.632 Y-90.998 Z-3.000 I-6.636 J-2.230 F200.000
G1 X10.000 Y-91.000 Z-3.000 F200.000
G2 X3.002 Y-84.056 Z-3.000 I0.002 J7.001 F200.000
G1 X3.000 Y-10.000 Z-3.000 F200.000
G2 X9.944 Y-3.002 Z-3.000 I7.001 J-0.002 F200.000
G1 X54.688 Y-3.000 Z-3.000 F200.000
G2 X61.303 Y-7.715 Z-3.000 I-0.003 J-7.003 F200.000
G1 X62.447 Y-11.116 Z-3.000 F200.000
G0 Z5.000
G0 Z5.000
(finish operation: Profile)
(begin operation: 1.5mm_endmill001)
(machine: not set, mm/min)
(1.5mm_endmill001)
M05
M09M6 T3
M3 S10000
(finish operation: 1.5mm_endmill001)
(begin operation: Profile001)
(machine: not set, mm/min)
(Profile001)
(Compensated Tool Path. Diameter: 1.5)
G0 Z5.000
G0 X46.892 Y-34.708
G0 Z3.000
G1 X46.892 Y-34.708 Z-1.500 F120.000
G1 X55.269 Y-60.489 Z-1.500 F200.000
G1 X54.793 Y-60.644 Z-1.500 F200.000
G1 X45.532 Y-32.141 Z-1.500 F200.000
G2 X46.008 Y-31.986 Z-1.500 I34278.318 J-105498.110 F200.000
G1 X46.892 Y-34.708 Z-1.500 F200.000
G1 X46.892 Y-34.708 Z-3.000 F120.000
G1 X55.269 Y-60.489 Z-3.000 F200.000
G1 X54.793 Y-60.644 Z-3.000 F200.000
G1 X45.532 Y-32.141 Z-3.000 F200.000
G2 X46.008 Y-31.986 Z-3.000 I34278.318 J-105498.110 F200.000
G1 X46.892 Y-34.708 Z-3.000 F200.000
G0 Z5.000
G0 Z5.000
(finish operation: Profile001)
(begin postamble)
M05 M09
G17 G90 G80 G40
M30
