(G-CODE GENERATED BY FLATCAM v8.994 - www.flatcam.org - Version Date: 2020/11/7)

(Name: bms test circuit.drl_edit_cnc)
(Type: G-code from Geometry)
(Units: MM)

(Created on Wednesday, 10 July 2024 at 16:56)

(This preprocessor is the default preprocessor used by FlatCAM.)
(It is made to work with MACH3 compatible motion controllers.)


(TOOLS DIAMETER: )
(Tool: 1 -> Dia: 0.8)
(Tool: 2 -> Dia: 0.9)
(Tool: 3 -> Dia: 1.0)
(Tool: 4 -> Dia: 1.8)
(Tool: 5 -> Dia: 3.0)

(FEEDRATE Z: )
(Tool: 1 -> Feedrate: 300)
(Tool: 2 -> Feedrate: 300)
(Tool: 3 -> Feedrate: 300)
(Tool: 4 -> Feedrate: 300)
(Tool: 5 -> Feedrate: 300)

(FEEDRATE RAPIDS: )
(Tool: 1 -> Feedrate Rapids: 1500)
(Tool: 2 -> Feedrate Rapids: 1500)
(Tool: 3 -> Feedrate Rapids: 1500)
(Tool: 4 -> Feedrate Rapids: 1500)
(Tool: 5 -> Feedrate Rapids: 1500)

(Z_CUT: )
(Tool: 1 -> Z_Cut: -2.0)
(Tool: 2 -> Z_Cut: -1.7)
(Tool: 3 -> Z_Cut: -1.7)
(Tool: 4 -> Z_Cut: -1.7)
(Tool: 5 -> Z_Cut: -1.7)

(Tools Offset: )
(Tool: 1 -> Offset Z: 0.0)

(Z_MOVE: )
(Tool: 1 -> Z_Move: 2)
(Tool: 2 -> Z_Move: 2)
(Tool: 3 -> Z_Move: 2)
(Tool: 4 -> Z_Move: 2)
(Tool: 5 -> Z_Move: 2)

(Z Toolchange: 15 mm)
(X,Y Toolchange: 0.0000, 0.0000 mm)
(Z Start: None mm)
(Z End: 10.0 mm)
(X,Y End: None mm)
(Steps per circle: 64)
(Preprocessor Excellon: default)

(X range:   10.4580 ...  100.9610  mm)
(Y range:  -57.2580 ...   -2.2720  mm)

(Spindle Speed: 8000 RPM)
G21
G90
G94

G01 F300.00

M5
G00 Z15.0000
T1
G00 X0.0000 Y0.0000                
M6
(MSG, Change to Tool Dia = 0.8000 ||| Total drills for tool T1 = 10)
M0
G00 Z15.0000

G01 F300.00
M03 S8000
G00 X72.3850 Y-40.6450
G01 Z-2.0000
G01 Z0
G00 Z2.0000
G00 X72.4100 Y-38.1050
G01 Z-2.0000
G01 Z0
G00 Z2.0000
G00 X68.6000 Y-2.6720
G01 Z-2.0000
G01 Z0
G00 Z2.0000
G00 X76.2200 Y-2.6720
G01 Z-2.0000
G01 Z0
G00 Z2.0000
G00 X91.3330 Y-38.1050
G01 Z-2.0000
G01 Z0
G00 Z2.0000
G00 X91.3080 Y-40.6450
G01 Z-2.0000
G01 Z0
G00 Z2.0000
G00 X91.2060 Y-49.0270
G01 Z-2.0000
G01 Z0
G00 Z2.0000
G00 X91.2060 Y-51.5670
G01 Z-2.0000
G01 Z0
G00 Z2.0000
G00 X72.4100 Y-51.4400
G01 Z-2.0000
G01 Z0
G00 Z2.0000
G00 X72.4100 Y-48.9000
G01 Z-2.0000
G01 Z0
G00 Z2.0000
M05
G00 Z10.00


