(G-CODE GENERATED BY FLATCAM v8.994 - www.flatcam.org - Version Date: 2020/11/7)

(Name: bms test circuit.drl_edit_cnc)
(Type: G-code from Geometry)
(Units: MM)

(Created on Wednesday, 10 July 2024 at 16:59)

(This preprocessor is the default preprocessor used by FlatCAM.)
(It is made to work with MACH3 compatible motion controllers.)


(TOOLS DIAMETER: )
(Tool: 1 -> Dia: 0.8)
(Tool: 2 -> Dia: 0.9)
(Tool: 3 -> Dia: 1.0)
(Tool: 4 -> Dia: 1.8)
(Tool: 5 -> Dia: 3.0)

(FEEDRATE Z: )
(Tool: 1 -> Feedrate: 300)
(Tool: 2 -> Feedrate: 300)
(Tool: 3 -> Feedrate: 300)
(Tool: 4 -> Feedrate: 300)
(Tool: 5 -> Feedrate: 300)

(FEEDRATE RAPIDS: )
(Tool: 1 -> Feedrate Rapids: 1500)
(Tool: 2 -> Feedrate Rapids: 1500)
(Tool: 3 -> Feedrate Rapids: 1500)
(Tool: 4 -> Feedrate Rapids: 1500)
(Tool: 5 -> Feedrate Rapids: 1500)

(Z_CUT: )
(Tool: 1 -> Z_Cut: -1.7)
(Tool: 2 -> Z_Cut: -1.7)
(Tool: 3 -> Z_Cut: -2.0)
(Tool: 4 -> Z_Cut: -1.7)
(Tool: 5 -> Z_Cut: -1.7)

(Tools Offset: )
(Tool: 3 -> Offset Z: 0.0)

(Z_MOVE: )
(Tool: 1 -> Z_Move: 2)
(Tool: 2 -> Z_Move: 2)
(Tool: 3 -> Z_Move: 2)
(Tool: 4 -> Z_Move: 2)
(Tool: 5 -> Z_Move: 2)

(Z Toolchange: 15 mm)
(X,Y Toolchange: 0.0000, 0.0000 mm)
(Z Start: None mm)
(Z End: 10.0 mm)
(X,Y End: None mm)
(Steps per circle: 64)
(Preprocessor Excellon: default)

(X range:   10.4580 ...  100.9610  mm)
(Y range:  -57.2580 ...   -2.2720  mm)

(Spindle Speed: 8000 RPM)
G21
G90
G94

G01 F300.00

M5
G00 Z15.0000
T3
G00 X0.0000 Y0.0000                
M6
(MSG, Change to Tool Dia = 1.0000 ||| Total drills for tool T3 = 23)
M0
G00 Z15.0000

G01 F300.00
M03 S8000
G00 X71.8180 Y-10.8570
G01 Z-2.0000
G01 Z0
G00 Z2.0000
G00 X74.3580 Y-10.8570
G01 Z-2.0000
G01 Z0
G00 Z2.0000
G00 X76.8980 Y-10.8570
G01 Z-2.0000
G01 Z0
G00 Z2.0000
G00 X79.4380 Y-10.8570
G01 Z-2.0000
G01 Z0
G00 Z2.0000
G00 X81.9780 Y-10.8570
G01 Z-2.0000
G01 Z0
G00 Z2.0000
G00 X84.5180 Y-10.8570
G01 Z-2.0000
G01 Z0
G00 Z2.0000
G00 X87.0180 Y-18.6070
G01 Z-2.0000
G01 Z0
G00 Z2.0000
G00 X87.0180 Y-21.1470
G01 Z-2.0000
G01 Z0
G00 Z2.0000
G00 X91.5870 Y-27.3100
G01 Z-2.0000
G01 Z0
G00 Z2.0000
G00 X87.0180 Y-23.6870
G01 Z-2.0000
G01 Z0
G00 Z2.0000
G00 X66.8220 Y-16.2610
G01 Z-2.0000
G01 Z0
G00 Z2.0000
G00 X61.8690 Y-22.6110
G01 Z-2.0000
G01 Z0
G00 Z2.0000
G00 X58.6940 Y-29.2150
G01 Z-2.0000
G01 Z0
G00 Z2.0000
G00 X68.4730 Y-36.2480
G01 Z-2.0000
G01 Z0
G00 Z2.0000
G00 X63.7740 Y-43.4390
G01 Z-2.0000
G01 Z0
G00 Z2.0000
G00 X55.3920 Y-38.2340
G01 Z-2.0000
G01 Z0
G00 Z2.0000
G00 X52.7250 Y-38.3590
G01 Z-2.0000
G01 Z0
G00 Z2.0000
G00 X42.1840 Y-37.3430
G01 Z-2.0000
G01 Z0
G00 Z2.0000
G00 X37.7390 Y-22.6110
G01 Z-2.0000
G01 Z0
G00 Z2.0000
G00 X33.1670 Y-21.4680
G01 Z-2.0000
G01 Z0
G00 Z2.0000
G00 X33.1670 Y-18.5470
G01 Z-2.0000
G01 Z0
G00 Z2.0000
G00 X43.5810 Y-5.8470
G01 Z-2.0000
G01 Z0
G00 Z2.0000
G00 X66.8220 Y-4.9580
G01 Z-2.0000
G01 Z0
G00 Z2.0000
M05
G00 Z10.00


