(G-CODE GENERATED BY FLATCAM v8.994 - www.flatcam.org - Version Date: 2020/11/7)

(Name: bms test circuit-B_Cu.gbr_iso_combined_cnc)
(Type: G-code from Geometry)
(Units: MM)

(Created on Wednesday, 10 July 2024 at 16:53)

(This preprocessor is the default preprocessor used by FlatCAM.)
(It is made to work with MACH3 compatible motion controllers.)

(TOOL DIAMETER: 0.39 mm)
(Feedrate_XY: 120.0 mm/min)
(Feedrate_Z: 60.0 mm/min)
(Feedrate rapids 1500.0 mm/min)

(Z_Cut: -0.05 mm)
(Z_Move: 2.0 mm)
(Z Start: None mm)
(Z End: 15.0 mm)
(X,Y End: None mm)
(Steps per circle: 64)
(Preprocessor Geometry: default)

(X range:    7.7495 ...  103.7965  mm)
(Y range:  -59.9665 ...    0.0125  mm)

(Spindle Speed: 8000.0 RPM)
G21
G90
G94

G01 F120.00

M5
G00 Z15.0000
G00 X0.0000 Y0.0000
T1
M6    
(MSG, Change to Tool Dia = 0.3900)
M0
G00 Z15.0000

M03 S8000.0
G01 F120.00
G00 X10.5573 Y-4.8452
G01 F60.00
G01 Z-0.0500
G01 F120.00
G01 X10.6681 Y-5.0607
G01 X10.8091 Y-5.2578
G01 X10.9773 Y-5.4323
G01 X11.1691 Y-5.5804
G01 X11.3804 Y-5.6990
G01 X11.6068 Y-5.7856
G01 X11.8433 Y-5.8382
G01 X12.0245 Y-5.8515
G01 X12.2062 Y-5.8515
G01 X12.4459 Y-5.8162
G01 X12.6780 Y-5.7464
G01 X12.8974 Y-5.6435
G01 X13.0995 Y-5.5098
G01 X13.2800 Y-5.3481
G01 X13.4350 Y-5.1618
G01 X13.5612 Y-4.9550
G01 X13.6560 Y-4.7320
G01 X13.7173 Y-4.4975
G01 X13.7438 Y-4.2566
G01 X13.7350 Y-4.0145
G01 X13.6910 Y-3.7761
G01 X13.6127 Y-3.5468
G01 X13.5019 Y-3.3313
G01 X13.3609 Y-3.1342
G01 X13.1927 Y-2.9597
G01 X13.0009 Y-2.8116
G01 X12.7896 Y-2.6930
G01 X12.5632 Y-2.6064
G01 X12.3267 Y-2.5538
G01 X12.1455 Y-2.5405
G01 X11.9638 Y-2.5405
G01 X11.7241 Y-2.5758
G01 X11.4920 Y-2.6456
G01 X11.2726 Y-2.7485
G01 X11.0705 Y-2.8822
G01 X10.8900 Y-3.0439
G01 X10.7350 Y-3.2302
G01 X10.6088 Y-3.4370
G01 X10.5140 Y-3.6600
G01 X10.4527 Y-3.8945
G01 X10.4262 Y-4.1354
G01 X10.4350 Y-4.3775
G01 X10.4790 Y-4.6159
G01 X10.5573 Y-4.8452
G00 Z2.0000
G00 X10.8272 Y-4.7305
G01 F60.00
G01 Z-0.0500
G01 F120.00
G01 X10.9184 Y-4.9079
G01 X11.0345 Y-5.0702
G01 X11.1730 Y-5.2138
G01 X11.3309 Y-5.3358
G01 X11.5049 Y-5.4334
G01 X11.6913 Y-5.5047
G01 X11.8860 Y-5.5481
G01 X12.0352 Y-5.5590
G01 X12.1848 Y-5.5590
G01 X12.3822 Y-5.5299
G01 X12.5732 Y-5.4725
G01 X12.7539 Y-5.3878
G01 X12.9203 Y-5.2777
G01 X13.0689 Y-5.1446
G01 X13.1965 Y-4.9912
G01 X13.3004 Y-4.8209
G01 X13.3785 Y-4.6373
G01 X13.4289 Y-4.4442
G01 X13.4507 Y-4.2459
G01 X13.4434 Y-4.0465
G01 X13.4072 Y-3.8503
G01 X13.3428 Y-3.6615
G01 X13.2516 Y-3.4841
G01 X13.1355 Y-3.3218
G01 X12.9970 Y-3.1782
G01 X12.8391 Y-3.0562
G01 X12.6651 Y-2.9586
G01 X12.4787 Y-2.8873
G01 X12.2840 Y-2.8439
G01 X12.1348 Y-2.8330
G01 X11.9852 Y-2.8330
G01 X11.7878 Y-2.8621
G01 X11.5968 Y-2.9195
G01 X11.4161 Y-3.0042
G01 X11.2497 Y-3.1143
G01 X11.1011 Y-3.2474
G01 X10.9735 Y-3.4008
G01 X10.8696 Y-3.5711
G01 X10.7916 Y-3.7547
G01 X10.7411 Y-3.9478
G01 X10.7193 Y-4.1461
G01 X10.7266 Y-4.3455
G01 X10.7628 Y-4.5417
G01 X10.8272 Y-4.7305
G00 Z2.0000
G00 X11.0971 Y-4.6158
G01 F60.00
G01 Z-0.0500
G01 F120.00
G01 X11.1688 Y-4.7552
G01 X11.2600 Y-4.8826
G01 X11.3687 Y-4.9954
G01 X11.4928 Y-5.0912
G01 X11.6294 Y-5.1679
G01 X11.7758 Y-5.2239
G01 X11.9287 Y-5.2579
G01 X12.0459 Y-5.2665
G01 X12.1633 Y-5.2665
G01 X12.3184 Y-5.2437
G01 X12.4684 Y-5.1985
G01 X12.6103 Y-5.1320
G01 X12.7410 Y-5.0456
G01 X12.8577 Y-4.9410
G01 X12.9580 Y-4.8205
G01 X13.0396 Y-4.6868
G01 X13.1009 Y-4.5426
G01 X13.1405 Y-4.3910
G01 X13.1576 Y-4.2352
G01 X13.1519 Y-4.0786
G01 X13.1235 Y-3.9245
G01 X13.0729 Y-3.7762
G01 X13.0012 Y-3.6368
G01 X12.9100 Y-3.5094
G01 X12.8013 Y-3.3966
G01 X12.6772 Y-3.3008
G01 X12.5406 Y-3.2241
G01 X12.3942 Y-3.1681
G01 X12.2413 Y-3.1341
G01 X12.1241 Y-3.1255
G01 X12.0066 Y-3.1255
G01 X11.8516 Y-3.1483
G01 X11.7016 Y-3.1935
G01 X11.5597 Y-3.2600
G01 X11.4290 Y-3.3464
G01 X11.3123 Y-3.4510
G01 X11.2120 Y-3.5715
G01 X11.1304 Y-3.7052
G01 X11.0691 Y-3.8494
G01 X11.0295 Y-4.0010
G01 X11.0124 Y-4.1568
G01 X11.0181 Y-4.3134
G01 X11.0465 Y-4.4675
G01 X11.0971 Y-4.6158
G00 Z2.0000
G00 X25.8934 Y-10.8474
G01 F60.00
G01 Z-0.0500
G01 F120.00
G01 X25.8934 Y-10.8666
G01 X25.8987 Y-10.9682
G01 X25.9150 Y-11.0784
G01 X25.9421 Y-11.1864
G01 X25.9796 Y-11.2913
G01 X26.0272 Y-11.3919
G01 X26.0844 Y-11.4875
G01 X26.1508 Y-11.5769
G01 X26.2256 Y-11.6594
G01 X26.3081 Y-11.7342
G01 X26.3975 Y-11.8006
G01 X26.4931 Y-11.8578
G01 X26.5937 Y-11.9054
G01 X26.6986 Y-11.9429
G01 X26.8066 Y-11.9700
G01 X26.9168 Y-11.9863
G01 X27.0280 Y-11.9918
G01 X27.1392 Y-11.9863
G01 X27.2494 Y-11.9700
G01 X27.3574 Y-11.9429
G01 X27.4623 Y-11.9054
G01 X27.5629 Y-11.8578
G01 X27.6585 Y-11.8006
G01 X27.7479 Y-11.7342
G01 X27.8304 Y-11.6594
G01 X27.9052 Y-11.5769
G01 X27.9716 Y-11.4875
G01 X28.0288 Y-11.3919
G01 X28.0764 Y-11.2913
G01 X28.1139 Y-11.1864
G01 X28.1410 Y-11.0784
G01 X28.1573 Y-10.9682
G01 X28.1628 Y-10.8570
G01 X28.1573 Y-10.7458
G01 X28.1410 Y-10.6356
G01 X28.1139 Y-10.5276
G01 X28.0764 Y-10.4227
G01 X28.0288 Y-10.3221
G01 X27.9716 Y-10.2265
G01 X27.9052 Y-10.1371
G01 X27.8304 Y-10.0546
G01 X27.7479 Y-9.9798
G01 X27.6585 Y-9.9134
G01 X27.5629 Y-9.8562
G01 X27.4623 Y-9.8086
G01 X27.3574 Y-9.7711
G01 X27.2494 Y-9.7440
G01 X27.1392 Y-9.7277
G01 X27.0280 Y-9.7222
G01 X26.9168 Y-9.7277
G01 X26.8066 Y-9.7440
G01 X26.6986 Y-9.7711
G01 X26.5937 Y-9.8086
G01 X26.4931 Y-9.8562
G01 X26.3975 Y-9.9134
G01 X26.3081 Y-9.9798
G01 X26.2256 Y-10.0546
G01 X26.1508 Y-10.1371
G01 X26.0844 Y-10.2265
G01 X26.0272 Y-10.3221
G01 X25.9796 Y-10.4227
G01 X25.9421 Y-10.5276
G01 X25.9150 Y-10.6356
G01 X25.8987 Y-10.7458
G01 X25.8934 Y-10.8474
G00 Z2.0000
G00 X28.4334 Y-10.8474
G01 F60.00
G01 Z-0.0500
G01 F120.00
G01 X28.4334 Y-10.8666
G01 X28.4387 Y-10.9682
G01 X28.4550 Y-11.0784
G01 X28.4821 Y-11.1864
G01 X28.5196 Y-11.2913
G01 X28.5672 Y-11.3919
G01 X28.6244 Y-11.4875
G01 X28.6908 Y-11.5769
G01 X28.7656 Y-11.6594
G01 X28.8481 Y-11.7342
G01 X28.9375 Y-11.8006
G01 X29.0331 Y-11.8578
G01 X29.1337 Y-11.9054
G01 X29.2386 Y-11.9429
G01 X29.3466 Y-11.9700
G01 X29.4568 Y-11.9863
G01 X29.5680 Y-11.9918
G01 X29.6792 Y-11.9863
G01 X29.7894 Y-11.9700
G01 X29.8974 Y-11.9429
G01 X30.0023 Y-11.9054
G01 X30.1029 Y-11.8578
G01 X30.1985 Y-11.8006
G01 X30.2879 Y-11.7342
G01 X30.3704 Y-11.6594
G01 X30.4452 Y-11.5769
G01 X30.5116 Y-11.4875
G01 X30.5688 Y-11.3919
G01 X30.6164 Y-11.2913
G01 X30.6539 Y-11.1864
G01 X30.6810 Y-11.0784
G01 X30.6973 Y-10.9682
G01 X30.7028 Y-10.8570
G01 X30.6973 Y-10.7458
G01 X30.6810 Y-10.6356
G01 X30.6539 Y-10.5276
G01 X30.6164 Y-10.4227
G01 X30.5688 Y-10.3221
G01 X30.5116 Y-10.2265
G01 X30.4452 Y-10.1371
G01 X30.3704 Y-10.0546
G01 X30.2879 Y-9.9798
G01 X30.1985 Y-9.9134
G01 X30.1029 Y-9.8562
G01 X30.0023 Y-9.8086
G01 X29.8974 Y-9.7711
G01 X29.7894 Y-9.7440
G01 X29.6792 Y-9.7277
G01 X29.5680 Y-9.7222
G01 X29.4568 Y-9.7277
G01 X29.3466 Y-9.7440
G01 X29.2386 Y-9.7711
G01 X29.1337 Y-9.8086
G01 X29.0331 Y-9.8562
G01 X28.9375 Y-9.9134
G01 X28.8481 Y-9.9798
G01 X28.7656 Y-10.0546
G01 X28.6908 Y-10.1371
G01 X28.6244 Y-10.2265
G01 X28.5672 Y-10.3221
G01 X28.5196 Y-10.4227
G01 X28.4821 Y-10.5276
G01 X28.4550 Y-10.6356
G01 X28.4387 Y-10.7458
G01 X28.4334 Y-10.8474
G00 Z2.0000
G00 X30.9734 Y-10.8474
G01 F60.00
G01 Z-0.0500
G01 F120.00
G01 X30.9734 Y-10.8666
G01 X30.9787 Y-10.9682
G01 X30.9950 Y-11.0784
G01 X31.0221 Y-11.1864
G01 X31.0596 Y-11.2913
G01 X31.1072 Y-11.3919
G01 X31.1644 Y-11.4875
G01 X31.2308 Y-11.5769
G01 X31.3056 Y-11.6594
G01 X31.3881 Y-11.7342
G01 X31.4775 Y-11.8006
G01 X31.5731 Y-11.8578
G01 X31.6737 Y-11.9054
G01 X31.7786 Y-11.9429
G01 X31.8866 Y-11.9700
G01 X31.9968 Y-11.9863
G01 X32.1080 Y-11.9918
G01 X32.2192 Y-11.9863
G01 X32.3294 Y-11.9700
G01 X32.4374 Y-11.9429
G01 X32.5423 Y-11.9054
G01 X32.6429 Y-11.8578
G01 X32.7385 Y-11.8006
G01 X32.8279 Y-11.7342
G01 X32.9104 Y-11.6594
G01 X32.9852 Y-11.5769
G01 X33.0516 Y-11.4875
G01 X33.1088 Y-11.3919
G01 X33.1564 Y-11.2913
G01 X33.1939 Y-11.1864
G01 X33.2210 Y-11.0784
G01 X33.2373 Y-10.9682
G01 X33.2428 Y-10.8570
G01 X33.2373 Y-10.7458
G01 X33.2210 Y-10.6356
G01 X33.1939 Y-10.5276
G01 X33.1564 Y-10.4227
G01 X33.1088 Y-10.3221
G01 X33.0516 Y-10.2265
G01 X32.9852 Y-10.1371
G01 X32.9104 Y-10.0546
G01 X32.8279 Y-9.9798
G01 X32.7385 Y-9.9134
G01 X32.6429 Y-9.8562
G01 X32.5423 Y-9.8086
G01 X32.4374 Y-9.7711
G01 X32.3294 Y-9.7440
G01 X32.2192 Y-9.7277
G01 X32.1080 Y-9.7222
G01 X31.9968 Y-9.7277
G01 X31.8866 Y-9.7440
G01 X31.7786 Y-9.7711
G01 X31.6737 Y-9.8086
G01 X31.5731 Y-9.8562
G01 X31.4775 Y-9.9134
G01 X31.3881 Y-9.9798
G01 X31.3056 Y-10.0546
G01 X31.2308 Y-10.1371
G01 X31.1644 Y-10.2265
G01 X31.1072 Y-10.3221
G01 X31.0596 Y-10.4227
G01 X31.0221 Y-10.5276
G01 X30.9950 Y-10.6356
G01 X30.9787 Y-10.7458
G01 X30.9734 Y-10.8474
G00 Z2.0000
G00 X33.5134 Y-10.8474
G01 F60.00
G01 Z-0.0500
G01 F120.00
G01 X33.5134 Y-10.8666
G01 X33.5187 Y-10.9682
G01 X33.5350 Y-11.0784
G01 X33.5621 Y-11.1864
G01 X33.5996 Y-11.2913
G01 X33.6472 Y-11.3919
G01 X33.7044 Y-11.4875
G01 X33.7708 Y-11.5769
G01 X33.8456 Y-11.6594
G01 X33.9281 Y-11.7342
G01 X34.0175 Y-11.8006
G01 X34.1131 Y-11.8578
G01 X34.2137 Y-11.9054
G01 X34.3186 Y-11.9429
G01 X34.4266 Y-11.9700
G01 X34.5368 Y-11.9863
G01 X34.6480 Y-11.9918
G01 X34.7592 Y-11.9863
G01 X34.8694 Y-11.9700
G01 X34.9774 Y-11.9429
G01 X35.0823 Y-11.9054
G01 X35.1829 Y-11.8578
G01 X35.2785 Y-11.8006
G01 X35.3679 Y-11.7342
G01 X35.4504 Y-11.6594
G01 X35.5252 Y-11.5769
G01 X35.5916 Y-11.4875
G01 X35.6488 Y-11.3919
G01 X35.6964 Y-11.2913
G01 X35.7339 Y-11.1864
G01 X35.7610 Y-11.0784
G01 X35.7773 Y-10.9682
G01 X35.7828 Y-10.8570
G01 X35.7773 Y-10.7458
G01 X35.7610 Y-10.6356
G01 X35.7339 Y-10.5276
G01 X35.6964 Y-10.4227
G01 X35.6488 Y-10.3221
G01 X35.5916 Y-10.2265
G01 X35.5252 Y-10.1371
G01 X35.4504 Y-10.0546
G01 X35.3679 Y-9.9798
G01 X35.2785 Y-9.9134
G01 X35.1829 Y-9.8562
G01 X35.0823 Y-9.8086
G01 X34.9774 Y-9.7711
G01 X34.8694 Y-9.7440
G01 X34.7592 Y-9.7277
G01 X34.6480 Y-9.7222
G01 X34.5368 Y-9.7277
G01 X34.4266 Y-9.7440
G01 X34.3186 Y-9.7711
G01 X34.2137 Y-9.8086
G01 X34.1131 Y-9.8562
G01 X34.0175 Y-9.9134
G01 X33.9281 Y-9.9798
G01 X33.8456 Y-10.0546
G01 X33.7708 Y-10.1371
G01 X33.7044 Y-10.2265
G01 X33.6472 Y-10.3221
G01 X33.5996 Y-10.4227
G01 X33.5621 Y-10.5276
G01 X33.5350 Y-10.6356
G01 X33.5187 Y-10.7458
G01 X33.5134 Y-10.8474
G00 Z2.0000
G00 X36.0534 Y-10.8474
G01 F60.00
G01 Z-0.0500
G01 F120.00
G01 X36.0534 Y-10.8666
G01 X36.0587 Y-10.9682
G01 X36.0750 Y-11.0784
G01 X36.1021 Y-11.1864
G01 X36.1396 Y-11.2913
G01 X36.1872 Y-11.3919
G01 X36.2444 Y-11.4875
G01 X36.3108 Y-11.5769
G01 X36.3856 Y-11.6594
G01 X36.4681 Y-11.7342
G01 X36.5575 Y-11.8006
G01 X36.6531 Y-11.8578
G01 X36.7537 Y-11.9054
G01 X36.8586 Y-11.9429
G01 X36.9666 Y-11.9700
G01 X37.0768 Y-11.9863
G01 X37.1880 Y-11.9918
G01 X37.2992 Y-11.9863
G01 X37.4094 Y-11.9700
G01 X37.5174 Y-11.9429
G01 X37.6223 Y-11.9054
G01 X37.7229 Y-11.8578
G01 X37.8185 Y-11.8006
G01 X37.9079 Y-11.7342
G01 X37.9904 Y-11.6594
G01 X38.0652 Y-11.5769
G01 X38.1316 Y-11.4875
G01 X38.1888 Y-11.3919
G01 X38.2364 Y-11.2913
G01 X38.2739 Y-11.1864
G01 X38.3010 Y-11.0784
G01 X38.3173 Y-10.9682
G01 X38.3228 Y-10.8570
G01 X38.3173 Y-10.7458
G01 X38.3010 Y-10.6356
G01 X38.2739 Y-10.5276
G01 X38.2364 Y-10.4227
G01 X38.1888 Y-10.3221
G01 X38.1316 Y-10.2265
G01 X38.0652 Y-10.1371
G01 X37.9904 Y-10.0546
G01 X37.9079 Y-9.9798
G01 X37.8185 Y-9.9134
G01 X37.7229 Y-9.8562
G01 X37.6223 Y-9.8086
G01 X37.5174 Y-9.7711
G01 X37.4094 Y-9.7440
G01 X37.2992 Y-9.7277
G01 X37.1880 Y-9.7222
G01 X37.0768 Y-9.7277
G01 X36.9666 Y-9.7440
G01 X36.8586 Y-9.7711
G01 X36.7537 Y-9.8086
G01 X36.6531 Y-9.8562
G01 X36.5575 Y-9.9134
G01 X36.4681 Y-9.9798
G01 X36.3856 Y-10.0546
G01 X36.3108 Y-10.1371
G01 X36.2444 Y-10.2265
G01 X36.1872 Y-10.3221
G01 X36.1396 Y-10.4227
G01 X36.1021 Y-10.5276
G01 X36.0750 Y-10.6356
G01 X36.0587 Y-10.7458
G01 X36.0534 Y-10.8474
G00 Z2.0000
G00 X38.5934 Y-10.8474
G01 F60.00
G01 Z-0.0500
G01 F120.00
G01 X38.5934 Y-10.8666
G01 X38.5987 Y-10.9682
G01 X38.6150 Y-11.0784
G01 X38.6421 Y-11.1864
G01 X38.6796 Y-11.2913
G01 X38.7272 Y-11.3919
G01 X38.7844 Y-11.4875
G01 X38.8508 Y-11.5769
G01 X38.9256 Y-11.6594
G01 X39.0081 Y-11.7342
G01 X39.0975 Y-11.8006
G01 X39.1931 Y-11.8578
G01 X39.2937 Y-11.9054
G01 X39.3986 Y-11.9429
G01 X39.5066 Y-11.9700
G01 X39.6168 Y-11.9863
G01 X39.7280 Y-11.9918
G01 X39.8392 Y-11.9863
G01 X39.9494 Y-11.9700
G01 X40.0574 Y-11.9429
G01 X40.1623 Y-11.9054
G01 X40.2629 Y-11.8578
G01 X40.3585 Y-11.8006
G01 X40.4479 Y-11.7342
G01 X40.5304 Y-11.6594
G01 X40.6052 Y-11.5769
G01 X40.6716 Y-11.4875
G01 X40.7288 Y-11.3919
G01 X40.7764 Y-11.2913
G01 X40.8139 Y-11.1864
G01 X40.8410 Y-11.0784
G01 X40.8573 Y-10.9682
G01 X40.8628 Y-10.8570
G01 X40.8573 Y-10.7458
G01 X40.8410 Y-10.6356
G01 X40.8139 Y-10.5276
G01 X40.7764 Y-10.4227
G01 X40.7288 Y-10.3221
G01 X40.6716 Y-10.2265
G01 X40.6052 Y-10.1371
G01 X40.5304 Y-10.0546
G01 X40.4479 Y-9.9798
G01 X40.3585 Y-9.9134
G01 X40.2629 Y-9.8562
G01 X40.1623 Y-9.8086
G01 X40.0574 Y-9.7711
G01 X39.9494 Y-9.7440
G01 X39.8392 Y-9.7277
G01 X39.7280 Y-9.7222
G01 X39.6168 Y-9.7277
G01 X39.5066 Y-9.7440
G01 X39.3986 Y-9.7711
G01 X39.2937 Y-9.8086
G01 X39.1931 Y-9.8562
G01 X39.0975 Y-9.9134
G01 X39.0081 Y-9.9798
G01 X38.9256 Y-10.0546
G01 X38.8508 Y-10.1371
G01 X38.7844 Y-10.2265
G01 X38.7272 Y-10.3221
G01 X38.6796 Y-10.4227
G01 X38.6421 Y-10.5276
G01 X38.6150 Y-10.6356
G01 X38.5987 Y-10.7458
G01 X38.5934 Y-10.8474
G00 Z2.0000
G00 X40.9776 Y-10.8570
G01 F60.00
G01 Z-0.0500
G01 F120.00
G01 X40.9605 Y-10.6513
G01 X40.9099 Y-10.4513
G01 X40.8270 Y-10.2623
G01 X40.7141 Y-10.0895
G01 X40.5743 Y-9.9377
G01 X40.4115 Y-9.8109
G01 X40.2299 Y-9.7127
G01 X40.0348 Y-9.6457
G01 X39.8312 Y-9.6117
G01 X39.6248 Y-9.6117
G01 X39.4212 Y-9.6457
G01 X39.2261 Y-9.7127
G01 X39.0446 Y-9.8109
G01 X38.8817 Y-9.9377
G01 X38.7419 Y-10.0895
G01 X38.7251 Y-10.1153
G01 X38.7175 Y-10.1261
G01 X38.7092 Y-10.1364
G01 X38.6841 Y-10.1652
G01 X38.6704 Y-10.1788
G01 X38.6554 Y-10.1910
G01 X38.6393 Y-10.2017
G01 X38.6266 Y-10.2086
G01 X38.5589 Y-10.2402
G01 X38.5455 Y-10.2458
G01 X38.5271 Y-10.2518
G01 X38.5082 Y-10.2559
G01 X38.4938 Y-10.2577
G01 X38.4744 Y-10.2584
G01 X38.4599 Y-10.2577
G01 X38.4503 Y-10.2566
G01 X38.3763 Y-10.2465
G01 X38.3573 Y-10.2425
G01 X38.3389 Y-10.2366
G01 X38.3211 Y-10.2289
G01 X38.3083 Y-10.2220
G01 X38.2921 Y-10.2113
G01 X38.2808 Y-10.2023
G01 X38.2276 Y-10.1570
G01 X38.2207 Y-10.1508
G01 X38.2109 Y-10.1409
G01 X38.2018 Y-10.1303
G01 X38.1962 Y-10.1230
G01 X38.1741 Y-10.0895
G01 X38.0343 Y-9.9377
G01 X37.8715 Y-9.8109
G01 X37.6899 Y-9.7127
G01 X37.4948 Y-9.6457
G01 X37.2912 Y-9.6117
G01 X37.0848 Y-9.6117
G01 X36.8812 Y-9.6457
G01 X36.6861 Y-9.7127
G01 X36.5046 Y-9.8109
G01 X36.3417 Y-9.9377
G01 X36.2019 Y-10.0895
G01 X36.1851 Y-10.1153
G01 X36.1775 Y-10.1261
G01 X36.1692 Y-10.1364
G01 X36.1441 Y-10.1652
G01 X36.1304 Y-10.1788
G01 X36.1154 Y-10.1910
G01 X36.0993 Y-10.2017
G01 X36.0866 Y-10.2086
G01 X36.0189 Y-10.2402
G01 X36.0055 Y-10.2458
G01 X35.9918 Y-10.2505
G01 X35.9729 Y-10.2550
G01 X35.9538 Y-10.2577
G01 X35.9344 Y-10.2584
G01 X35.9247 Y-10.2581
G01 X35.9103 Y-10.2566
G01 X35.8363 Y-10.2465
G01 X35.8173 Y-10.2425
G01 X35.7989 Y-10.2366
G01 X35.7855 Y-10.2310
G01 X35.7683 Y-10.2220
G01 X35.7521 Y-10.2113
G01 X35.7408 Y-10.2023
G01 X35.6876 Y-10.1570
G01 X35.6807 Y-10.1508
G01 X35.6709 Y-10.1409
G01 X35.6648 Y-10.1339
G01 X35.6562 Y-10.1230
G01 X35.6341 Y-10.0895
G01 X35.4943 Y-9.9377
G01 X35.3315 Y-9.8109
G01 X35.1499 Y-9.7127
G01 X34.9548 Y-9.6457
G01 X34.7512 Y-9.6117
G01 X34.5448 Y-9.6117
G01 X34.3412 Y-9.6457
G01 X34.1461 Y-9.7127
G01 X33.9646 Y-9.8109
G01 X33.8017 Y-9.9377
G01 X33.6619 Y-10.0895
G01 X33.6451 Y-10.1153
G01 X33.6375 Y-10.1261
G01 X33.6292 Y-10.1364
G01 X33.6041 Y-10.1652
G01 X33.5904 Y-10.1788
G01 X33.5754 Y-10.1910
G01 X33.5593 Y-10.2017
G01 X33.5466 Y-10.2086
G01 X33.4789 Y-10.2402
G01 X33.4655 Y-10.2458
G01 X33.4471 Y-10.2518
G01 X33.4282 Y-10.2559
G01 X33.4138 Y-10.2577
G01 X33.3944 Y-10.2584
G01 X33.3799 Y-10.2577
G01 X33.3703 Y-10.2566
G01 X33.2963 Y-10.2465
G01 X33.2773 Y-10.2425
G01 X33.2589 Y-10.2366
G01 X33.2411 Y-10.2289
G01 X33.2283 Y-10.2220
G01 X33.2121 Y-10.2113
G01 X33.2008 Y-10.2023
G01 X33.1476 Y-10.1570
G01 X33.1407 Y-10.1508
G01 X33.1309 Y-10.1409
G01 X33.1218 Y-10.1303
G01 X33.1162 Y-10.1230
G01 X33.0941 Y-10.0895
G01 X32.9543 Y-9.9377
G01 X32.7915 Y-9.8109
G01 X32.6099 Y-9.7127
G01 X32.4148 Y-9.6457
G01 X32.2112 Y-9.6117
G01 X32.0048 Y-9.6117
G01 X31.8012 Y-9.6457
G01 X31.6061 Y-9.7127
G01 X31.4246 Y-9.8109
G01 X31.2617 Y-9.9377
G01 X31.1219 Y-10.0895
G01 X31.1051 Y-10.1153
G01 X31.0975 Y-10.1261
G01 X31.0892 Y-10.1364
G01 X31.0641 Y-10.1652
G01 X31.0504 Y-10.1788
G01 X31.0354 Y-10.1910
G01 X31.0234 Y-10.1992
G01 X31.0066 Y-10.2086
G01 X30.9389 Y-10.2402
G01 X30.9255 Y-10.2458
G01 X30.9071 Y-10.2518
G01 X30.8882 Y-10.2559
G01 X30.8738 Y-10.2577
G01 X30.8544 Y-10.2584
G01 X30.8399 Y-10.2577
G01 X30.8303 Y-10.2566
G01 X30.7563 Y-10.2465
G01 X30.7373 Y-10.2425
G01 X30.7189 Y-10.2366
G01 X30.7011 Y-10.2289
G01 X30.6842 Y-10.2195
G01 X30.6721 Y-10.2113
G01 X30.6608 Y-10.2023
G01 X30.6076 Y-10.1570
G01 X30.5973 Y-10.1476
G01 X30.5909 Y-10.1409
G01 X30.5848 Y-10.1339
G01 X30.5762 Y-10.1230
G01 X30.5541 Y-10.0895
G01 X30.4143 Y-9.9377
G01 X30.2515 Y-9.8109
G01 X30.0699 Y-9.7127
G01 X29.8748 Y-9.6457
G01 X29.6712 Y-9.6117
G01 X29.4648 Y-9.6117
G01 X29.2612 Y-9.6457
G01 X29.0661 Y-9.7127
G01 X28.8846 Y-9.8109
G01 X28.7217 Y-9.9377
G01 X28.5819 Y-10.0895
G01 X28.5651 Y-10.1153
G01 X28.5575 Y-10.1261
G01 X28.5492 Y-10.1364
G01 X28.5241 Y-10.1652
G01 X28.5104 Y-10.1788
G01 X28.4954 Y-10.1910
G01 X28.4834 Y-10.1992
G01 X28.4666 Y-10.2086
G01 X28.3989 Y-10.2402
G01 X28.3855 Y-10.2458
G01 X28.3671 Y-10.2518
G01 X28.3482 Y-10.2559
G01 X28.3338 Y-10.2577
G01 X28.3144 Y-10.2584
G01 X28.2999 Y-10.2577
G01 X28.2903 Y-10.2566
G01 X28.2210 Y-10.2472
G01 X28.2020 Y-10.2437
G01 X28.1834 Y-10.2382
G01 X28.1655 Y-10.2310
G01 X28.1525 Y-10.2244
G01 X28.1361 Y-10.2142
G01 X28.1208 Y-10.2023
G01 X28.0676 Y-10.1570
G01 X28.0541 Y-10.1443
G01 X28.0448 Y-10.1339
G01 X28.0362 Y-10.1230
G01 X28.0141 Y-10.0895
G01 X27.8743 Y-9.9377
G01 X27.7115 Y-9.8109
G01 X27.5299 Y-9.7127
G01 X27.3348 Y-9.6457
G01 X27.1312 Y-9.6117
G01 X26.9248 Y-9.6117
G01 X26.7212 Y-9.6457
G01 X26.5261 Y-9.7127
G01 X26.3446 Y-9.8109
G01 X26.1817 Y-9.9377
G01 X26.0419 Y-10.0895
G01 X25.9290 Y-10.2623
G01 X25.8461 Y-10.4513
G01 X25.7955 Y-10.6513
G01 X25.7784 Y-10.8570
G01 X25.7955 Y-11.0627
G01 X25.8461 Y-11.2627
G01 X25.9290 Y-11.4517
G01 X26.0419 Y-11.6245
G01 X26.1817 Y-11.7763
G01 X26.3446 Y-11.9031
G01 X26.5261 Y-12.0013
G01 X26.7212 Y-12.0683
G01 X26.9248 Y-12.1023
G01 X27.1312 Y-12.1023
G01 X27.3348 Y-12.0683
G01 X27.5299 Y-12.0013
G01 X27.7114 Y-11.9031
G01 X27.8743 Y-11.7763
G01 X28.0141 Y-11.6245
G01 X28.0309 Y-11.5987
G01 X28.0385 Y-11.5879
G01 X28.0468 Y-11.5777
G01 X28.0719 Y-11.5488
G01 X28.0856 Y-11.5352
G01 X28.1006 Y-11.5230
G01 X28.1126 Y-11.5148
G01 X28.1294 Y-11.5054
G01 X28.1971 Y-11.4738
G01 X28.2105 Y-11.4682
G01 X28.2242 Y-11.4635
G01 X28.2431 Y-11.4590
G01 X28.2623 Y-11.4563
G01 X28.2816 Y-11.4556
G01 X28.2913 Y-11.4559
G01 X28.3057 Y-11.4574
G01 X28.3798 Y-11.4675
G01 X28.3987 Y-11.4715
G01 X28.4171 Y-11.4774
G01 X28.4305 Y-11.4830
G01 X28.4477 Y-11.4920
G01 X28.4639 Y-11.5027
G01 X28.4753 Y-11.5117
G01 X28.5284 Y-11.5570
G01 X28.5387 Y-11.5664
G01 X28.5451 Y-11.5731
G01 X28.5512 Y-11.5801
G01 X28.5598 Y-11.5910
G01 X28.5819 Y-11.6245
G01 X28.7217 Y-11.7763
G01 X28.8846 Y-11.9031
G01 X29.0661 Y-12.0013
G01 X29.2612 Y-12.0683
G01 X29.4648 Y-12.1023
G01 X29.6712 Y-12.1023
G01 X29.8748 Y-12.0683
G01 X30.0699 Y-12.0013
G01 X30.2514 Y-11.9031
G01 X30.4143 Y-11.7763
G01 X30.5541 Y-11.6245
G01 X30.5709 Y-11.5987
G01 X30.5785 Y-11.5879
G01 X30.5868 Y-11.5777
G01 X30.6119 Y-11.5488
G01 X30.6256 Y-11.5352
G01 X30.6406 Y-11.5230
G01 X30.6567 Y-11.5123
G01 X30.6694 Y-11.5054
G01 X30.7371 Y-11.4738
G01 X30.7505 Y-11.4682
G01 X30.7689 Y-11.4622
G01 X30.7878 Y-11.4581
G01 X30.8071 Y-11.4560
G01 X30.8216 Y-11.4556
G01 X30.8313 Y-11.4559
G01 X30.8457 Y-11.4574
G01 X30.9198 Y-11.4675
G01 X30.9387 Y-11.4715
G01 X30.9571 Y-11.4774
G01 X30.9705 Y-11.4830
G01 X30.9877 Y-11.4920
G01 X31.0039 Y-11.5027
G01 X31.0153 Y-11.5117
G01 X31.0684 Y-11.5570
G01 X31.0753 Y-11.5632
G01 X31.0851 Y-11.5731
G01 X31.0942 Y-11.5837
G01 X31.0998 Y-11.5910
G01 X31.1219 Y-11.6245
G01 X31.2617 Y-11.7763
G01 X31.4246 Y-11.9031
G01 X31.6061 Y-12.0013
G01 X31.8012 Y-12.0683
G01 X32.0048 Y-12.1023
G01 X32.2112 Y-12.1023
G01 X32.4148 Y-12.0683
G01 X32.6099 Y-12.0013
G01 X32.7914 Y-11.9031
G01 X32.9543 Y-11.7763
G01 X33.0941 Y-11.6245
G01 X33.1109 Y-11.5987
G01 X33.1185 Y-11.5879
G01 X33.1268 Y-11.5777
G01 X33.1519 Y-11.5488
G01 X33.1656 Y-11.5352
G01 X33.1806 Y-11.5230
G01 X33.1967 Y-11.5123
G01 X33.2094 Y-11.5054
G01 X33.2771 Y-11.4738
G01 X33.2905 Y-11.4682
G01 X33.3089 Y-11.4622
G01 X33.3231 Y-11.4590
G01 X33.3423 Y-11.4563
G01 X33.3616 Y-11.4556
G01 X33.3761 Y-11.4563
G01 X33.3857 Y-11.4574
G01 X33.4598 Y-11.4675
G01 X33.4787 Y-11.4715
G01 X33.4926 Y-11.4758
G01 X33.5105 Y-11.4830
G01 X33.5277 Y-11.4920
G01 X33.5439 Y-11.5027
G01 X33.5553 Y-11.5117
G01 X33.6084 Y-11.5570
G01 X33.6153 Y-11.5632
G01 X33.6251 Y-11.5731
G01 X33.6312 Y-11.5801
G01 X33.6398 Y-11.5910
G01 X33.6619 Y-11.6245
G01 X33.8017 Y-11.7763
G01 X33.9646 Y-11.9031
G01 X34.1461 Y-12.0013
G01 X34.3412 Y-12.0683
G01 X34.5448 Y-12.1023
G01 X34.7512 Y-12.1023
G01 X34.9548 Y-12.0683
G01 X35.1499 Y-12.0013
G01 X35.3314 Y-11.9031
G01 X35.4943 Y-11.7763
G01 X35.6341 Y-11.6245
G01 X35.6509 Y-11.5987
G01 X35.6585 Y-11.5879
G01 X35.6668 Y-11.5777
G01 X35.6919 Y-11.5488
G01 X35.7056 Y-11.5352
G01 X35.7206 Y-11.5230
G01 X35.7367 Y-11.5123
G01 X35.7494 Y-11.5054
G01 X35.8171 Y-11.4738
G01 X35.8305 Y-11.4682
G01 X35.8489 Y-11.4622
G01 X35.8631 Y-11.4590
G01 X35.8823 Y-11.4563
G01 X35.9016 Y-11.4556
G01 X35.9161 Y-11.4563
G01 X35.9257 Y-11.4574
G01 X35.9998 Y-11.4675
G01 X36.0187 Y-11.4715
G01 X36.0326 Y-11.4758
G01 X36.0505 Y-11.4830
G01 X36.0677 Y-11.4920
G01 X36.0839 Y-11.5027
G01 X36.0953 Y-11.5117
G01 X36.1484 Y-11.5570
G01 X36.1553 Y-11.5632
G01 X36.1651 Y-11.5731
G01 X36.1712 Y-11.5801
G01 X36.1798 Y-11.5910
G01 X36.2019 Y-11.6245
G01 X36.3417 Y-11.7763
G01 X36.5046 Y-11.9031
G01 X36.6861 Y-12.0013
G01 X36.8812 Y-12.0683
G01 X37.0848 Y-12.1023
G01 X37.2912 Y-12.1023
G01 X37.4948 Y-12.0683
G01 X37.6899 Y-12.0013
G01 X37.8714 Y-11.9031
G01 X38.0343 Y-11.7763
G01 X38.1741 Y-11.6245
G01 X38.1909 Y-11.5987
G01 X38.1985 Y-11.5879
G01 X38.2068 Y-11.5777
G01 X38.2319 Y-11.5488
G01 X38.2456 Y-11.5352
G01 X38.2606 Y-11.5230
G01 X38.2726 Y-11.5148
G01 X38.2894 Y-11.5054
G01 X38.3571 Y-11.4738
G01 X38.3705 Y-11.4682
G01 X38.3889 Y-11.4622
G01 X38.4031 Y-11.4590
G01 X38.4223 Y-11.4563
G01 X38.4416 Y-11.4556
G01 X38.4513 Y-11.4559
G01 X38.4657 Y-11.4574
G01 X38.5350 Y-11.4668
G01 X38.5540 Y-11.4703
G01 X38.5680 Y-11.4742
G01 X38.5861 Y-11.4810
G01 X38.6035 Y-11.4896
G01 X38.6199 Y-11.4998
G01 X38.6353 Y-11.5117
G01 X38.6884 Y-11.5570
G01 X38.7019 Y-11.5697
G01 X38.7112 Y-11.5801
G01 X38.7198 Y-11.5910
G01 X38.7419 Y-11.6245
G01 X38.8817 Y-11.7763
G01 X39.0446 Y-11.9031
G01 X39.2261 Y-12.0013
G01 X39.4212 Y-12.0683
G01 X39.6248 Y-12.1023
G01 X39.8312 Y-12.1023
G01 X40.0348 Y-12.0683
G01 X40.2299 Y-12.0013
G01 X40.4114 Y-11.9031
G01 X40.5743 Y-11.7763
G01 X40.7141 Y-11.6245
G01 X40.8270 Y-11.4517
G01 X40.9099 Y-11.2627
G01 X40.9605 Y-11.0627
G01 X40.9776 Y-10.8570
G00 Z2.0000
G00 X42.6228 Y-3.6246
G01 F60.00
G01 Z-0.0500
G01 F120.00
G01 X42.6698 Y-3.6428
G01 X42.8529 Y-3.6770
G01 X43.0391 Y-3.6770
G01 X43.2222 Y-3.6428
G01 X43.2692 Y-3.6246
G01 X43.1799 Y-3.5352
G01 X43.1206 Y-3.5498
G01 X43.0432 Y-3.5615
G01 X43.0242 Y-3.5634
G01 X42.9460 Y-3.5670
G01 X42.8678 Y-3.5634
G01 X42.8488 Y-3.5615
G01 X42.7714 Y-3.5498
G01 X42.7121 Y-3.5352
G01 X42.6228 Y-3.6246
G00 Z2.0000
G00 X41.9932 Y-2.9955
G01 F60.00
G01 Z-0.0500
G01 F120.00
G01 X42.0828 Y-2.9059
G01 X42.0682 Y-2.8466
G01 X42.0565 Y-2.7692
G01 X42.0546 Y-2.7502
G01 X42.0510 Y-2.6720
G01 X42.0546 Y-2.5938
G01 X42.0565 Y-2.5748
G01 X42.0682 Y-2.4974
G01 X42.0828 Y-2.4381
G01 X41.9932 Y-2.3485
G01 X41.9539 Y-2.4865
G01 X41.9367 Y-2.6720
G01 X41.9539 Y-2.8575
G01 X41.9932 Y-2.9955
G00 Z2.0000
G00 X42.7121 Y-1.8088
G01 F60.00
G01 Z-0.0500
G01 F120.00
G01 X42.7714 Y-1.7942
G01 X42.8488 Y-1.7825
G01 X42.8678 Y-1.7806
G01 X42.9460 Y-1.7770
G01 X43.0242 Y-1.7806
G01 X43.0432 Y-1.7825
G01 X43.1206 Y-1.7942
G01 X43.1799 Y-1.8088
G01 X43.2692 Y-1.7194
G01 X43.2222 Y-1.7012
G01 X43.0391 Y-1.6670
G01 X42.8529 Y-1.6670
G01 X42.6698 Y-1.7012
G01 X42.6228 Y-1.7194
G01 X42.7121 Y-1.8088
G00 Z2.0000
G00 X43.8092 Y-2.4381
G01 F60.00
G01 Z-0.0500
G01 F120.00
G01 X43.8238 Y-2.4974
G01 X43.8355 Y-2.5748
G01 X43.8374 Y-2.5938
G01 X43.8410 Y-2.6720
G01 X43.8374 Y-2.7502
G01 X43.8355 Y-2.7692
G01 X43.8238 Y-2.8466
G01 X43.8092 Y-2.9059
G01 X43.8988 Y-2.9955
G01 X43.9381 Y-2.8575
G01 X43.9553 Y-2.6720
G01 X43.9381 Y-2.4865
G01 X43.8988 Y-2.3485
G01 X43.8092 Y-2.4381
G00 Z2.0000
G00 X35.3164 Y-3.5668
G01 F60.00
G01 Z-0.0500
G01 F120.00
G01 X35.3356 Y-3.5668
G01 X35.4137 Y-3.5627
G01 X35.5006 Y-3.5498
G01 X35.5858 Y-3.5285
G01 X35.6685 Y-3.4989
G01 X35.7479 Y-3.4613
G01 X35.8232 Y-3.4162
G01 X35.8938 Y-3.3638
G01 X35.9589 Y-3.3049
G01 X36.0178 Y-3.2398
G01 X36.0702 Y-3.1692
G01 X36.1153 Y-3.0939
G01 X36.1529 Y-3.0145
G01 X36.1825 Y-2.9318
G01 X36.2038 Y-2.8466
G01 X36.2167 Y-2.7597
G01 X36.2210 Y-2.6720
G01 X36.2167 Y-2.5843
G01 X36.2038 Y-2.4974
G01 X36.1825 Y-2.4122
G01 X36.1529 Y-2.3295
G01 X36.1153 Y-2.2501
G01 X36.0702 Y-2.1748
G01 X36.0178 Y-2.1042
G01 X35.9589 Y-2.0391
G01 X35.8938 Y-1.9802
G01 X35.8232 Y-1.9278
G01 X35.7479 Y-1.8827
G01 X35.6685 Y-1.8451
G01 X35.5858 Y-1.8155
G01 X35.5006 Y-1.7942
G01 X35.4137 Y-1.7813
G01 X35.3260 Y-1.7770
G01 X35.2383 Y-1.7813
G01 X35.1514 Y-1.7942
G01 X35.0662 Y-1.8155
G01 X34.9835 Y-1.8451
G01 X34.9041 Y-1.8827
G01 X34.8288 Y-1.9278
G01 X34.7582 Y-1.9802
G01 X34.6931 Y-2.0391
G01 X34.6342 Y-2.1042
G01 X34.5818 Y-2.1748
G01 X34.5367 Y-2.2501
G01 X34.4991 Y-2.3295
G01 X34.4695 Y-2.4122
G01 X34.4482 Y-2.4974
G01 X34.4353 Y-2.5843
G01 X34.4310 Y-2.6720
G01 X34.4353 Y-2.7597
G01 X34.4482 Y-2.8466
G01 X34.4695 Y-2.9318
G01 X34.4991 Y-3.0145
G01 X34.5367 Y-3.0939
G01 X34.5818 Y-3.1692
G01 X34.6342 Y-3.2398
G01 X34.6931 Y-3.3049
G01 X34.7582 Y-3.3638
G01 X34.8288 Y-3.4162
G01 X34.9041 Y-3.4613
G01 X34.9835 Y-3.4989
G01 X35.0662 Y-3.5285
G01 X35.1514 Y-3.5498
G01 X35.2383 Y-3.5627
G01 X35.3164 Y-3.5668
G00 Z2.0000
G00 X34.8759 Y-1.7681
G01 F60.00
G01 Z-0.0500
G01 F120.00
G01 X34.7175 Y-1.8662
G01 X34.5798 Y-1.9917
G01 X34.4673 Y-2.1406
G01 X34.3844 Y-2.3072
G01 X34.3334 Y-2.4864
G01 X34.3162 Y-2.6720
G01 X34.3334 Y-2.8576
G01 X34.3844 Y-3.0368
G01 X34.4674 Y-3.2036
G01 X34.5797 Y-3.3523
G01 X34.7175 Y-3.4778
G01 X34.8759 Y-3.5759
G01 X35.0497 Y-3.6433
G01 X35.2328 Y-3.6775
G01 X35.4192 Y-3.6775
G01 X35.6023 Y-3.6433
G01 X35.7761 Y-3.5759
G01 X35.9345 Y-3.4778
G01 X36.0723 Y-3.3523
G01 X36.1846 Y-3.2036
G01 X36.2676 Y-3.0368
G01 X36.3186 Y-2.8575
G01 X36.3358 Y-2.6720
G01 X36.3186 Y-2.4864
G01 X36.2676 Y-2.3072
G01 X36.1846 Y-2.1404
G01 X36.0723 Y-1.9917
G01 X35.9345 Y-1.8662
G01 X35.7761 Y-1.7681
G01 X35.6023 Y-1.7007
G01 X35.4192 Y-1.6665
G01 X35.2328 Y-1.6665
G01 X35.0497 Y-1.7007
G01 X34.8759 Y-1.7681
G00 Z2.0000
G00 X23.3934 Y-18.5974
G01 F60.00
G01 Z-0.0500
G01 F120.00
G01 X23.3934 Y-18.6166
G01 X23.3987 Y-18.7182
G01 X23.4150 Y-18.8284
G01 X23.4421 Y-18.9364
G01 X23.4796 Y-19.0413
G01 X23.5272 Y-19.1419
G01 X23.5844 Y-19.2375
G01 X23.6508 Y-19.3269
G01 X23.7256 Y-19.4094
G01 X23.8081 Y-19.4842
G01 X23.8975 Y-19.5506
G01 X23.9931 Y-19.6078
G01 X24.0937 Y-19.6554
G01 X24.1986 Y-19.6929
G01 X24.3066 Y-19.7200
G01 X24.4168 Y-19.7363
G01 X24.5280 Y-19.7418
G01 X24.6392 Y-19.7363
G01 X24.7494 Y-19.7200
G01 X24.8574 Y-19.6929
G01 X24.9623 Y-19.6554
G01 X25.0629 Y-19.6078
G01 X25.1585 Y-19.5506
G01 X25.2479 Y-19.4842
G01 X25.3304 Y-19.4094
G01 X25.4052 Y-19.3269
G01 X25.4716 Y-19.2375
G01 X25.5288 Y-19.1419
G01 X25.5764 Y-19.0413
G01 X25.6139 Y-18.9364
G01 X25.6410 Y-18.8284
G01 X25.6573 Y-18.7182
G01 X25.6628 Y-18.6070
G01 X25.6573 Y-18.4958
G01 X25.6410 Y-18.3856
G01 X25.6139 Y-18.2776
G01 X25.5764 Y-18.1727
G01 X25.5288 Y-18.0721
G01 X25.4716 Y-17.9765
G01 X25.4052 Y-17.8871
G01 X25.3304 Y-17.8046
G01 X25.2479 Y-17.7298
G01 X25.1585 Y-17.6634
G01 X25.0629 Y-17.6062
G01 X24.9623 Y-17.5586
G01 X24.8574 Y-17.5211
G01 X24.7494 Y-17.4940
G01 X24.6392 Y-17.4777
G01 X24.5280 Y-17.4722
G01 X24.4168 Y-17.4777
G01 X24.3066 Y-17.4940
G01 X24.1986 Y-17.5211
G01 X24.0937 Y-17.5586
G01 X23.9931 Y-17.6062
G01 X23.8975 Y-17.6634
G01 X23.8081 Y-17.7298
G01 X23.7256 Y-17.8046
G01 X23.6508 Y-17.8871
G01 X23.5844 Y-17.9765
G01 X23.5272 Y-18.0721
G01 X23.4796 Y-18.1727
G01 X23.4421 Y-18.2776
G01 X23.4150 Y-18.3856
G01 X23.3987 Y-18.4958
G01 X23.3934 Y-18.5974
G00 Z2.0000
G00 X23.9257 Y-19.9154
G01 F60.00
G01 Z-0.0500
G01 F120.00
G01 X24.1047 Y-20.0944
G01 X24.1986 Y-20.0611
G01 X24.3066 Y-20.0340
G01 X24.4168 Y-20.0177
G01 X24.5280 Y-20.0122
G01 X24.6392 Y-20.0177
G01 X24.7494 Y-20.0340
G01 X24.8574 Y-20.0611
G01 X24.9513 Y-20.0944
G01 X25.1275 Y-19.9182
G01 X25.1271 Y-19.9054
G01 X25.1274 Y-19.8957
G01 X25.1318 Y-19.8163
G01 X25.1347 Y-19.7971
G01 X25.1369 Y-19.7877
G01 X25.1410 Y-19.7738
G01 X25.1443 Y-19.7647
G01 X25.1502 Y-19.7514
G01 X25.1594 Y-19.7344
G01 X25.1675 Y-19.7223
G01 X25.2111 Y-19.6618
G01 X25.2168 Y-19.6546
G01 X25.2261 Y-19.6442
G01 X25.2361 Y-19.6345
G01 X25.2432 Y-19.6285
G01 X25.3743 Y-19.5263
G01 X25.5141 Y-19.3745
G01 X25.6270 Y-19.2017
G01 X25.7099 Y-19.0127
G01 X25.7605 Y-18.8127
G01 X25.7776 Y-18.6070
G01 X25.7605 Y-18.4013
G01 X25.7099 Y-18.2013
G01 X25.6270 Y-18.0123
G01 X25.5141 Y-17.8395
G01 X25.3743 Y-17.6877
G01 X25.2115 Y-17.5609
G01 X25.0299 Y-17.4627
G01 X24.8348 Y-17.3957
G01 X24.6312 Y-17.3617
G01 X24.4248 Y-17.3617
G01 X24.2212 Y-17.3957
G01 X24.0261 Y-17.4627
G01 X23.8446 Y-17.5609
G01 X23.6817 Y-17.6877
G01 X23.5419 Y-17.8395
G01 X23.4290 Y-18.0123
G01 X23.3461 Y-18.2013
G01 X23.2955 Y-18.4013
G01 X23.2784 Y-18.6070
G01 X23.2955 Y-18.8127
G01 X23.3461 Y-19.0127
G01 X23.4290 Y-19.2017
G01 X23.5419 Y-19.3745
G01 X23.6817 Y-19.5263
G01 X23.8092 Y-19.6256
G01 X23.8171 Y-19.6321
G01 X23.8339 Y-19.6470
G01 X23.8438 Y-19.6571
G01 X23.8529 Y-19.6679
G01 X23.8638 Y-19.6833
G01 X23.9079 Y-19.7606
G01 X23.9157 Y-19.7782
G01 X23.9218 Y-19.7966
G01 X23.9252 Y-19.8108
G01 X23.9268 Y-19.8203
G01 X23.9284 Y-19.8347
G01 X23.9289 Y-19.8444
G01 X23.9286 Y-19.8589
G01 X23.9257 Y-19.9154
G00 Z2.0000
G00 X23.3913 Y-20.6396
G01 F60.00
G01 Z-0.0500
G01 F120.00
G01 X23.3466 Y-20.7414
G01 X23.2960 Y-20.9414
G01 X23.2789 Y-21.1470
G01 X23.2960 Y-21.3526
G01 X23.3466 Y-21.5526
G01 X23.3913 Y-21.6544
G01 X23.4754 Y-21.5703
G01 X23.4421 Y-21.4764
G01 X23.4150 Y-21.3684
G01 X23.3987 Y-21.2582
G01 X23.3932 Y-21.1470
G01 X23.3987 Y-21.0358
G01 X23.4150 Y-20.9256
G01 X23.4421 Y-20.8176
G01 X23.4754 Y-20.7237
G01 X23.3913 Y-20.6396
G00 Z2.0000
G00 X23.9285 Y-22.3758
G01 F60.00
G01 Z-0.0500
G01 F120.00
G01 X23.9288 Y-22.3935
G01 X23.9250 Y-22.4681
G01 X23.9237 Y-22.4825
G01 X23.9222 Y-22.4921
G01 X23.9179 Y-22.5110
G01 X23.9117 Y-22.5293
G01 X23.9037 Y-22.5470
G01 X23.8940 Y-22.5637
G01 X23.8449 Y-22.6322
G01 X23.8362 Y-22.6430
G01 X23.8266 Y-22.6531
G01 X23.8199 Y-22.6595
G01 X23.8092 Y-22.6684
G01 X23.6817 Y-22.7677
G01 X23.5419 Y-22.9195
G01 X23.4290 Y-23.0923
G01 X23.3461 Y-23.2813
G01 X23.2955 Y-23.4813
G01 X23.2784 Y-23.6870
G01 X23.2955 Y-23.8927
G01 X23.3461 Y-24.0927
G01 X23.4290 Y-24.2817
G01 X23.5419 Y-24.4545
G01 X23.6817 Y-24.6063
G01 X23.8446 Y-24.7331
G01 X24.0261 Y-24.8313
G01 X24.2212 Y-24.8983
G01 X24.4248 Y-24.9323
G01 X24.6312 Y-24.9323
G01 X24.8348 Y-24.8983
G01 X25.0299 Y-24.8313
G01 X25.2114 Y-24.7331
G01 X25.3743 Y-24.6063
G01 X25.5141 Y-24.4545
G01 X25.6270 Y-24.2817
G01 X25.7099 Y-24.0927
G01 X25.7605 Y-23.8927
G01 X25.7776 Y-23.6870
G01 X25.7605 Y-23.4813
G01 X25.7099 Y-23.2813
G01 X25.6270 Y-23.0923
G01 X25.5141 Y-22.9195
G01 X25.3743 Y-22.7677
G01 X25.2428 Y-22.6652
G01 X25.2255 Y-22.6502
G01 X25.2187 Y-22.6437
G01 X25.2091 Y-22.6334
G01 X25.2002 Y-22.6224
G01 X25.1897 Y-22.6067
G01 X25.1504 Y-22.5377
G01 X25.1460 Y-22.5291
G01 X25.1403 Y-22.5158
G01 X25.1342 Y-22.4974
G01 X25.1308 Y-22.4832
G01 X25.1292 Y-22.4737
G01 X25.1280 Y-22.4641
G01 X25.1271 Y-22.4496
G01 X25.1274 Y-22.4351
G01 X25.1303 Y-22.3786
G01 X24.9513 Y-22.1996
G01 X24.8574 Y-22.2329
G01 X24.7494 Y-22.2600
G01 X24.6392 Y-22.2763
G01 X24.5280 Y-22.2818
G01 X24.4168 Y-22.2763
G01 X24.3066 Y-22.2600
G01 X24.1986 Y-22.2329
G01 X24.1047 Y-22.1996
G01 X23.9285 Y-22.3758
G00 Z2.0000
G00 X25.5806 Y-21.5703
G01 F60.00
G01 Z-0.0500
G01 F120.00
G01 X25.6647 Y-21.6544
G01 X25.7094 Y-21.5526
G01 X25.7600 Y-21.3526
G01 X25.7771 Y-21.1470
G01 X25.7600 Y-20.9414
G01 X25.7094 Y-20.7414
G01 X25.6647 Y-20.6396
G01 X25.5806 Y-20.7237
G01 X25.6139 Y-20.8176
G01 X25.6410 Y-20.9256
G01 X25.6573 Y-21.0358
G01 X25.6628 Y-21.1470
G01 X25.6573 Y-21.2582
G01 X25.6410 Y-21.3684
G01 X25.6139 Y-21.4764
G01 X25.5806 Y-21.5703
G00 Z2.0000
G00 X24.9533 Y-24.7389
G01 F60.00
G01 Z-0.0500
G01 F120.00
G01 X24.9710 Y-24.7315
G01 X25.0629 Y-24.6878
G01 X25.1585 Y-24.6306
G01 X25.2479 Y-24.5642
G01 X25.3304 Y-24.4894
G01 X25.4052 Y-24.4069
G01 X25.4716 Y-24.3175
G01 X25.5288 Y-24.2219
G01 X25.5764 Y-24.1213
G01 X25.6139 Y-24.0164
G01 X25.6410 Y-23.9084
G01 X25.6573 Y-23.7982
G01 X25.6628 Y-23.6870
G01 X25.6573 Y-23.5758
G01 X25.6410 Y-23.4656
G01 X25.6139 Y-23.3576
G01 X25.5764 Y-23.2527
G01 X25.5288 Y-23.1521
G01 X25.4716 Y-23.0565
G01 X25.4052 Y-22.9671
G01 X25.3304 Y-22.8846
G01 X25.2479 Y-22.8098
G01 X25.1585 Y-22.7434
G01 X25.0629 Y-22.6862
G01 X24.9623 Y-22.6386
G01 X24.8574 Y-22.6011
G01 X24.7494 Y-22.5740
G01 X24.6392 Y-22.5577
G01 X24.5280 Y-22.5522
G01 X24.4168 Y-22.5577
G01 X24.3066 Y-22.5740
G01 X24.1986 Y-22.6011
G01 X24.0937 Y-22.6386
G01 X23.9931 Y-22.6862
G01 X23.8975 Y-22.7434
G01 X23.8081 Y-22.8098
G01 X23.7256 Y-22.8846
G01 X23.6508 Y-22.9671
G01 X23.5844 Y-23.0565
G01 X23.5272 Y-23.1521
G01 X23.4796 Y-23.2527
G01 X23.4421 Y-23.3576
G01 X23.4150 Y-23.4656
G01 X23.3987 Y-23.5758
G01 X23.3932 Y-23.6870
G01 X23.3987 Y-23.7982
G01 X23.4150 Y-23.9084
G01 X23.4421 Y-24.0164
G01 X23.4796 Y-24.1213
G01 X23.5272 Y-24.2219
G01 X23.5844 Y-24.3175
G01 X23.6508 Y-24.4069
G01 X23.7256 Y-24.4894
G01 X23.8081 Y-24.5642
G01 X23.8975 Y-24.6306
G01 X23.9931 Y-24.6878
G01 X24.0937 Y-24.7354
G01 X24.1986 Y-24.7729
G01 X24.3066 Y-24.8000
G01 X24.4168 Y-24.8163
G01 X24.5280 Y-24.8218
G01 X24.6392 Y-24.8163
G01 X24.7494 Y-24.8000
G01 X24.8574 Y-24.7729
G01 X24.9533 Y-24.7389
G00 Z2.0000
G00 X20.6580 Y-37.2159
G01 F60.00
G01 Z-0.0500
G01 F120.00
G01 X20.6778 Y-37.2253
G01 X20.6862 Y-37.2298
G01 X20.7577 Y-37.2726
G01 X20.7697 Y-37.2804
G01 X20.8442 Y-37.3359
G01 X20.9166 Y-37.4014
G01 X20.9821 Y-37.4738
G01 X21.0376 Y-37.5483
G01 X21.0454 Y-37.5603
G01 X21.0882 Y-37.6318
G01 X21.0927 Y-37.6402
G01 X21.1021 Y-37.6600
G01 X21.2247 Y-37.6600
G01 X21.1736 Y-37.5504
G01 X21.0627 Y-37.3920
G01 X20.9260 Y-37.2553
G01 X20.7676 Y-37.1444
G01 X20.6580 Y-37.0933
G01 X20.6580 Y-37.2159
G00 Z2.0000
G00 X19.2013 Y-37.6600
G01 F60.00
G01 Z-0.0500
G01 F120.00
G01 X19.3239 Y-37.6600
G01 X19.3333 Y-37.6402
G01 X19.3378 Y-37.6318
G01 X19.3806 Y-37.5603
G01 X19.3884 Y-37.5483
G01 X19.4439 Y-37.4738
G01 X19.5094 Y-37.4014
G01 X19.5818 Y-37.3359
G01 X19.6563 Y-37.2804
G01 X19.6683 Y-37.2726
G01 X19.7398 Y-37.2298
G01 X19.7482 Y-37.2253
G01 X19.7680 Y-37.2159
G01 X19.7680 Y-37.0933
G01 X19.6584 Y-37.1444
G01 X19.5000 Y-37.2553
G01 X19.3633 Y-37.3920
G01 X19.2524 Y-37.5504
G01 X19.2013 Y-37.6600
G00 Z2.0000
G00 X19.2013 Y-38.5500
G01 F60.00
G01 Z-0.0500
G01 F120.00
G01 X19.2524 Y-38.6596
G01 X19.3633 Y-38.8180
G01 X19.5000 Y-38.9547
G01 X19.6584 Y-39.0656
G01 X19.7146 Y-39.0918
G01 X19.7277 Y-39.0986
G01 X19.7362 Y-39.1036
G01 X19.7483 Y-39.1119
G01 X19.7561 Y-39.1180
G01 X19.7680 Y-39.1282
G01 X19.7680 Y-38.9941
G01 X19.7482 Y-38.9847
G01 X19.7398 Y-38.9802
G01 X19.6683 Y-38.9374
G01 X19.6563 Y-38.9296
G01 X19.5818 Y-38.8741
G01 X19.5094 Y-38.8086
G01 X19.4439 Y-38.7362
G01 X19.3884 Y-38.6617
G01 X19.3806 Y-38.6497
G01 X19.3378 Y-38.5782
G01 X19.3333 Y-38.5698
G01 X19.3239 Y-38.5500
G01 X19.2013 Y-38.5500
G00 Z2.0000
G00 X19.7934 Y-39.6111
G01 F60.00
G01 Z-0.0500
G01 F120.00
G01 X19.7575 Y-39.6427
G01 X19.7427 Y-39.6539
G01 X19.7350 Y-39.6590
G01 X19.7229 Y-39.6659
G01 X19.6838 Y-39.6844
G01 X19.5254 Y-39.7953
G01 X19.3887 Y-39.9320
G01 X19.2778 Y-40.0904
G01 X19.2267 Y-40.2000
G01 X19.3493 Y-40.2000
G01 X19.3587 Y-40.1802
G01 X19.3632 Y-40.1718
G01 X19.4060 Y-40.1003
G01 X19.4138 Y-40.0883
G01 X19.4693 Y-40.0138
G01 X19.5348 Y-39.9414
G01 X19.6072 Y-39.8759
G01 X19.6817 Y-39.8204
G01 X19.6937 Y-39.8126
G01 X19.7652 Y-39.7698
G01 X19.7736 Y-39.7653
G01 X19.7934 Y-39.7559
G01 X19.7934 Y-39.6111
G00 Z2.0000
G00 X20.6834 Y-39.6218
G01 F60.00
G01 Z-0.0500
G01 F120.00
G01 X20.6834 Y-39.7559
G01 X20.7032 Y-39.7653
G01 X20.7116 Y-39.7698
G01 X20.7831 Y-39.8126
G01 X20.7951 Y-39.8204
G01 X20.8696 Y-39.8759
G01 X20.9420 Y-39.9414
G01 X21.0075 Y-40.0138
G01 X21.0630 Y-40.0883
G01 X21.0708 Y-40.1003
G01 X21.1136 Y-40.1718
G01 X21.1181 Y-40.1802
G01 X21.1275 Y-40.2000
G01 X21.2501 Y-40.2000
G01 X21.1990 Y-40.0904
G01 X21.0881 Y-39.9320
G01 X20.9514 Y-39.7953
G01 X20.7930 Y-39.6844
G01 X20.7368 Y-39.6582
G01 X20.7237 Y-39.6514
G01 X20.7152 Y-39.6464
G01 X20.7031 Y-39.6381
G01 X20.6953 Y-39.6320
G01 X20.6834 Y-39.6218
G00 Z2.0000
G00 X20.6580 Y-38.9941
G01 F60.00
G01 Z-0.0500
G01 F120.00
G01 X20.6580 Y-39.1389
G01 X20.6939 Y-39.1073
G01 X20.7087 Y-39.0961
G01 X20.7204 Y-39.0886
G01 X20.7285 Y-39.0841
G01 X20.7676 Y-39.0656
G01 X20.9260 Y-38.9547
G01 X21.0627 Y-38.8180
G01 X21.1736 Y-38.6596
G01 X21.2247 Y-38.5500
G01 X21.1021 Y-38.5500
G01 X21.0927 Y-38.5698
G01 X21.0882 Y-38.5782
G01 X21.0454 Y-38.6497
G01 X21.0376 Y-38.6617
G01 X20.9821 Y-38.7362
G01 X20.9166 Y-38.8086
G01 X20.8442 Y-38.8741
G01 X20.7697 Y-38.9296
G01 X20.7577 Y-38.9374
G01 X20.6862 Y-38.9802
G01 X20.6778 Y-38.9847
G01 X20.6580 Y-38.9941
G00 Z2.0000
G00 X19.2267 Y-41.0900
G01 F60.00
G01 Z-0.0500
G01 F120.00
G01 X19.2778 Y-41.1996
G01 X19.3887 Y-41.3580
G01 X19.5254 Y-41.4947
G01 X19.6838 Y-41.6056
G01 X19.7934 Y-41.6567
G01 X19.7934 Y-41.5341
G01 X19.7736 Y-41.5247
G01 X19.7652 Y-41.5202
G01 X19.6937 Y-41.4774
G01 X19.6817 Y-41.4696
G01 X19.6072 Y-41.4141
G01 X19.5348 Y-41.3486
G01 X19.4693 Y-41.2762
G01 X19.4138 Y-41.2017
G01 X19.4060 Y-41.1897
G01 X19.3632 Y-41.1182
G01 X19.3587 Y-41.1098
G01 X19.3493 Y-41.0900
G01 X19.2267 Y-41.0900
G00 Z2.0000
G00 X20.6834 Y-41.5341
G01 F60.00
G01 Z-0.0500
G01 F120.00
G01 X20.6834 Y-41.6567
G01 X20.7930 Y-41.6056
G01 X20.9514 Y-41.4947
G01 X21.0881 Y-41.3580
G01 X21.1990 Y-41.1996
G01 X21.2501 Y-41.0900
G01 X21.1275 Y-41.0900
G01 X21.1181 Y-41.1098
G01 X21.1136 Y-41.1182
G01 X21.0708 Y-41.1897
G01 X21.0630 Y-41.2017
G01 X21.0075 Y-41.2762
G01 X20.9420 Y-41.3486
G01 X20.8696 Y-41.4141
G01 X20.7951 Y-41.4696
G01 X20.7831 Y-41.4774
G01 X20.7116 Y-41.5202
G01 X20.7032 Y-41.5247
G01 X20.6834 Y-41.5341
G00 Z2.0000
G00 X19.2691 Y-48.0791
G01 F60.00
G01 Z-0.0500
G01 F120.00
G01 X19.2372 Y-48.1647
G01 X19.2345 Y-48.1896
G01 X19.2345 Y-49.8644
G01 X19.2372 Y-49.8893
G01 X19.2691 Y-49.9749
G01 X19.3220 Y-50.0456
G01 X19.3411 Y-50.0619
G01 X19.3513 Y-50.0714
G01 X19.3608 Y-50.0816
G01 X19.3695 Y-50.0925
G01 X19.3749 Y-50.1000
G01 X19.3823 Y-50.1118
G01 X19.4203 Y-50.1815
G01 X19.4265 Y-50.1946
G01 X19.4301 Y-50.2036
G01 X19.4358 Y-50.2221
G01 X19.4380 Y-50.2316
G01 X19.4403 Y-50.2459
G01 X19.4413 Y-50.2555
G01 X19.4419 Y-50.2700
G01 X19.4414 Y-50.2846
G01 X19.4364 Y-50.3542
G01 X19.4349 Y-50.3687
G01 X19.4322 Y-50.3830
G01 X19.4299 Y-50.3924
G01 X19.4255 Y-50.4062
G01 X19.4201 Y-50.4197
G01 X19.4137 Y-50.4327
G01 X19.4037 Y-50.4493
G01 X19.3562 Y-50.5131
G01 X19.3474 Y-50.5240
G01 X19.3412 Y-50.5308
G01 X19.3312 Y-50.5406
G01 X19.3220 Y-50.5484
G01 X19.2691 Y-50.6191
G01 X19.2372 Y-50.7047
G01 X19.2345 Y-50.7296
G01 X19.2345 Y-52.4044
G01 X19.2372 Y-52.4293
G01 X19.2691 Y-52.5149
G01 X19.3218 Y-52.5852
G01 X19.3921 Y-52.6379
G01 X19.4777 Y-52.6698
G01 X19.5026 Y-52.6725
G01 X21.1774 Y-52.6725
G01 X21.2023 Y-52.6698
G01 X21.2879 Y-52.6379
G01 X21.3582 Y-52.5852
G01 X21.4109 Y-52.5149
G01 X21.4428 Y-52.4293
G01 X21.4455 Y-52.4044
G01 X21.4455 Y-50.7296
G01 X21.4428 Y-50.7047
G01 X21.4109 Y-50.6191
G01 X21.3580 Y-50.5484
G01 X21.3389 Y-50.5321
G01 X21.3287 Y-50.5226
G01 X21.3192 Y-50.5124
G01 X21.3105 Y-50.5015
G01 X21.3025 Y-50.4901
G01 X21.2977 Y-50.4822
G01 X21.2597 Y-50.4125
G01 X21.2535 Y-50.3994
G01 X21.2500 Y-50.3904
G01 X21.2442 Y-50.3719
G01 X21.2420 Y-50.3624
G01 X21.2397 Y-50.3481
G01 X21.2387 Y-50.3385
G01 X21.2381 Y-50.3240
G01 X21.2386 Y-50.3095
G01 X21.2436 Y-50.2398
G01 X21.2451 Y-50.2253
G01 X21.2478 Y-50.2110
G01 X21.2501 Y-50.2016
G01 X21.2545 Y-50.1878
G01 X21.2599 Y-50.1743
G01 X21.2663 Y-50.1613
G01 X21.2763 Y-50.1447
G01 X21.3238 Y-50.0809
G01 X21.3326 Y-50.0700
G01 X21.3388 Y-50.0632
G01 X21.3488 Y-50.0534
G01 X21.3580 Y-50.0456
G01 X21.4109 Y-49.9749
G01 X21.4428 Y-49.8893
G01 X21.4455 Y-49.8644
G01 X21.4455 Y-48.1896
G01 X21.4428 Y-48.1647
G01 X21.4109 Y-48.0791
G01 X21.3582 Y-48.0088
G01 X21.2879 Y-47.9561
G01 X21.2023 Y-47.9242
G01 X21.1774 Y-47.9215
G01 X19.5026 Y-47.9215
G01 X19.4777 Y-47.9242
G01 X19.3921 Y-47.9561
G01 X19.3218 Y-48.0088
G01 X19.2691 Y-48.0791
G00 Z2.0000
G00 X21.1400 Y-50.0220
G01 F60.00
G01 Z-0.0500
G01 F120.00
G01 X21.1591 Y-50.0211
G01 X21.1780 Y-50.0183
G01 X21.1966 Y-50.0136
G01 X21.2146 Y-50.0072
G01 X21.2319 Y-49.9990
G01 X21.2443 Y-49.9917
G01 X21.2600 Y-49.9807
G01 X21.2745 Y-49.9682
G01 X21.2845 Y-49.9580
G01 X21.2966 Y-49.9432
G01 X21.3073 Y-49.9272
G01 X21.3163 Y-49.9104
G01 X21.3236 Y-49.8927
G01 X21.3279 Y-49.8790
G01 X21.3321 Y-49.8603
G01 X21.3345 Y-49.8413
G01 X21.3350 Y-49.8270
G01 X21.3349 Y-48.2222
G01 X21.3341 Y-48.2079
G01 X21.3313 Y-48.1890
G01 X21.3266 Y-48.1704
G01 X21.3219 Y-48.1568
G01 X21.3142 Y-48.1393
G01 X21.3047 Y-48.1227
G01 X21.2937 Y-48.1070
G01 X21.2845 Y-48.0960
G01 X21.2710 Y-48.0825
G01 X21.2562 Y-48.0704
G01 X21.2443 Y-48.0623
G01 X21.2361 Y-48.0573
G01 X21.2190 Y-48.0487
G01 X21.2012 Y-48.0418
G01 X21.1920 Y-48.0391
G01 X21.1780 Y-48.0357
G01 X21.1591 Y-48.0329
G01 X21.1400 Y-48.0320
G01 X19.5352 Y-48.0321
G01 X19.5209 Y-48.0329
G01 X19.5020 Y-48.0357
G01 X19.4834 Y-48.0404
G01 X19.4698 Y-48.0451
G01 X19.4523 Y-48.0528
G01 X19.4398 Y-48.0597
G01 X19.4238 Y-48.0704
G01 X19.4090 Y-48.0825
G01 X19.3955 Y-48.0960
G01 X19.3834 Y-48.1108
G01 X19.3727 Y-48.1268
G01 X19.3680 Y-48.1351
G01 X19.3617 Y-48.1480
G01 X19.3548 Y-48.1658
G01 X19.3508 Y-48.1796
G01 X19.3487 Y-48.1890
G01 X19.3459 Y-48.2079
G01 X19.3450 Y-48.2270
G01 X19.3451 Y-49.8318
G01 X19.3459 Y-49.8461
G01 X19.3487 Y-49.8650
G01 X19.3521 Y-49.8790
G01 X19.3581 Y-49.8972
G01 X19.3658 Y-49.9147
G01 X19.3753 Y-49.9313
G01 X19.3834 Y-49.9432
G01 X19.3955 Y-49.9580
G01 X19.4021 Y-49.9649
G01 X19.4126 Y-49.9747
G01 X19.4277 Y-49.9864
G01 X19.4439 Y-49.9967
G01 X19.4610 Y-50.0053
G01 X19.4788 Y-50.0122
G01 X19.4973 Y-50.0173
G01 X19.5161 Y-50.0205
G01 X19.5352 Y-50.0219
G01 X21.1400 Y-50.0220
G00 Z2.0000
G00 X21.1400 Y-52.5620
G01 F60.00
G01 Z-0.0500
G01 F120.00
G01 X21.1591 Y-52.5611
G01 X21.1780 Y-52.5583
G01 X21.1966 Y-52.5536
G01 X21.2146 Y-52.5472
G01 X21.2319 Y-52.5390
G01 X21.2443 Y-52.5317
G01 X21.2600 Y-52.5207
G01 X21.2745 Y-52.5082
G01 X21.2845 Y-52.4980
G01 X21.2966 Y-52.4832
G01 X21.3073 Y-52.4672
G01 X21.3163 Y-52.4504
G01 X21.3236 Y-52.4327
G01 X21.3279 Y-52.4190
G01 X21.3321 Y-52.4003
G01 X21.3345 Y-52.3813
G01 X21.3350 Y-52.3670
G01 X21.3349 Y-50.7622
G01 X21.3341 Y-50.7479
G01 X21.3313 Y-50.7290
G01 X21.3266 Y-50.7104
G01 X21.3219 Y-50.6968
G01 X21.3142 Y-50.6793
G01 X21.3047 Y-50.6627
G01 X21.2937 Y-50.6470
G01 X21.2845 Y-50.6360
G01 X21.2710 Y-50.6225
G01 X21.2562 Y-50.6104
G01 X21.2443 Y-50.6023
G01 X21.2361 Y-50.5973
G01 X21.2190 Y-50.5887
G01 X21.2012 Y-50.5818
G01 X21.1920 Y-50.5791
G01 X21.1780 Y-50.5757
G01 X21.1591 Y-50.5729
G01 X21.1400 Y-50.5720
G01 X19.5352 Y-50.5721
G01 X19.5209 Y-50.5729
G01 X19.5020 Y-50.5757
G01 X19.4834 Y-50.5804
G01 X19.4698 Y-50.5851
G01 X19.4523 Y-50.5928
G01 X19.4398 Y-50.5997
G01 X19.4238 Y-50.6104
G01 X19.4090 Y-50.6225
G01 X19.3955 Y-50.6360
G01 X19.3834 Y-50.6508
G01 X19.3727 Y-50.6668
G01 X19.3680 Y-50.6751
G01 X19.3617 Y-50.6880
G01 X19.3548 Y-50.7058
G01 X19.3508 Y-50.7196
G01 X19.3487 Y-50.7290
G01 X19.3459 Y-50.7479
G01 X19.3450 Y-50.7670
G01 X19.3451 Y-52.3718
G01 X19.3459 Y-52.3861
G01 X19.3487 Y-52.4050
G01 X19.3521 Y-52.4190
G01 X19.3581 Y-52.4372
G01 X19.3658 Y-52.4547
G01 X19.3753 Y-52.4713
G01 X19.3834 Y-52.4832
G01 X19.3955 Y-52.4980
G01 X19.4021 Y-52.5049
G01 X19.4126 Y-52.5147
G01 X19.4277 Y-52.5264
G01 X19.4439 Y-52.5367
G01 X19.4610 Y-52.5453
G01 X19.4788 Y-52.5522
G01 X19.4973 Y-52.5573
G01 X19.5161 Y-52.5605
G01 X19.5352 Y-52.5619
G01 X21.1400 Y-52.5620
G00 Z2.0000
G00 X11.0971 Y-56.1778
G01 F60.00
G01 Z-0.0500
G01 F120.00
G01 X11.1688 Y-56.3172
G01 X11.2600 Y-56.4446
G01 X11.3687 Y-56.5574
G01 X11.4928 Y-56.6532
G01 X11.6294 Y-56.7299
G01 X11.7758 Y-56.7859
G01 X11.9287 Y-56.8199
G01 X12.0459 Y-56.8285
G01 X12.1633 Y-56.8285
G01 X12.3184 Y-56.8057
G01 X12.4684 Y-56.7605
G01 X12.6103 Y-56.6940
G01 X12.7410 Y-56.6076
G01 X12.8577 Y-56.5030
G01 X12.9580 Y-56.3825
G01 X13.0396 Y-56.2488
G01 X13.1009 Y-56.1046
G01 X13.1405 Y-55.9530
G01 X13.1576 Y-55.7972
G01 X13.1519 Y-55.6406
G01 X13.1235 Y-55.4865
G01 X13.0729 Y-55.3382
G01 X13.0012 Y-55.1988
G01 X12.9100 Y-55.0714
G01 X12.8013 Y-54.9586
G01 X12.6772 Y-54.8628
G01 X12.5406 Y-54.7861
G01 X12.3942 Y-54.7301
G01 X12.2413 Y-54.6961
G01 X12.1241 Y-54.6875
G01 X12.0066 Y-54.6875
G01 X11.8516 Y-54.7103
G01 X11.7016 Y-54.7555
G01 X11.5597 Y-54.8220
G01 X11.4290 Y-54.9084
G01 X11.3123 Y-55.0130
G01 X11.2120 Y-55.1335
G01 X11.1304 Y-55.2672
G01 X11.0691 Y-55.4114
G01 X11.0295 Y-55.5630
G01 X11.0124 Y-55.7188
G01 X11.0181 Y-55.8754
G01 X11.0465 Y-56.0295
G01 X11.0971 Y-56.1778
G00 Z2.0000
G00 X10.8272 Y-56.2925
G01 F60.00
G01 Z-0.0500
G01 F120.00
G01 X10.9184 Y-56.4699
G01 X11.0345 Y-56.6322
G01 X11.1730 Y-56.7758
G01 X11.3309 Y-56.8978
G01 X11.5049 Y-56.9954
G01 X11.6913 Y-57.0667
G01 X11.8860 Y-57.1101
G01 X12.0352 Y-57.1210
G01 X12.1848 Y-57.1210
G01 X12.3822 Y-57.0919
G01 X12.5732 Y-57.0345
G01 X12.7539 Y-56.9498
G01 X12.9203 Y-56.8397
G01 X13.0689 Y-56.7066
G01 X13.1965 Y-56.5532
G01 X13.3004 Y-56.3829
G01 X13.3785 Y-56.1993
G01 X13.4289 Y-56.0062
G01 X13.4507 Y-55.8079
G01 X13.4434 Y-55.6085
G01 X13.4072 Y-55.4123
G01 X13.3428 Y-55.2235
G01 X13.2516 Y-55.0461
G01 X13.1355 Y-54.8838
G01 X12.9970 Y-54.7402
G01 X12.8391 Y-54.6182
G01 X12.6651 Y-54.5206
G01 X12.4787 Y-54.4493
G01 X12.2840 Y-54.4059
G01 X12.1348 Y-54.3950
G01 X11.9852 Y-54.3950
G01 X11.7878 Y-54.4241
G01 X11.5968 Y-54.4815
G01 X11.4161 Y-54.5662
G01 X11.2497 Y-54.6763
G01 X11.1011 Y-54.8094
G01 X10.9735 Y-54.9628
G01 X10.8696 Y-55.1331
G01 X10.7916 Y-55.3167
G01 X10.7411 Y-55.5098
G01 X10.7193 Y-55.7081
G01 X10.7266 Y-55.9075
G01 X10.7628 Y-56.1037
G01 X10.8272 Y-56.2925
G00 Z2.0000
G00 X10.5573 Y-56.4072
G01 F60.00
G01 Z-0.0500
G01 F120.00
G01 X10.6681 Y-56.6227
G01 X10.8091 Y-56.8198
G01 X10.9773 Y-56.9943
G01 X11.1691 Y-57.1424
G01 X11.3804 Y-57.2610
G01 X11.6068 Y-57.3476
G01 X11.8433 Y-57.4002
G01 X12.0245 Y-57.4135
G01 X12.2062 Y-57.4135
G01 X12.4459 Y-57.3782
G01 X12.6780 Y-57.3084
G01 X12.8974 Y-57.2055
G01 X13.0995 Y-57.0718
G01 X13.2800 Y-56.9101
G01 X13.4350 Y-56.7238
G01 X13.5612 Y-56.5170
G01 X13.6560 Y-56.2940
G01 X13.7173 Y-56.0595
G01 X13.7438 Y-55.8186
G01 X13.7350 Y-55.5765
G01 X13.6910 Y-55.3381
G01 X13.6127 Y-55.1088
G01 X13.5019 Y-54.8933
G01 X13.3609 Y-54.6962
G01 X13.1927 Y-54.5217
G01 X13.0009 Y-54.3736
G01 X12.7896 Y-54.2550
G01 X12.5632 Y-54.1684
G01 X12.3267 Y-54.1158
G01 X12.1455 Y-54.1025
G01 X11.9638 Y-54.1025
G01 X11.7241 Y-54.1378
G01 X11.4920 Y-54.2076
G01 X11.2726 Y-54.3105
G01 X11.0705 Y-54.4442
G01 X10.8900 Y-54.6059
G01 X10.7350 Y-54.7922
G01 X10.6088 Y-54.9990
G01 X10.5140 Y-55.2220
G01 X10.4527 Y-55.4565
G01 X10.4262 Y-55.6974
G01 X10.4350 Y-55.9395
G01 X10.4790 Y-56.1779
G01 X10.5573 Y-56.4072
G00 Z2.0000
G00 X38.0651 Y-50.4921
G01 F60.00
G01 Z-0.0500
G01 F120.00
G01 X38.0332 Y-50.5777
G01 X38.0305 Y-50.6026
G01 X38.0305 Y-52.2774
G01 X38.0332 Y-52.3023
G01 X38.0651 Y-52.3879
G01 X38.1178 Y-52.4582
G01 X38.1881 Y-52.5109
G01 X38.2737 Y-52.5428
G01 X38.2986 Y-52.5455
G01 X39.9734 Y-52.5455
G01 X39.9983 Y-52.5428
G01 X40.0839 Y-52.5109
G01 X40.1542 Y-52.4582
G01 X40.2069 Y-52.3879
G01 X40.2388 Y-52.3023
G01 X40.2415 Y-52.2774
G01 X40.2415 Y-50.6026
G01 X40.2388 Y-50.5777
G01 X40.2069 Y-50.4921
G01 X40.1540 Y-50.4214
G01 X40.1349 Y-50.4051
G01 X40.1247 Y-50.3956
G01 X40.1152 Y-50.3854
G01 X40.1065 Y-50.3745
G01 X40.0985 Y-50.3631
G01 X40.0937 Y-50.3552
G01 X40.0557 Y-50.2855
G01 X40.0477 Y-50.2679
G01 X40.0428 Y-50.2542
G01 X40.0402 Y-50.2449
G01 X40.0371 Y-50.2307
G01 X40.0357 Y-50.2211
G01 X40.0343 Y-50.2066
G01 X40.0341 Y-50.1970
G01 X40.0346 Y-50.1825
G01 X40.0396 Y-50.1128
G01 X40.0411 Y-50.0983
G01 X40.0428 Y-50.0888
G01 X40.0461 Y-50.0746
G01 X40.0505 Y-50.0608
G01 X40.0559 Y-50.0473
G01 X40.0647 Y-50.0300
G01 X40.0723 Y-50.0177
G01 X40.1198 Y-49.9539
G01 X40.1286 Y-49.9430
G01 X40.1348 Y-49.9362
G01 X40.1448 Y-49.9264
G01 X40.1540 Y-49.9186
G01 X40.2069 Y-49.8479
G01 X40.2388 Y-49.7623
G01 X40.2415 Y-49.7374
G01 X40.2415 Y-48.0626
G01 X40.2388 Y-48.0377
G01 X40.2069 Y-47.9521
G01 X40.1542 Y-47.8818
G01 X40.0839 Y-47.8291
G01 X39.9983 Y-47.7972
G01 X39.9734 Y-47.7945
G01 X38.2986 Y-47.7945
G01 X38.2737 Y-47.7972
G01 X38.1881 Y-47.8291
G01 X38.1178 Y-47.8818
G01 X38.0651 Y-47.9521
G01 X38.0332 Y-48.0377
G01 X38.0305 Y-48.0626
G01 X38.0305 Y-49.7374
G01 X38.0332 Y-49.7623
G01 X38.0651 Y-49.8479
G01 X38.1180 Y-49.9186
G01 X38.1371 Y-49.9349
G01 X38.1473 Y-49.9444
G01 X38.1568 Y-49.9546
G01 X38.1655 Y-49.9655
G01 X38.1735 Y-49.9769
G01 X38.1783 Y-49.9848
G01 X38.2163 Y-50.0545
G01 X38.2225 Y-50.0676
G01 X38.2261 Y-50.0766
G01 X38.2292 Y-50.0858
G01 X38.2329 Y-50.0998
G01 X38.2349 Y-50.1093
G01 X38.2369 Y-50.1237
G01 X38.2377 Y-50.1334
G01 X38.2379 Y-50.1479
G01 X38.2324 Y-50.2272
G01 X38.2301 Y-50.2465
G01 X38.2271 Y-50.2607
G01 X38.2231 Y-50.2746
G01 X38.2180 Y-50.2882
G01 X38.2119 Y-50.3014
G01 X38.2049 Y-50.3141
G01 X38.1969 Y-50.3263
G01 X38.1493 Y-50.3898
G01 X38.1434 Y-50.3970
G01 X38.1340 Y-50.4072
G01 X38.1272 Y-50.4136
G01 X38.1180 Y-50.4214
G01 X38.0651 Y-50.4921
G00 Z2.0000
G00 X39.9360 Y-49.8950
G01 F60.00
G01 Z-0.0500
G01 F120.00
G01 X39.9551 Y-49.8941
G01 X39.9740 Y-49.8913
G01 X39.9926 Y-49.8866
G01 X40.0106 Y-49.8802
G01 X40.0237 Y-49.8742
G01 X40.0403 Y-49.8647
G01 X40.0560 Y-49.8537
G01 X40.0705 Y-49.8412
G01 X40.0837 Y-49.8274
G01 X40.0954 Y-49.8123
G01 X40.1057 Y-49.7961
G01 X40.1123 Y-49.7834
G01 X40.1196 Y-49.7657
G01 X40.1252 Y-49.7474
G01 X40.1281 Y-49.7333
G01 X40.1305 Y-49.7143
G01 X40.1310 Y-49.7000
G01 X40.1309 Y-48.0952
G01 X40.1301 Y-48.0809
G01 X40.1273 Y-48.0620
G01 X40.1226 Y-48.0434
G01 X40.1162 Y-48.0254
G01 X40.1080 Y-48.0081
G01 X40.1007 Y-47.9957
G01 X40.0926 Y-47.9838
G01 X40.0805 Y-47.9690
G01 X40.0670 Y-47.9555
G01 X40.0597 Y-47.9493
G01 X40.0483 Y-47.9406
G01 X40.0321 Y-47.9303
G01 X40.0150 Y-47.9217
G01 X39.9972 Y-47.9148
G01 X39.9834 Y-47.9108
G01 X39.9740 Y-47.9087
G01 X39.9551 Y-47.9059
G01 X39.9360 Y-47.9050
G01 X38.3312 Y-47.9051
G01 X38.3169 Y-47.9059
G01 X38.2980 Y-47.9087
G01 X38.2840 Y-47.9121
G01 X38.2658 Y-47.9181
G01 X38.2483 Y-47.9258
G01 X38.2317 Y-47.9353
G01 X38.2160 Y-47.9463
G01 X38.2050 Y-47.9555
G01 X38.1915 Y-47.9690
G01 X38.1823 Y-47.9800
G01 X38.1766 Y-47.9877
G01 X38.1663 Y-48.0039
G01 X38.1577 Y-48.0210
G01 X38.1541 Y-48.0298
G01 X38.1494 Y-48.0434
G01 X38.1447 Y-48.0620
G01 X38.1419 Y-48.0809
G01 X38.1410 Y-48.1000
G01 X38.1411 Y-49.7048
G01 X38.1425 Y-49.7239
G01 X38.1447 Y-49.7380
G01 X38.1481 Y-49.7520
G01 X38.1541 Y-49.7702
G01 X38.1618 Y-49.7877
G01 X38.1713 Y-49.8043
G01 X38.1794 Y-49.8162
G01 X38.1915 Y-49.8310
G01 X38.2050 Y-49.8445
G01 X38.2198 Y-49.8566
G01 X38.2358 Y-49.8673
G01 X38.2526 Y-49.8763
G01 X38.2703 Y-49.8836
G01 X38.2794 Y-49.8866
G01 X38.2933 Y-49.8903
G01 X38.3121 Y-49.8935
G01 X38.3312 Y-49.8949
G01 X39.9360 Y-49.8950
G00 Z2.0000
G00 X39.9360 Y-52.4350
G01 F60.00
G01 Z-0.0500
G01 F120.00
G01 X39.9551 Y-52.4341
G01 X39.9740 Y-52.4313
G01 X39.9926 Y-52.4266
G01 X40.0106 Y-52.4202
G01 X40.0237 Y-52.4142
G01 X40.0403 Y-52.4047
G01 X40.0560 Y-52.3937
G01 X40.0705 Y-52.3812
G01 X40.0837 Y-52.3674
G01 X40.0954 Y-52.3523
G01 X40.1057 Y-52.3361
G01 X40.1123 Y-52.3234
G01 X40.1196 Y-52.3057
G01 X40.1252 Y-52.2874
G01 X40.1281 Y-52.2733
G01 X40.1305 Y-52.2543
G01 X40.1310 Y-52.2400
G01 X40.1309 Y-50.6352
G01 X40.1301 Y-50.6209
G01 X40.1273 Y-50.6020
G01 X40.1226 Y-50.5834
G01 X40.1162 Y-50.5654
G01 X40.1080 Y-50.5481
G01 X40.1007 Y-50.5357
G01 X40.0926 Y-50.5238
G01 X40.0805 Y-50.5090
G01 X40.0670 Y-50.4955
G01 X40.0597 Y-50.4893
G01 X40.0483 Y-50.4806
G01 X40.0321 Y-50.4703
G01 X40.0150 Y-50.4617
G01 X39.9972 Y-50.4548
G01 X39.9834 Y-50.4508
G01 X39.9740 Y-50.4487
G01 X39.9551 Y-50.4459
G01 X39.9360 Y-50.4450
G01 X38.3312 Y-50.4451
G01 X38.3169 Y-50.4459
G01 X38.2980 Y-50.4487
G01 X38.2840 Y-50.4521
G01 X38.2658 Y-50.4581
G01 X38.2483 Y-50.4658
G01 X38.2317 Y-50.4753
G01 X38.2160 Y-50.4863
G01 X38.2050 Y-50.4955
G01 X38.1915 Y-50.5090
G01 X38.1823 Y-50.5200
G01 X38.1766 Y-50.5277
G01 X38.1663 Y-50.5439
G01 X38.1577 Y-50.5610
G01 X38.1541 Y-50.5698
G01 X38.1494 Y-50.5834
G01 X38.1447 Y-50.6020
G01 X38.1419 Y-50.6209
G01 X38.1410 Y-50.6400
G01 X38.1411 Y-52.2448
G01 X38.1425 Y-52.2639
G01 X38.1447 Y-52.2780
G01 X38.1481 Y-52.2920
G01 X38.1541 Y-52.3102
G01 X38.1618 Y-52.3277
G01 X38.1713 Y-52.3443
G01 X38.1794 Y-52.3562
G01 X38.1915 Y-52.3710
G01 X38.2050 Y-52.3845
G01 X38.2198 Y-52.3966
G01 X38.2358 Y-52.4073
G01 X38.2526 Y-52.4163
G01 X38.2703 Y-52.4236
G01 X38.2794 Y-52.4266
G01 X38.2933 Y-52.4303
G01 X38.3121 Y-52.4335
G01 X38.3312 Y-52.4349
G01 X39.9360 Y-52.4350
G00 Z2.0000
G00 X39.6064 Y-41.5341
G01 F60.00
G01 Z-0.0500
G01 F120.00
G01 X39.6064 Y-41.6567
G01 X39.7160 Y-41.6056
G01 X39.8744 Y-41.4947
G01 X40.0111 Y-41.3580
G01 X40.1220 Y-41.1996
G01 X40.1731 Y-41.0900
G01 X40.0505 Y-41.0900
G01 X40.0411 Y-41.1098
G01 X40.0366 Y-41.1182
G01 X39.9938 Y-41.1897
G01 X39.9860 Y-41.2017
G01 X39.9305 Y-41.2762
G01 X39.8650 Y-41.3486
G01 X39.7926 Y-41.4141
G01 X39.7181 Y-41.4696
G01 X39.7061 Y-41.4774
G01 X39.6346 Y-41.5202
G01 X39.6262 Y-41.5247
G01 X39.6064 Y-41.5341
G00 Z2.0000
G00 X38.1497 Y-41.0900
G01 F60.00
G01 Z-0.0500
G01 F120.00
G01 X38.2008 Y-41.1996
G01 X38.3117 Y-41.3580
G01 X38.4484 Y-41.4947
G01 X38.6068 Y-41.6056
G01 X38.7164 Y-41.6567
G01 X38.7164 Y-41.5341
G01 X38.6966 Y-41.5247
G01 X38.6882 Y-41.5202
G01 X38.6167 Y-41.4774
G01 X38.6047 Y-41.4696
G01 X38.5302 Y-41.4141
G01 X38.4578 Y-41.3486
G01 X38.3923 Y-41.2762
G01 X38.3368 Y-41.2017
G01 X38.3290 Y-41.1897
G01 X38.2862 Y-41.1182
G01 X38.2817 Y-41.1098
G01 X38.2723 Y-41.0900
G01 X38.1497 Y-41.0900
G00 Z2.0000
G00 X38.7164 Y-39.6111
G01 F60.00
G01 Z-0.0500
G01 F120.00
G01 X38.6805 Y-39.6427
G01 X38.6657 Y-39.6539
G01 X38.6540 Y-39.6614
G01 X38.6459 Y-39.6659
G01 X38.6068 Y-39.6844
G01 X38.4484 Y-39.7953
G01 X38.3117 Y-39.9320
G01 X38.2008 Y-40.0904
G01 X38.1497 Y-40.2000
G01 X38.2723 Y-40.2000
G01 X38.2817 Y-40.1802
G01 X38.2862 Y-40.1718
G01 X38.3290 Y-40.1003
G01 X38.3368 Y-40.0883
G01 X38.3923 Y-40.0138
G01 X38.4578 Y-39.9414
G01 X38.5302 Y-39.8759
G01 X38.6047 Y-39.8204
G01 X38.6167 Y-39.8126
G01 X38.6882 Y-39.7698
G01 X38.6966 Y-39.7653
G01 X38.7164 Y-39.7559
G01 X38.7164 Y-39.6111
G00 Z2.0000
G00 X39.6064 Y-39.6218
G01 F60.00
G01 Z-0.0500
G01 F120.00
G01 X39.6064 Y-39.7559
G01 X39.6262 Y-39.7653
G01 X39.6346 Y-39.7698
G01 X39.7061 Y-39.8126
G01 X39.7181 Y-39.8204
G01 X39.7926 Y-39.8759
G01 X39.8650 Y-39.9414
G01 X39.9305 Y-40.0138
G01 X39.9860 Y-40.0883
G01 X39.9938 Y-40.1003
G01 X40.0366 Y-40.1718
G01 X40.0411 Y-40.1802
G01 X40.0505 Y-40.2000
G01 X40.1731 Y-40.2000
G01 X40.1220 Y-40.0904
G01 X40.0111 Y-39.9320
G01 X39.8744 Y-39.7953
G01 X39.7160 Y-39.6844
G01 X39.6598 Y-39.6582
G01 X39.6467 Y-39.6514
G01 X39.6382 Y-39.6464
G01 X39.6261 Y-39.6381
G01 X39.6183 Y-39.6320
G01 X39.6064 Y-39.6218
G00 Z2.0000
G00 X39.5810 Y-38.9941
G01 F60.00
G01 Z-0.0500
G01 F120.00
G01 X39.5810 Y-39.1389
G01 X39.6169 Y-39.1073
G01 X39.6317 Y-39.0961
G01 X39.6434 Y-39.0886
G01 X39.6515 Y-39.0841
G01 X39.6906 Y-39.0656
G01 X39.8490 Y-38.9547
G01 X39.9857 Y-38.8180
G01 X40.0966 Y-38.6596
G01 X40.1477 Y-38.5500
G01 X40.0251 Y-38.5500
G01 X40.0157 Y-38.5698
G01 X40.0112 Y-38.5782
G01 X39.9684 Y-38.6497
G01 X39.9606 Y-38.6617
G01 X39.9051 Y-38.7362
G01 X39.8396 Y-38.8086
G01 X39.7672 Y-38.8741
G01 X39.6927 Y-38.9296
G01 X39.6807 Y-38.9374
G01 X39.6092 Y-38.9802
G01 X39.6008 Y-38.9847
G01 X39.5810 Y-38.9941
G00 Z2.0000
G00 X38.1243 Y-38.5500
G01 F60.00
G01 Z-0.0500
G01 F120.00
G01 X38.1754 Y-38.6596
G01 X38.2863 Y-38.8180
G01 X38.4230 Y-38.9547
G01 X38.5814 Y-39.0656
G01 X38.6376 Y-39.0918
G01 X38.6507 Y-39.0986
G01 X38.6592 Y-39.1036
G01 X38.6713 Y-39.1119
G01 X38.6791 Y-39.1180
G01 X38.6910 Y-39.1282
G01 X38.6910 Y-38.9941
G01 X38.6712 Y-38.9847
G01 X38.6628 Y-38.9802
G01 X38.5913 Y-38.9374
G01 X38.5793 Y-38.9296
G01 X38.5048 Y-38.8741
G01 X38.4324 Y-38.8086
G01 X38.3669 Y-38.7362
G01 X38.3114 Y-38.6617
G01 X38.3036 Y-38.6497
G01 X38.2608 Y-38.5782
G01 X38.2563 Y-38.5698
G01 X38.2469 Y-38.5500
G01 X38.1243 Y-38.5500
G00 Z2.0000
G00 X38.1243 Y-37.6600
G01 F60.00
G01 Z-0.0500
G01 F120.00
G01 X38.2469 Y-37.6600
G01 X38.2563 Y-37.6402
G01 X38.2608 Y-37.6318
G01 X38.3036 Y-37.5603
G01 X38.3114 Y-37.5483
G01 X38.3669 Y-37.4738
G01 X38.4324 Y-37.4014
G01 X38.5048 Y-37.3359
G01 X38.5793 Y-37.2804
G01 X38.5913 Y-37.2726
G01 X38.6628 Y-37.2298
G01 X38.6712 Y-37.2253
G01 X38.6910 Y-37.2159
G01 X38.6910 Y-37.0933
G01 X38.5814 Y-37.1444
G01 X38.4230 Y-37.2553
G01 X38.2863 Y-37.3920
G01 X38.1754 Y-37.5504
G01 X38.1243 Y-37.6600
G00 Z2.0000
G00 X39.5810 Y-37.2159
G01 F60.00
G01 Z-0.0500
G01 F120.00
G01 X39.6008 Y-37.2253
G01 X39.6092 Y-37.2298
G01 X39.6807 Y-37.2726
G01 X39.6927 Y-37.2804
G01 X39.7672 Y-37.3359
G01 X39.8396 Y-37.4014
G01 X39.9051 Y-37.4738
G01 X39.9606 Y-37.5483
G01 X39.9684 Y-37.5603
G01 X40.0112 Y-37.6318
G01 X40.0157 Y-37.6402
G01 X40.0251 Y-37.6600
G01 X40.1477 Y-37.6600
G01 X40.0966 Y-37.5504
G01 X39.9857 Y-37.3920
G01 X39.8490 Y-37.2553
G01 X39.6906 Y-37.1444
G01 X39.5810 Y-37.0933
G01 X39.5810 Y-37.2159
G00 Z2.0000
G00 X47.0555 Y-42.3423
G01 F60.00
G01 Z-0.0500
G01 F120.00
G01 X46.8848 Y-42.4752
G01 X46.7382 Y-42.6344
G01 X46.6199 Y-42.8155
G01 X46.5330 Y-43.0137
G01 X46.4799 Y-43.2234
G01 X46.4620 Y-43.4390
G01 X46.4799 Y-43.6546
G01 X46.5330 Y-43.8643
G01 X46.6199 Y-44.0625
G01 X46.7382 Y-44.2436
G01 X46.8848 Y-44.4028
G01 X47.0555 Y-44.5357
G01 X47.2458 Y-44.6386
G01 X47.4504 Y-44.7089
G01 X47.6638 Y-44.7445
G01 X47.8802 Y-44.7445
G01 X48.0936 Y-44.7089
G01 X48.2982 Y-44.6386
G01 X48.4885 Y-44.5357
G01 X48.6592 Y-44.4028
G01 X48.8058 Y-44.2436
G01 X48.8440 Y-44.1852
G01 X48.8521 Y-44.1742
G01 X48.8579 Y-44.1672
G01 X48.8673 Y-44.1573
G01 X48.9075 Y-44.1174
G01 X48.9184 Y-44.1079
G01 X48.9261 Y-44.1019
G01 X48.9381 Y-44.0938
G01 X48.9507 Y-44.0866
G01 X48.9682 Y-44.0784
G01 X48.9819 Y-44.0735
G01 X49.0625 Y-44.0500
G01 X49.0807 Y-44.0465
G01 X49.0992 Y-44.0447
G01 X68.4142 Y-44.0445
G01 X68.4442 Y-44.0380
G01 X68.4565 Y-44.0360
G01 X68.4816 Y-44.0331
G01 X68.5107 Y-44.0232
G01 X68.5227 Y-44.0198
G01 X68.5473 Y-44.0141
G01 X68.5700 Y-44.0032
G01 X68.5815 Y-43.9984
G01 X68.6104 Y-43.9880
G01 X68.6366 Y-43.9719
G01 X68.6475 Y-43.9660
G01 X68.6702 Y-43.9549
G01 X68.6900 Y-43.9392
G01 X68.7001 Y-43.9320
G01 X68.7259 Y-43.9154
G01 X72.7594 Y-39.8819
G01 X72.7729 Y-39.8606
G01 X72.7800 Y-39.8504
G01 X72.7989 Y-39.8262
G01 X72.8126 Y-39.7986
G01 X72.8186 Y-39.7878
G01 X72.8320 Y-39.7664
G01 X72.8424 Y-39.7375
G01 X72.8472 Y-39.7260
G01 X72.8581 Y-39.7032
G01 X72.8638 Y-39.6786
G01 X72.8672 Y-39.6667
G01 X72.8771 Y-39.6376
G01 X72.8800 Y-39.6125
G01 X72.8820 Y-39.6003
G01 X72.8885 Y-39.5702
G01 X72.8885 Y-27.9469
G01 X72.8891 Y-27.9313
G01 X72.8930 Y-27.8950
G01 X72.8954 Y-27.8808
G01 X72.8989 Y-27.8669
G01 X72.9033 Y-27.8533
G01 X72.9108 Y-27.8356
G01 X72.9509 Y-27.7618
G01 X72.9558 Y-27.7538
G01 X72.9637 Y-27.7424
G01 X72.9724 Y-27.7316
G01 X72.9819 Y-27.7214
G01 X77.8625 Y-22.8408
G01 X77.8726 Y-22.8314
G01 X77.8872 Y-22.8199
G01 X77.9297 Y-22.7911
G01 X77.9379 Y-22.7858
G01 X77.9507 Y-22.7787
G01 X77.9640 Y-22.7725
G01 X77.9823 Y-22.7659
G01 X77.9965 Y-22.7622
G01 X78.0108 Y-22.7595
G01 X78.0897 Y-22.7500
G01 X78.1036 Y-22.7492
G01 X78.1128 Y-22.7491
G01 X78.1267 Y-22.7500
G01 X78.1359 Y-22.7510
G01 X78.2708 Y-22.7735
G01 X78.4872 Y-22.7735
G01 X78.7006 Y-22.7379
G01 X78.9052 Y-22.6676
G01 X79.0955 Y-22.5647
G01 X79.2662 Y-22.4318
G01 X79.4128 Y-22.2726
G01 X79.5311 Y-22.0915
G01 X79.6180 Y-21.8933
G01 X79.6711 Y-21.6836
G01 X79.6890 Y-21.4680
G01 X79.6711 Y-21.2524
G01 X79.6180 Y-21.0427
G01 X79.5311 Y-20.8445
G01 X79.4128 Y-20.6634
G01 X79.2662 Y-20.5042
G01 X79.0955 Y-20.3713
G01 X78.9416 Y-20.2881
G01 X78.9294 Y-20.2809
G01 X78.9177 Y-20.2728
G01 X78.9103 Y-20.2670
G01 X78.8662 Y-20.2288
G01 X78.8559 Y-20.2192
G01 X78.8434 Y-20.2054
G01 X78.8322 Y-20.1904
G01 X78.8225 Y-20.1744
G01 X78.8144 Y-20.1576
G01 X78.7868 Y-20.0833
G01 X78.7822 Y-20.0695
G01 X78.7788 Y-20.0554
G01 X78.7770 Y-20.0459
G01 X78.7753 Y-20.0315
G01 X78.7748 Y-20.0218
G01 X78.7752 Y-20.0024
G01 X78.7775 Y-19.9832
G01 X78.7944 Y-19.9055
G01 X78.7981 Y-19.8914
G01 X78.8028 Y-19.8777
G01 X78.8106 Y-19.8600
G01 X78.8202 Y-19.8432
G01 X78.8314 Y-19.8273
G01 X78.8441 Y-19.8127
G01 X78.8970 Y-19.7600
G01 X78.9073 Y-19.7506
G01 X78.9181 Y-19.7419
G01 X78.9296 Y-19.7340
G01 X78.9416 Y-19.7269
G01 X79.0955 Y-19.6437
G01 X79.2662 Y-19.5108
G01 X79.4128 Y-19.3516
G01 X79.5311 Y-19.1705
G01 X79.6180 Y-18.9723
G01 X79.6711 Y-18.7626
G01 X79.6890 Y-18.5470
G01 X79.6711 Y-18.3314
G01 X79.6180 Y-18.1217
G01 X79.5311 Y-17.9235
G01 X79.4128 Y-17.7424
G01 X79.2662 Y-17.5832
G01 X79.0955 Y-17.4503
G01 X78.9052 Y-17.3474
G01 X78.7006 Y-17.2771
G01 X78.4872 Y-17.2415
G01 X78.2708 Y-17.2415
G01 X78.0574 Y-17.2771
G01 X77.8528 Y-17.3474
G01 X77.6625 Y-17.4503
G01 X77.4918 Y-17.5832
G01 X77.3452 Y-17.7424
G01 X77.3070 Y-17.8008
G01 X77.3017 Y-17.8082
G01 X77.2931 Y-17.8188
G01 X77.2837 Y-17.8287
G01 X77.2469 Y-17.8652
G01 X77.2363 Y-17.8750
G01 X77.2249 Y-17.8841
G01 X77.2129 Y-17.8922
G01 X77.2003 Y-17.8994
G01 X77.1828 Y-17.9076
G01 X77.1645 Y-17.9139
G01 X77.0930 Y-17.9349
G01 X77.0794 Y-17.9380
G01 X77.0657 Y-17.9401
G01 X77.0518 Y-17.9413
G01 X77.0425 Y-17.9415
G01 X75.6438 Y-17.9415
G01 X75.6137 Y-17.9480
G01 X75.6015 Y-17.9500
G01 X75.5764 Y-17.9529
G01 X75.5473 Y-17.9628
G01 X75.5354 Y-17.9662
G01 X75.5108 Y-17.9719
G01 X75.4880 Y-17.9828
G01 X75.4765 Y-17.9876
G01 X75.4476 Y-17.9980
G01 X75.4262 Y-18.0114
G01 X75.4154 Y-18.0174
G01 X75.3878 Y-18.0311
G01 X75.3636 Y-18.0500
G01 X75.3534 Y-18.0571
G01 X75.3321 Y-18.0706
G01 X73.3956 Y-20.0071
G01 X73.3880 Y-20.0143
G01 X73.3595 Y-20.0377
G01 X73.3480 Y-20.0462
G01 X73.3317 Y-20.0563
G01 X73.3145 Y-20.0648
G01 X73.2966 Y-20.0715
G01 X73.2250 Y-20.0926
G01 X73.2070 Y-20.0970
G01 X73.1932 Y-20.0991
G01 X73.1840 Y-20.1000
G01 X73.1701 Y-20.1005
G01 X51.5138 Y-20.1005
G01 X51.4837 Y-20.1070
G01 X51.4715 Y-20.1090
G01 X51.4464 Y-20.1119
G01 X51.4173 Y-20.1218
G01 X51.4054 Y-20.1252
G01 X51.3808 Y-20.1309
G01 X51.3580 Y-20.1418
G01 X51.3465 Y-20.1466
G01 X51.3176 Y-20.1570
G01 X51.2962 Y-20.1704
G01 X51.2854 Y-20.1764
G01 X51.2578 Y-20.1901
G01 X51.2336 Y-20.2090
G01 X51.2234 Y-20.2161
G01 X51.2021 Y-20.2296
G01 X50.1935 Y-21.2382
G01 X50.1834 Y-21.2476
G01 X50.1689 Y-21.2591
G01 X50.1223 Y-21.2906
G01 X50.1097 Y-21.2981
G01 X50.0965 Y-21.3045
G01 X50.0830 Y-21.3100
G01 X50.0690 Y-21.3144
G01 X50.0548 Y-21.3178
G01 X50.0403 Y-21.3201
G01 X49.9710 Y-21.3285
G01 X49.9524 Y-21.3298
G01 X49.9339 Y-21.3294
G01 X49.9201 Y-21.3279
G01 X49.7852 Y-21.3055
G01 X49.5688 Y-21.3055
G01 X49.3554 Y-21.3411
G01 X49.1508 Y-21.4114
G01 X48.9605 Y-21.5143
G01 X48.7898 Y-21.6472
G01 X48.6432 Y-21.8064
G01 X48.5249 Y-21.9875
G01 X48.4380 Y-22.1857
G01 X48.3849 Y-22.3954
G01 X48.3670 Y-22.6110
G01 X48.3849 Y-22.8266
G01 X48.4380 Y-23.0363
G01 X48.5249 Y-23.2345
G01 X48.6432 Y-23.4156
G01 X48.7898 Y-23.5748
G01 X48.9605 Y-23.7077
G01 X49.1508 Y-23.8106
G01 X49.3554 Y-23.8809
G01 X49.5688 Y-23.9165
G01 X49.7852 Y-23.9165
G01 X49.8158 Y-23.9116
G01 X49.8296 Y-23.9105
G01 X49.8389 Y-23.9103
G01 X49.8951 Y-23.9116
G01 X49.9097 Y-23.9129
G01 X49.9241 Y-23.9153
G01 X49.9337 Y-23.9174
G01 X49.9477 Y-23.9216
G01 X49.9614 Y-23.9268
G01 X49.9746 Y-23.9330
G01 X50.0483 Y-23.9734
G01 X50.0599 Y-23.9810
G01 X50.0745 Y-23.9925
G01 X50.0847 Y-24.0020
G01 X54.9471 Y-28.8644
G01 X54.9577 Y-28.8759
G01 X54.9806 Y-28.9043
G01 X54.9889 Y-28.9160
G01 X54.9986 Y-28.9325
G01 X55.0066 Y-28.9499
G01 X55.0115 Y-28.9634
G01 X55.0339 Y-29.0395
G01 X55.0370 Y-29.0530
G01 X55.0385 Y-29.0622
G01 X55.0400 Y-29.0760
G01 X55.0405 Y-29.0899
G01 X55.0405 Y-33.7282
G01 X55.0460 Y-33.7529
G01 X55.0482 Y-33.7651
G01 X55.0519 Y-33.7956
G01 X55.0618 Y-33.8247
G01 X55.0652 Y-33.8366
G01 X55.0709 Y-33.8612
G01 X55.0818 Y-33.8840
G01 X55.0866 Y-33.8955
G01 X55.0970 Y-33.9244
G01 X55.1104 Y-33.9458
G01 X55.1165 Y-33.9566
G01 X55.1301 Y-33.9842
G01 X55.1490 Y-34.0084
G01 X55.1561 Y-34.0186
G01 X55.1696 Y-34.0399
G01 X55.6297 Y-34.5001
G01 X55.6400 Y-34.5119
G01 X55.6596 Y-34.5363
G01 X55.6705 Y-34.5521
G01 X55.6776 Y-34.5645
G01 X55.6838 Y-34.5775
G01 X55.6890 Y-34.5908
G01 X55.6919 Y-34.6000
G01 X55.7140 Y-34.6760
G01 X55.7175 Y-34.6942
G01 X55.7190 Y-34.7080
G01 X55.7194 Y-34.7173
G01 X55.7195 Y-35.9312
G01 X55.7250 Y-35.9559
G01 X55.7272 Y-35.9681
G01 X55.7309 Y-35.9986
G01 X55.7408 Y-36.0277
G01 X55.7442 Y-36.0396
G01 X55.7499 Y-36.0642
G01 X55.7608 Y-36.0870
G01 X55.7656 Y-36.0985
G01 X55.7760 Y-36.1274
G01 X55.7894 Y-36.1488
G01 X55.7955 Y-36.1596
G01 X55.8091 Y-36.1872
G01 X55.8280 Y-36.2114
G01 X55.8351 Y-36.2216
G01 X55.8486 Y-36.2429
G01 X56.9551 Y-37.3494
G01 X56.9990 Y-37.3895
G01 X57.0391 Y-37.4334
G01 X57.4452 Y-37.8395
G01 X57.4521 Y-37.8468
G01 X57.4586 Y-37.8544
G01 X57.4647 Y-37.8623
G01 X57.4704 Y-37.8706
G01 X57.5055 Y-37.9272
G01 X57.5123 Y-37.9399
G01 X57.5163 Y-37.9486
G01 X57.5215 Y-37.9620
G01 X57.5269 Y-37.9804
G01 X57.5297 Y-37.9945
G01 X57.5315 Y-38.0088
G01 X57.5347 Y-38.0882
G01 X57.5345 Y-38.1068
G01 X57.5326 Y-38.1252
G01 X57.5289 Y-38.1434
G01 X57.5110 Y-38.3590
G01 X57.5289 Y-38.5746
G01 X57.5820 Y-38.7843
G01 X57.6689 Y-38.9825
G01 X57.7872 Y-39.1636
G01 X57.9338 Y-39.3228
G01 X58.1045 Y-39.4557
G01 X58.2948 Y-39.5586
G01 X58.4994 Y-39.6289
G01 X58.7128 Y-39.6645
G01 X58.9292 Y-39.6645
G01 X59.1426 Y-39.6289
G01 X59.3472 Y-39.5586
G01 X59.5375 Y-39.4557
G01 X59.7082 Y-39.3228
G01 X59.8548 Y-39.1636
G01 X59.9731 Y-38.9825
G01 X60.0600 Y-38.7843
G01 X60.1131 Y-38.5746
G01 X60.1310 Y-38.3590
G01 X60.1131 Y-38.1434
G01 X60.0600 Y-37.9337
G01 X59.9731 Y-37.7355
G01 X59.8548 Y-37.5544
G01 X59.7082 Y-37.3952
G01 X59.5375 Y-37.2623
G01 X59.3472 Y-37.1594
G01 X59.1426 Y-37.0891
G01 X58.9292 Y-37.0535
G01 X58.7128 Y-37.0535
G01 X58.5825 Y-37.0752
G01 X58.5688 Y-37.0770
G01 X58.5503 Y-37.0779
G01 X58.4989 Y-37.0767
G01 X58.4892 Y-37.0762
G01 X58.4746 Y-37.0746
G01 X58.4602 Y-37.0719
G01 X58.4461 Y-37.0681
G01 X58.4323 Y-37.0632
G01 X58.4189 Y-37.0574
G01 X58.3449 Y-37.0171
G01 X58.3369 Y-37.0123
G01 X58.3255 Y-37.0044
G01 X58.3147 Y-36.9956
G01 X58.3045 Y-36.9862
G01 X57.0239 Y-35.7056
G01 X57.0167 Y-35.6980
G01 X57.0100 Y-35.6901
G01 X56.9904 Y-35.6657
G01 X56.9821 Y-35.6540
G01 X56.9724 Y-35.6375
G01 X56.9644 Y-35.6201
G01 X56.9581 Y-35.6020
G01 X56.9371 Y-35.5305
G01 X56.9332 Y-35.5124
G01 X56.9310 Y-35.4940
G01 X56.9305 Y-35.4801
G01 X56.9305 Y-34.2708
G01 X56.9240 Y-34.2407
G01 X56.9220 Y-34.2285
G01 X56.9191 Y-34.2034
G01 X56.9108 Y-34.1796
G01 X56.9073 Y-34.1676
G01 X56.9001 Y-34.1378
G01 X56.8871 Y-34.1099
G01 X56.8824 Y-34.0984
G01 X56.8740 Y-34.0746
G01 X56.8579 Y-34.0484
G01 X56.8520 Y-34.0375
G01 X56.8409 Y-34.0148
G01 X56.8220 Y-33.9906
G01 X56.8149 Y-33.9804
G01 X56.8014 Y-33.9591
G01 X56.3449 Y-33.5026
G01 X56.3343 Y-33.4911
G01 X56.3114 Y-33.4627
G01 X56.3005 Y-33.4469
G01 X56.2934 Y-33.4345
G01 X56.2854 Y-33.4171
G01 X56.2805 Y-33.4036
G01 X56.2570 Y-33.3230
G01 X56.2550 Y-33.3140
G01 X56.2529 Y-33.3002
G01 X56.2516 Y-33.2817
G01 X56.2515 Y-32.4391
G01 X56.2523 Y-32.4190
G01 X56.2541 Y-32.4046
G01 X56.2559 Y-32.3951
G01 X56.2595 Y-32.3810
G01 X56.2838 Y-32.3052
G01 X56.2872 Y-32.2962
G01 X56.2932 Y-32.2829
G01 X56.2977 Y-32.2744
G01 X56.3052 Y-32.2619
G01 X56.3108 Y-32.2540
G01 X56.3198 Y-32.2426
G01 X56.3263 Y-32.2354
G01 X56.3366 Y-32.2253
G01 X56.4017 Y-32.1715
G01 X56.4095 Y-32.1657
G01 X56.4216 Y-32.1578
G01 X56.4387 Y-32.1487
G01 X56.4476 Y-32.1448
G01 X56.4612 Y-32.1397
G01 X56.4799 Y-32.1346
G01 X56.4990 Y-32.1314
G01 X56.5684 Y-32.1232
G01 X56.5877 Y-32.1219
G01 X56.6022 Y-32.1222
G01 X56.6167 Y-32.1235
G01 X56.6310 Y-32.1259
G01 X56.6451 Y-32.1294
G01 X56.6589 Y-32.1340
G01 X56.6723 Y-32.1395
G01 X56.7395 Y-32.1722
G01 X56.7558 Y-32.1811
G01 X56.7674 Y-32.1888
G01 X56.7784 Y-32.1973
G01 X56.8168 Y-32.2319
G01 X56.9751 Y-32.3300
G01 X57.1488 Y-32.3973
G01 X57.3319 Y-32.4315
G01 X57.5181 Y-32.4315
G01 X57.7012 Y-32.3973
G01 X57.7482 Y-32.3791
G01 X57.6589 Y-32.2897
G01 X57.5996 Y-32.3043
G01 X57.5175 Y-32.3167
G01 X57.5032 Y-32.3179
G01 X57.4346 Y-32.3213
G01 X57.4202 Y-32.3214
G01 X57.3373 Y-32.3172
G01 X57.2598 Y-32.3059
G01 X57.2411 Y-32.3022
G01 X57.1652 Y-32.2830
G01 X57.0825 Y-32.2534
G01 X57.0031 Y-32.2158
G01 X56.9278 Y-32.1707
G01 X56.8648 Y-32.1242
G01 X56.8536 Y-32.1153
G01 X56.7991 Y-32.0660
G01 X56.7855 Y-32.0524
G01 X56.7332 Y-31.9943
G01 X56.6863 Y-31.9316
G01 X56.6757 Y-31.9156
G01 X56.6357 Y-31.8484
G01 X56.5981 Y-31.7690
G01 X56.5715 Y-31.6954
G01 X56.5660 Y-31.6771
G01 X56.5472 Y-31.6011
G01 X56.5355 Y-31.5237
G01 X56.5336 Y-31.5047
G01 X56.5300 Y-31.4265
G01 X56.5343 Y-31.3388
G01 X56.5472 Y-31.2519
G01 X56.5685 Y-31.1667
G01 X56.5981 Y-31.0840
G01 X56.6314 Y-31.0131
G01 X56.6404 Y-30.9963
G01 X56.6757 Y-30.9374
G01 X56.6863 Y-30.9214
G01 X56.7332 Y-30.8587
G01 X56.7855 Y-30.8006
G01 X56.7991 Y-30.7870
G01 X56.8572 Y-30.7347
G01 X56.9238 Y-30.6850
G01 X56.9359 Y-30.6772
G01 X57.0031 Y-30.6372
G01 X57.0825 Y-30.5996
G01 X57.1652 Y-30.5700
G01 X57.2411 Y-30.5508
G01 X57.2551 Y-30.5478
G01 X57.3373 Y-30.5358
G01 X57.4154 Y-30.5317
G01 X57.4346 Y-30.5317
G01 X57.5032 Y-30.5351
G01 X57.5222 Y-30.5370
G01 X57.5996 Y-30.5487
G01 X57.6589 Y-30.5633
G01 X57.7482 Y-30.4739
G01 X57.7252 Y-30.4637
G01 X57.7123 Y-30.4573
G01 X57.6999 Y-30.4499
G01 X57.6882 Y-30.4416
G01 X57.6735 Y-30.4293
G01 X57.6200 Y-30.3772
G01 X57.6068 Y-30.3630
G01 X57.5979 Y-30.3515
G01 X57.5924 Y-30.3435
G01 X57.5874 Y-30.3353
G01 X57.5806 Y-30.3224
G01 X57.5766 Y-30.3136
G01 X57.5714 Y-30.3000
G01 X57.5661 Y-30.2814
G01 X57.5485 Y-30.2038
G01 X57.5464 Y-30.1895
G01 X57.5457 Y-30.1798
G01 X57.5454 Y-30.1701
G01 X57.5459 Y-30.1556
G01 X57.5468 Y-30.1460
G01 X57.5491 Y-30.1316
G01 X57.5525 Y-30.1175
G01 X57.5553 Y-30.1082
G01 X57.5822 Y-30.0333
G01 X57.5859 Y-30.0244
G01 X57.5923 Y-30.0114
G01 X57.6023 Y-29.9948
G01 X57.6108 Y-29.9830
G01 X57.6202 Y-29.9720
G01 X57.6304 Y-29.9616
G01 X57.6452 Y-29.9491
G01 X57.7081 Y-29.9010
G01 X57.7238 Y-29.8912
G01 X57.7320 Y-29.8868
G01 X57.7447 Y-29.8810
G01 X57.8751 Y-29.8304
G01 X58.0335 Y-29.7323
G01 X58.1713 Y-29.6068
G01 X58.2836 Y-29.4581
G01 X58.3666 Y-29.2913
G01 X58.4176 Y-29.1120
G01 X58.4348 Y-28.9265
G01 X58.4176 Y-28.7409
G01 X58.3666 Y-28.5617
G01 X58.2836 Y-28.3949
G01 X58.1713 Y-28.2462
G01 X58.0335 Y-28.1207
G01 X57.8663 Y-28.0168
G01 X57.8545 Y-28.0080
G01 X57.8188 Y-27.9775
G01 X57.8085 Y-27.9677
G01 X57.7961 Y-27.9535
G01 X57.7850 Y-27.9381
G01 X57.7755 Y-27.9217
G01 X57.7424 Y-27.8496
G01 X57.7368 Y-27.8362
G01 X57.7310 Y-27.8177
G01 X57.7271 Y-27.7988
G01 X57.7254 Y-27.7844
G01 X57.7248 Y-27.7650
G01 X57.7256 Y-27.7505
G01 X57.7267 Y-27.7409
G01 X57.7383 Y-27.6622
G01 X57.7416 Y-27.6480
G01 X57.7444 Y-27.6388
G01 X57.7494 Y-27.6251
G01 X57.7533 Y-27.6163
G01 X57.7600 Y-27.6034
G01 X57.7650 Y-27.5951
G01 X57.7704 Y-27.5870
G01 X57.7792 Y-27.5755
G01 X57.8313 Y-27.5154
G01 X57.8415 Y-27.5050
G01 X57.8524 Y-27.4954
G01 X57.8640 Y-27.4867
G01 X57.8762 Y-27.4788
G01 X57.8890 Y-27.4719
G01 X57.9022 Y-27.4660
G01 X57.9205 Y-27.4596
G01 X57.9965 Y-27.4375
G01 X58.0147 Y-27.4340
G01 X58.0332 Y-27.4322
G01 X58.1624 Y-27.4320
G01 X58.1873 Y-27.4293
G01 X58.2729 Y-27.3974
G01 X58.3432 Y-27.3447
G01 X58.3959 Y-27.2744
G01 X58.4278 Y-27.1888
G01 X58.4305 Y-27.1639
G01 X58.4305 Y-25.6891
G01 X58.4278 Y-25.6642
G01 X58.3959 Y-25.5786
G01 X58.3432 Y-25.5083
G01 X58.2729 Y-25.4556
G01 X58.1873 Y-25.4237
G01 X58.1624 Y-25.4210
G01 X56.6876 Y-25.4210
G01 X56.6627 Y-25.4237
G01 X56.5771 Y-25.4556
G01 X56.5068 Y-25.5083
G01 X56.4541 Y-25.5786
G01 X56.4222 Y-25.6642
G01 X56.4195 Y-25.6891
G01 X56.4195 Y-27.1639
G01 X56.4222 Y-27.1888
G01 X56.4541 Y-27.2744
G01 X56.5068 Y-27.3447
G01 X56.5771 Y-27.3974
G01 X56.6627 Y-27.4293
G01 X56.6876 Y-27.4320
G01 X56.8075 Y-27.4320
G01 X56.8222 Y-27.4326
G01 X56.8369 Y-27.4342
G01 X56.8738 Y-27.4399
G01 X56.8878 Y-27.4425
G01 X56.8969 Y-27.4448
G01 X56.9104 Y-27.4491
G01 X56.9236 Y-27.4544
G01 X56.9322 Y-27.4585
G01 X56.9446 Y-27.4653
G01 X57.0107 Y-27.5091
G01 X57.0263 Y-27.5207
G01 X57.0372 Y-27.5303
G01 X57.0505 Y-27.5443
G01 X57.0624 Y-27.5596
G01 X57.0702 Y-27.5718
G01 X57.0793 Y-27.5890
G01 X57.1092 Y-27.6574
G01 X57.1129 Y-27.6664
G01 X57.1175 Y-27.6801
G01 X57.1200 Y-27.6895
G01 X57.1229 Y-27.7037
G01 X57.1243 Y-27.7133
G01 X57.1254 Y-27.7278
G01 X57.1254 Y-27.7423
G01 X57.1248 Y-27.7520
G01 X57.1230 Y-27.7664
G01 X57.1111 Y-27.8402
G01 X57.1091 Y-27.8496
G01 X57.1052 Y-27.8636
G01 X57.0984 Y-27.8818
G01 X57.0899 Y-27.8991
G01 X57.0823 Y-27.9116
G01 X57.0768 Y-27.9195
G01 X57.0646 Y-27.9346
G01 X57.0149 Y-27.9900
G01 X57.0050 Y-27.9998
G01 X56.9907 Y-28.0117
G01 X56.9754 Y-28.0222
G01 X56.8165 Y-28.1207
G01 X56.6787 Y-28.2462
G01 X56.6252 Y-28.3170
G01 X56.6101 Y-28.3355
G01 X56.6038 Y-28.3425
G01 X56.5938 Y-28.3526
G01 X56.5830 Y-28.3618
G01 X56.5755 Y-28.3676
G01 X56.5597 Y-28.3779
G01 X56.4994 Y-28.4133
G01 X56.4823 Y-28.4222
G01 X56.4689 Y-28.4278
G01 X56.4551 Y-28.4324
G01 X56.4410 Y-28.4359
G01 X56.4218 Y-28.4390
G01 X56.4074 Y-28.4400
G01 X56.3928 Y-28.4399
G01 X56.3182 Y-28.4368
G01 X56.2990 Y-28.4346
G01 X56.2800 Y-28.4305
G01 X56.2616 Y-28.4245
G01 X56.2439 Y-28.4168
G01 X56.2270 Y-28.4073
G01 X56.1935 Y-28.3841
G01 X56.1805 Y-28.3769
G01 X56.1685 Y-28.3691
G01 X56.1570 Y-28.3604
G01 X56.1429 Y-28.3475
G01 X51.0271 Y-23.2318
G01 X51.0202 Y-23.2246
G01 X51.0137 Y-23.2169
G01 X51.0076 Y-23.2090
G01 X51.0019 Y-23.2008
G01 X50.9693 Y-23.1483
G01 X50.9622 Y-23.1358
G01 X50.9542 Y-23.1183
G01 X50.9479 Y-23.1002
G01 X50.9434 Y-23.0815
G01 X50.9408 Y-23.0625
G01 X50.9375 Y-22.9785
G01 X50.9381 Y-22.9599
G01 X50.9391 Y-22.9507
G01 X50.9414 Y-22.9370
G01 X50.9691 Y-22.8266
G01 X50.9870 Y-22.6110
G01 X50.9691 Y-22.3954
G01 X50.9660 Y-22.3807
G01 X50.9645 Y-22.3708
G01 X50.9636 Y-22.3608
G01 X50.9632 Y-22.3508
G01 X50.9622 Y-22.2892
G01 X50.9633 Y-22.2701
G01 X50.9653 Y-22.2558
G01 X50.9684 Y-22.2418
G01 X50.9726 Y-22.2280
G01 X50.9777 Y-22.2145
G01 X50.9860 Y-22.1973
G01 X51.0242 Y-22.1279
G01 X51.0346 Y-22.1125
G01 X51.0433 Y-22.1017
G01 X51.0495 Y-22.0948
G01 X51.7431 Y-21.4013
G01 X51.7549 Y-21.3910
G01 X51.7793 Y-21.3714
G01 X51.7870 Y-21.3658
G01 X51.8033 Y-21.3557
G01 X51.8118 Y-21.3512
G01 X51.8249 Y-21.3454
G01 X51.8430 Y-21.3391
G01 X51.9190 Y-21.3170
G01 X51.9326 Y-21.3142
G01 X51.9418 Y-21.3129
G01 X51.9510 Y-21.3120
G01 X51.9649 Y-21.3115
G01 X72.5071 Y-21.3115
G01 X72.5213 Y-21.3120
G01 X72.5307 Y-21.3129
G01 X72.5493 Y-21.3161
G01 X72.6107 Y-21.3300
G01 X72.6241 Y-21.3341
G01 X72.6414 Y-21.3412
G01 X72.6539 Y-21.3475
G01 X72.6620 Y-21.3522
G01 X72.6698 Y-21.3573
G01 X72.6811 Y-21.3657
G01 X72.7478 Y-21.4244
G01 X72.7546 Y-21.4313
G01 X72.7641 Y-21.4423
G01 X72.7728 Y-21.4540
G01 X72.7780 Y-21.4621
G01 X72.7852 Y-21.4748
G01 X72.7894 Y-21.4835
G01 X72.7932 Y-21.4924
G01 X72.7981 Y-21.5061
G01 X72.8186 Y-21.5779
G01 X72.8230 Y-21.5968
G01 X72.8251 Y-21.6111
G01 X72.8260 Y-21.6256
G01 X72.8256 Y-21.6450
G01 X72.8241 Y-21.6594
G01 X72.8215 Y-21.6737
G01 X72.8191 Y-21.6831
G01 X72.7976 Y-21.7547
G01 X72.7914 Y-21.7722
G01 X72.7857 Y-21.7848
G01 X72.7814 Y-21.7931
G01 X72.7742 Y-21.8050
G01 X72.6549 Y-21.9875
G01 X72.5680 Y-22.1857
G01 X72.5149 Y-22.3954
G01 X72.4970 Y-22.6110
G01 X72.5149 Y-22.8266
G01 X72.5435 Y-22.9394
G01 X72.5457 Y-22.9492
G01 X72.5474 Y-22.9591
G01 X72.5486 Y-22.9690
G01 X72.5493 Y-22.9790
G01 X72.5503 Y-23.0504
G01 X72.5487 Y-23.0695
G01 X72.5453 Y-23.0884
G01 X72.5400 Y-23.1069
G01 X72.5349 Y-23.1203
G01 X72.5265 Y-23.1376
G01 X72.4931 Y-23.1989
G01 X72.4884 Y-23.2069
G01 X72.4808 Y-23.2185
G01 X72.4693 Y-23.2331
G01 X72.4598 Y-23.2433
G01 X69.2971 Y-26.4059
G01 X69.2824 Y-26.4186
G01 X69.2705 Y-26.4271
G01 X69.2114 Y-26.4641
G01 X69.1984 Y-26.4707
G01 X69.1850 Y-26.4764
G01 X69.0976 Y-26.5070
G01 X68.9821 Y-26.5796
G01 X68.8856 Y-26.6761
G01 X68.8130 Y-26.7916
G01 X68.7679 Y-26.9204
G01 X68.7565 Y-27.0220
G01 X68.7565 Y-36.0040
G01 X68.7560 Y-36.0181
G01 X68.7537 Y-36.0368
G01 X68.7449 Y-36.0871
G01 X68.7400 Y-36.1051
G01 X68.7334 Y-36.1226
G01 X68.7252 Y-36.1393
G01 X68.7154 Y-36.1552
G01 X68.6663 Y-36.2232
G01 X68.6604 Y-36.2303
G01 X68.6509 Y-36.2404
G01 X68.6371 Y-36.2528
G01 X68.4748 Y-36.3792
G01 X68.3282 Y-36.5384
G01 X68.2099 Y-36.7195
G01 X68.1230 Y-36.9177
G01 X68.0699 Y-37.1274
G01 X68.0520 Y-37.3430
G01 X68.0699 Y-37.5586
G01 X68.1230 Y-37.7683
G01 X68.2099 Y-37.9665
G01 X68.3282 Y-38.1476
G01 X68.4748 Y-38.3068
G01 X68.6455 Y-38.4397
G01 X68.8358 Y-38.5426
G01 X69.0404 Y-38.6129
G01 X69.2538 Y-38.6485
G01 X69.4702 Y-38.6485
G01 X69.6836 Y-38.6129
G01 X69.8882 Y-38.5426
G01 X70.0785 Y-38.4397
G01 X70.2492 Y-38.3068
G01 X70.3958 Y-38.1476
G01 X70.5141 Y-37.9665
G01 X70.6010 Y-37.7683
G01 X70.6541 Y-37.5586
G01 X70.6720 Y-37.3430
G01 X70.6541 Y-37.1274
G01 X70.6010 Y-36.9177
G01 X70.5141 Y-36.7195
G01 X70.3958 Y-36.5384
G01 X70.2492 Y-36.3792
G01 X70.0833 Y-36.2498
G01 X70.0729 Y-36.2402
G01 X70.0664 Y-36.2334
G01 X70.0382 Y-36.2026
G01 X70.0292 Y-36.1919
G01 X70.0183 Y-36.1767
G01 X70.0111 Y-36.1647
G01 X70.0030 Y-36.1479
G01 X69.9979 Y-36.1349
G01 X69.9741 Y-36.0545
G01 X69.9702 Y-36.0363
G01 X69.9680 Y-36.0179
G01 X69.9675 Y-36.0040
G01 X69.9675 Y-27.2975
G01 X69.9681 Y-27.2819
G01 X69.9727 Y-27.2408
G01 X69.9766 Y-27.2221
G01 X69.9823 Y-27.2038
G01 X69.9859 Y-27.1949
G01 X69.9919 Y-27.1819
G01 X70.0323 Y-27.1083
G01 X70.0400 Y-27.0967
G01 X70.0455 Y-27.0893
G01 X70.0514 Y-27.0821
G01 X70.0609 Y-27.0720
G01 X73.1708 Y-23.9620
G01 X73.1815 Y-23.9522
G01 X73.1889 Y-23.9461
G01 X73.2047 Y-23.9350
G01 X73.2754 Y-23.8949
G01 X73.2841 Y-23.8906
G01 X73.2974 Y-23.8850
G01 X73.3112 Y-23.8803
G01 X73.3300 Y-23.8757
G01 X73.3491 Y-23.8730
G01 X73.3636 Y-23.8722
G01 X73.4388 Y-23.8744
G01 X73.4583 Y-23.8760
G01 X73.4770 Y-23.8795
G01 X73.6988 Y-23.9165
G01 X73.9152 Y-23.9165
G01 X74.1286 Y-23.8809
G01 X74.3186 Y-23.8157
G01 X74.3280 Y-23.8127
G01 X74.3422 Y-23.8092
G01 X74.3567 Y-23.8067
G01 X74.4153 Y-23.7993
G01 X74.4342 Y-23.7987
G01 X74.4484 Y-23.7995
G01 X74.4579 Y-23.8005
G01 X74.4765 Y-23.8041
G01 X74.4947 Y-23.8094
G01 X74.5646 Y-23.8354
G01 X74.5824 Y-23.8431
G01 X74.5952 Y-23.8499
G01 X74.6035 Y-23.8550
G01 X74.6191 Y-23.8665
G01 X74.6265 Y-23.8727
G01 X74.6369 Y-23.8828
G01 X74.6497 Y-23.8974
G01 X74.6945 Y-23.9572
G01 X74.7027 Y-23.9691
G01 X74.7078 Y-23.9774
G01 X74.7145 Y-23.9903
G01 X74.7184 Y-23.9991
G01 X74.7235 Y-24.0127
G01 X74.7287 Y-24.0314
G01 X74.7313 Y-24.0457
G01 X74.7325 Y-24.0553
G01 X74.7381 Y-24.1346
G01 X74.7383 Y-24.1492
G01 X74.7373 Y-24.1637
G01 X74.7353 Y-24.1781
G01 X74.7310 Y-24.1969
G01 X74.7265 Y-24.2107
G01 X74.7189 Y-24.2286
G01 X74.6764 Y-24.3065
G01 X74.6714 Y-24.3143
G01 X74.6632 Y-24.3256
G01 X74.6510 Y-24.3396
G01 X71.8066 Y-27.1841
G01 X71.7931 Y-27.2054
G01 X71.7860 Y-27.2156
G01 X71.7671 Y-27.2398
G01 X71.7534 Y-27.2674
G01 X71.7474 Y-27.2782
G01 X71.7340 Y-27.2996
G01 X71.7256 Y-27.3234
G01 X71.7209 Y-27.3349
G01 X71.7079 Y-27.3628
G01 X71.7007 Y-27.3927
G01 X71.6972 Y-27.4046
G01 X71.6889 Y-27.4284
G01 X71.6860 Y-27.4535
G01 X71.6840 Y-27.4657
G01 X71.6775 Y-27.4958
G01 X71.6775 Y-39.1191
G01 X71.6769 Y-39.1347
G01 X71.6723 Y-39.1758
G01 X71.6684 Y-39.1945
G01 X71.6627 Y-39.2127
G01 X71.6572 Y-39.2260
G01 X71.6531 Y-39.2346
G01 X71.6127 Y-39.3082
G01 X71.6050 Y-39.3199
G01 X71.5995 Y-39.3273
G01 X71.5905 Y-39.3379
G01 X71.5841 Y-39.3446
G01 X68.1886 Y-42.7401
G01 X68.1810 Y-42.7473
G01 X68.1731 Y-42.7540
G01 X68.1487 Y-42.7736
G01 X68.1370 Y-42.7819
G01 X68.1247 Y-42.7893
G01 X68.1119 Y-42.7958
G01 X68.0987 Y-42.8014
G01 X68.0850 Y-42.8059
G01 X68.0180 Y-42.8256
G01 X68.0045 Y-42.8290
G01 X67.9954 Y-42.8308
G01 X67.9816 Y-42.8326
G01 X67.9631 Y-42.8335
G01 X49.1039 Y-42.8334
G01 X49.0903 Y-42.8326
G01 X49.0722 Y-42.8301
G01 X49.0171 Y-42.8184
G01 X48.9984 Y-42.8134
G01 X48.9803 Y-42.8066
G01 X48.9629 Y-42.7980
G01 X48.9465 Y-42.7878
G01 X48.9349 Y-42.7791
G01 X48.8746 Y-42.7276
G01 X48.8614 Y-42.7146
G01 X48.8523 Y-42.7040
G01 X48.8440 Y-42.6928
G01 X48.8058 Y-42.6344
G01 X48.6592 Y-42.4752
G01 X48.4885 Y-42.3423
G01 X48.2982 Y-42.2394
G01 X48.0936 Y-42.1691
G01 X47.8802 Y-42.1335
G01 X47.6638 Y-42.1335
G01 X47.4504 Y-42.1691
G01 X47.2458 Y-42.2394
G01 X47.0555 Y-42.3423
G00 Z2.0000
G00 X48.8584 Y-43.9342
G01 F60.00
G01 Z-0.0500
G01 F120.00
G01 X68.3460 Y-43.9341
G01 X68.3945 Y-43.9318
G01 X68.4332 Y-43.9263
G01 X68.4519 Y-43.9225
G01 X68.4851 Y-43.9142
G01 X68.4988 Y-43.9098
G01 X68.5355 Y-43.8965
G01 X68.5794 Y-43.8757
G01 X68.6211 Y-43.8507
G01 X68.6564 Y-43.8247
G01 X68.6674 Y-43.8155
G01 X68.6961 Y-43.7891
G01 X72.6331 Y-39.8521
G01 X72.6595 Y-39.8234
G01 X72.6716 Y-39.8086
G01 X72.6947 Y-39.7771
G01 X72.7150 Y-39.7437
G01 X72.7240 Y-39.7269
G01 X72.7405 Y-39.6915
G01 X72.7538 Y-39.6548
G01 X72.7594 Y-39.6365
G01 X72.7686 Y-39.5986
G01 X72.7746 Y-39.5600
G01 X72.7765 Y-39.5410
G01 X72.7781 Y-39.5020
G01 X72.7781 Y-27.7691
G01 X77.9609 Y-22.5863
G01 X78.0321 Y-22.6115
G01 X78.1412 Y-22.6390
G01 X78.1553 Y-22.6417
G01 X78.2524 Y-22.6561
G01 X78.2666 Y-22.6577
G01 X78.3790 Y-22.6630
G01 X78.4866 Y-22.6579
G01 X78.5056 Y-22.6561
G01 X78.6027 Y-22.6417
G01 X78.6168 Y-22.6390
G01 X78.7259 Y-22.6115
G01 X78.8274 Y-22.5755
G01 X78.8451 Y-22.5682
G01 X78.9423 Y-22.5219
G01 X79.0429 Y-22.4616
G01 X79.1296 Y-22.3976
G01 X79.1443 Y-22.3855
G01 X79.2171 Y-22.3196
G01 X79.2306 Y-22.3061
G01 X79.3027 Y-22.2261
G01 X79.3726 Y-22.1319
G01 X79.4329 Y-22.0313
G01 X79.4830 Y-21.9253
G01 X79.5225 Y-21.8149
G01 X79.5510 Y-21.7011
G01 X79.5682 Y-21.5851
G01 X79.5738 Y-21.4776
G01 X79.5738 Y-21.4584
G01 X79.5689 Y-21.3604
G01 X79.5671 Y-21.3414
G01 X79.5510 Y-21.2349
G01 X79.5251 Y-21.1303
G01 X79.5195 Y-21.1120
G01 X79.4830 Y-21.0107
G01 X79.4329 Y-20.9047
G01 X79.3726 Y-20.8041
G01 X79.3057 Y-20.7136
G01 X79.2965 Y-20.7027
G01 X79.2240 Y-20.6230
G01 X79.1371 Y-20.5443
G01 X79.0429 Y-20.4744
G01 X78.9423 Y-20.4141
G01 X78.8363 Y-20.3640
G01 X78.7259 Y-20.3245
G01 X78.6121 Y-20.2960
G01 X78.4961 Y-20.2788
G01 X78.3790 Y-20.2730
G01 X78.2619 Y-20.2788
G01 X78.1459 Y-20.2960
G01 X78.0321 Y-20.3245
G01 X77.9217 Y-20.3640
G01 X77.8157 Y-20.4141
G01 X77.7151 Y-20.4744
G01 X77.6284 Y-20.5384
G01 X77.6137 Y-20.5505
G01 X77.5340 Y-20.6230
G01 X77.4615 Y-20.7027
G01 X77.4494 Y-20.7174
G01 X77.3854 Y-20.8041
G01 X77.3251 Y-20.9047
G01 X77.2788 Y-21.0019
G01 X77.2715 Y-21.0196
G01 X77.2385 Y-21.1120
G01 X77.2341 Y-21.1257
G01 X77.2070 Y-21.2349
G01 X77.1909 Y-21.3414
G01 X77.1891 Y-21.3604
G01 X77.1842 Y-21.4584
G01 X77.1841 Y-21.4728
G01 X77.1898 Y-21.5851
G01 X77.2061 Y-21.6964
G01 X77.2091 Y-21.7105
G01 X77.2341 Y-21.8103
G01 X77.2385 Y-21.8240
G01 X77.2607 Y-21.8861
G01 X71.9329 Y-27.2139
G01 X71.9002 Y-27.2499
G01 X71.8768 Y-27.2811
G01 X71.8662 Y-27.2970
G01 X71.8510 Y-27.3223
G01 X71.8441 Y-27.3348
G01 X71.8274 Y-27.3701
G01 X71.8221 Y-27.3834
G01 X71.8092 Y-27.4203
G01 X71.7995 Y-27.4581
G01 X71.7957 Y-27.4768
G01 X71.7902 Y-27.5155
G01 X71.7879 Y-27.5640
G01 X71.7879 Y-39.2969
G01 X68.1409 Y-42.9439
G01 X48.8584 Y-42.9439
G01 X48.8259 Y-42.8757
G01 X48.7682 Y-42.7791
G01 X48.7601 Y-42.7673
G01 X48.7016 Y-42.6884
G01 X48.6927 Y-42.6772
G01 X48.6170 Y-42.5940
G01 X48.5373 Y-42.5215
G01 X48.5226 Y-42.5094
G01 X48.4437 Y-42.4509
G01 X48.4319 Y-42.4428
G01 X48.3353 Y-42.3851
G01 X48.2381 Y-42.3388
G01 X48.2204 Y-42.3315
G01 X48.1189 Y-42.2955
G01 X48.0145 Y-42.2691
G01 X47.9957 Y-42.2653
G01 X47.8891 Y-42.2498
G01 X47.7720 Y-42.2440
G01 X47.6549 Y-42.2498
G01 X47.5483 Y-42.2653
G01 X47.5295 Y-42.2691
G01 X47.4251 Y-42.2955
G01 X47.3236 Y-42.3315
G01 X47.3059 Y-42.3388
G01 X47.2087 Y-42.3851
G01 X47.1081 Y-42.4454
G01 X47.0139 Y-42.5153
G01 X46.9339 Y-42.5874
G01 X46.9204 Y-42.6009
G01 X46.8483 Y-42.6809
G01 X46.7839 Y-42.7673
G01 X46.7733 Y-42.7832
G01 X46.7181 Y-42.8757
G01 X46.6698 Y-42.9773
G01 X46.6645 Y-42.9906
G01 X46.6285 Y-43.0921
G01 X46.6000 Y-43.2059
G01 X46.5828 Y-43.3219
G01 X46.5770 Y-43.4390
G01 X46.5828 Y-43.5561
G01 X46.6000 Y-43.6721
G01 X46.6285 Y-43.7859
G01 X46.6680 Y-43.8963
G01 X46.7181 Y-44.0023
G01 X46.7784 Y-44.1029
G01 X46.8483 Y-44.1971
G01 X46.9270 Y-44.2840
G01 X47.0139 Y-44.3627
G01 X47.1081 Y-44.4326
G01 X47.2087 Y-44.4929
G01 X47.3103 Y-44.5412
G01 X47.3236 Y-44.5465
G01 X47.4251 Y-44.5825
G01 X47.5389 Y-44.6110
G01 X47.6549 Y-44.6282
G01 X47.7720 Y-44.6340
G01 X47.8891 Y-44.6282
G01 X48.0051 Y-44.6110
G01 X48.1189 Y-44.5825
G01 X48.2249 Y-44.5448
G01 X48.2381 Y-44.5392
G01 X48.3353 Y-44.4929
G01 X48.4359 Y-44.4326
G01 X48.5301 Y-44.3627
G01 X48.6136 Y-44.2873
G01 X48.6236 Y-44.2771
G01 X48.6957 Y-44.1971
G01 X48.7629 Y-44.1069
G01 X48.7707 Y-44.0948
G01 X48.8236 Y-44.0065
G01 X48.8302 Y-43.9938
G01 X48.8584 Y-43.9342
G00 Z2.0000
G00 X56.4336 Y-30.7729
G01 F60.00
G01 Z-0.0500
G01 F120.00
G01 X56.4514 Y-30.7472
G01 X56.4923 Y-30.6920
G01 X56.5071 Y-30.6732
G01 X56.5227 Y-30.6550
G01 X56.5688 Y-30.6041
G01 X56.5853 Y-30.5868
G01 X56.6026 Y-30.5703
G01 X56.6535 Y-30.5242
G01 X56.6717 Y-30.5086
G01 X56.6905 Y-30.4938
G01 X56.7457 Y-30.4529
G01 X56.7554 Y-30.4459
G01 X56.7753 Y-30.4326
G01 X56.8444 Y-30.3910
G01 X56.8652 Y-30.3792
G01 X56.8866 Y-30.3685
G01 X56.9487 Y-30.3391
G01 X56.9706 Y-30.3294
G01 X56.9817 Y-30.3250
G01 X57.0576 Y-30.2976
G01 X57.0803 Y-30.2901
G01 X57.0918 Y-30.2868
G01 X57.1700 Y-30.2671
G01 X57.1933 Y-30.2618
G01 X57.2169 Y-30.2577
G01 X57.2599 Y-30.2514
G01 X57.2569 Y-30.2314
G01 X57.2544 Y-30.2074
G01 X57.2531 Y-30.1832
G01 X57.2529 Y-30.1711
G01 X57.2534 Y-30.1469
G01 X57.2542 Y-30.1348
G01 X57.2552 Y-30.1227
G01 X57.2577 Y-30.1013
G01 X57.2169 Y-30.0953
G01 X57.1933 Y-30.0912
G01 X57.1700 Y-30.0859
G01 X57.0918 Y-30.0662
G01 X57.0803 Y-30.0629
G01 X57.0576 Y-30.0554
G01 X56.9817 Y-30.0280
G01 X56.9706 Y-30.0236
G01 X56.9487 Y-30.0139
G01 X56.8866 Y-29.9845
G01 X56.8652 Y-29.9738
G01 X56.8444 Y-29.9620
G01 X56.7753 Y-29.9204
G01 X56.7554 Y-29.9071
G01 X56.7457 Y-29.9001
G01 X56.6905 Y-29.8592
G01 X56.6717 Y-29.8444
G01 X56.6535 Y-29.8288
G01 X56.6026 Y-29.7827
G01 X56.5853 Y-29.7662
G01 X56.5688 Y-29.7489
G01 X56.5227 Y-29.6980
G01 X56.5071 Y-29.6798
G01 X56.4923 Y-29.6610
G01 X56.4514 Y-29.6058
G01 X56.4336 Y-29.5801
G01 X56.4336 Y-30.7729
G00 Z2.0000
G00 X57.7586 Y-29.7568
G01 F60.00
G01 Z-0.0500
G01 F120.00
G01 X57.7763 Y-29.7495
G01 X57.8469 Y-29.7158
G01 X57.9222 Y-29.6707
G01 X57.9928 Y-29.6183
G01 X58.0579 Y-29.5594
G01 X58.1168 Y-29.4943
G01 X58.1692 Y-29.4237
G01 X58.2143 Y-29.3484
G01 X58.2519 Y-29.2690
G01 X58.2815 Y-29.1863
G01 X58.3028 Y-29.1011
G01 X58.3157 Y-29.0142
G01 X58.3200 Y-28.9265
G01 X58.3157 Y-28.8388
G01 X58.3028 Y-28.7519
G01 X58.2815 Y-28.6667
G01 X58.2519 Y-28.5840
G01 X58.2143 Y-28.5046
G01 X58.1692 Y-28.4293
G01 X58.1168 Y-28.3587
G01 X58.0579 Y-28.2936
G01 X57.9928 Y-28.2347
G01 X57.9222 Y-28.1823
G01 X57.8469 Y-28.1372
G01 X57.7675 Y-28.0996
G01 X57.6848 Y-28.0700
G01 X57.5996 Y-28.0487
G01 X57.5127 Y-28.0358
G01 X57.4250 Y-28.0315
G01 X57.3373 Y-28.0358
G01 X57.2504 Y-28.0487
G01 X57.1652 Y-28.0700
G01 X57.0825 Y-28.0996
G01 X57.0031 Y-28.1372
G01 X56.9278 Y-28.1823
G01 X56.8572 Y-28.2347
G01 X56.7921 Y-28.2936
G01 X56.7332 Y-28.3587
G01 X56.6808 Y-28.4293
G01 X56.6357 Y-28.5046
G01 X56.5981 Y-28.5840
G01 X56.5685 Y-28.6667
G01 X56.5472 Y-28.7519
G01 X56.5343 Y-28.8388
G01 X56.5300 Y-28.9265
G01 X56.5343 Y-29.0142
G01 X56.5472 Y-29.1011
G01 X56.5685 Y-29.1863
G01 X56.5981 Y-29.2690
G01 X56.6357 Y-29.3484
G01 X56.6808 Y-29.4237
G01 X56.7332 Y-29.4943
G01 X56.7921 Y-29.5594
G01 X56.8572 Y-29.6183
G01 X56.9278 Y-29.6707
G01 X57.0031 Y-29.7158
G01 X57.0825 Y-29.7534
G01 X57.1652 Y-29.7830
G01 X57.2504 Y-29.8043
G01 X57.3373 Y-29.8172
G01 X57.4250 Y-29.8215
G01 X57.5127 Y-29.8172
G01 X57.5996 Y-29.8043
G01 X57.6848 Y-29.7830
G01 X57.7586 Y-29.7568
G00 Z2.0000
G00 X58.2882 Y-31.1926
G01 F60.00
G01 Z-0.0500
G01 F120.00
G01 X58.3028 Y-31.2519
G01 X58.3145 Y-31.3293
G01 X58.3164 Y-31.3483
G01 X58.3200 Y-31.4265
G01 X58.3164 Y-31.5047
G01 X58.3145 Y-31.5237
G01 X58.3028 Y-31.6011
G01 X58.2882 Y-31.6604
G01 X58.3778 Y-31.7500
G01 X58.4171 Y-31.6120
G01 X58.4343 Y-31.4265
G01 X58.4171 Y-31.2410
G01 X58.3778 Y-31.1030
G01 X58.2882 Y-31.1926
G00 Z2.0000
G00 X61.0586 Y-32.2568
G01 F60.00
G01 Z-0.0500
G01 F120.00
G01 X61.0763 Y-32.2495
G01 X61.1469 Y-32.2158
G01 X61.2222 Y-32.1707
G01 X61.2928 Y-32.1183
G01 X61.3579 Y-32.0594
G01 X61.4168 Y-31.9943
G01 X61.4692 Y-31.9237
G01 X61.5143 Y-31.8484
G01 X61.5519 Y-31.7690
G01 X61.5815 Y-31.6863
G01 X61.6028 Y-31.6011
G01 X61.6157 Y-31.5142
G01 X61.6200 Y-31.4265
G01 X61.6157 Y-31.3388
G01 X61.6028 Y-31.2519
G01 X61.5815 Y-31.1667
G01 X61.5519 Y-31.0840
G01 X61.5143 Y-31.0046
G01 X61.4692 Y-30.9293
G01 X61.4168 Y-30.8587
G01 X61.3579 Y-30.7936
G01 X61.2928 Y-30.7347
G01 X61.2222 Y-30.6823
G01 X61.1469 Y-30.6372
G01 X61.0675 Y-30.5996
G01 X60.9848 Y-30.5700
G01 X60.8996 Y-30.5487
G01 X60.8127 Y-30.5358
G01 X60.7250 Y-30.5315
G01 X60.6373 Y-30.5358
G01 X60.5504 Y-30.5487
G01 X60.4652 Y-30.5700
G01 X60.3825 Y-30.5996
G01 X60.3031 Y-30.6372
G01 X60.2278 Y-30.6823
G01 X60.1572 Y-30.7347
G01 X60.0921 Y-30.7936
G01 X60.0332 Y-30.8587
G01 X59.9808 Y-30.9293
G01 X59.9357 Y-31.0046
G01 X59.8981 Y-31.0840
G01 X59.8685 Y-31.1667
G01 X59.8472 Y-31.2519
G01 X59.8343 Y-31.3388
G01 X59.8300 Y-31.4265
G01 X59.8343 Y-31.5142
G01 X59.8472 Y-31.6011
G01 X59.8685 Y-31.6863
G01 X59.8981 Y-31.7690
G01 X59.9357 Y-31.8484
G01 X59.9808 Y-31.9237
G01 X60.0332 Y-31.9943
G01 X60.0921 Y-32.0594
G01 X60.1572 Y-32.1183
G01 X60.2278 Y-32.1707
G01 X60.3031 Y-32.2158
G01 X60.3825 Y-32.2534
G01 X60.4652 Y-32.2830
G01 X60.5504 Y-32.3043
G01 X60.6373 Y-32.3172
G01 X60.7250 Y-32.3215
G01 X60.8127 Y-32.3172
G01 X60.8996 Y-32.3043
G01 X60.9848 Y-32.2830
G01 X61.0586 Y-32.2568
G00 Z2.0000
G00 X61.0586 Y-29.7568
G01 F60.00
G01 Z-0.0500
G01 F120.00
G01 X61.0763 Y-29.7495
G01 X61.1469 Y-29.7158
G01 X61.2222 Y-29.6707
G01 X61.2928 Y-29.6183
G01 X61.3579 Y-29.5594
G01 X61.4168 Y-29.4943
G01 X61.4692 Y-29.4237
G01 X61.5143 Y-29.3484
G01 X61.5519 Y-29.2690
G01 X61.5815 Y-29.1863
G01 X61.6028 Y-29.1011
G01 X61.6157 Y-29.0142
G01 X61.6200 Y-28.9265
G01 X61.6157 Y-28.8388
G01 X61.6028 Y-28.7519
G01 X61.5815 Y-28.6667
G01 X61.5519 Y-28.5840
G01 X61.5143 Y-28.5046
G01 X61.4692 Y-28.4293
G01 X61.4168 Y-28.3587
G01 X61.3579 Y-28.2936
G01 X61.2928 Y-28.2347
G01 X61.2222 Y-28.1823
G01 X61.1469 Y-28.1372
G01 X61.0675 Y-28.0996
G01 X60.9848 Y-28.0700
G01 X60.8996 Y-28.0487
G01 X60.8127 Y-28.0358
G01 X60.7250 Y-28.0315
G01 X60.6373 Y-28.0358
G01 X60.5504 Y-28.0487
G01 X60.4652 Y-28.0700
G01 X60.3825 Y-28.0996
G01 X60.3031 Y-28.1372
G01 X60.2278 Y-28.1823
G01 X60.1572 Y-28.2347
G01 X60.0921 Y-28.2936
G01 X60.0332 Y-28.3587
G01 X59.9808 Y-28.4293
G01 X59.9357 Y-28.5046
G01 X59.8981 Y-28.5840
G01 X59.8685 Y-28.6667
G01 X59.8472 Y-28.7519
G01 X59.8343 Y-28.8388
G01 X59.8300 Y-28.9265
G01 X59.8343 Y-29.0142
G01 X59.8472 Y-29.1011
G01 X59.8685 Y-29.1863
G01 X59.8981 Y-29.2690
G01 X59.9357 Y-29.3484
G01 X59.9808 Y-29.4237
G01 X60.0332 Y-29.4943
G01 X60.0921 Y-29.5594
G01 X60.1572 Y-29.6183
G01 X60.2278 Y-29.6707
G01 X60.3031 Y-29.7158
G01 X60.3825 Y-29.7534
G01 X60.4652 Y-29.7830
G01 X60.5504 Y-29.8043
G01 X60.6373 Y-29.8172
G01 X60.7250 Y-29.8215
G01 X60.8127 Y-29.8172
G01 X60.8996 Y-29.8043
G01 X60.9848 Y-29.7830
G01 X61.0586 Y-29.7568
G00 Z2.0000
G00 X61.0586 Y-27.2568
G01 F60.00
G01 Z-0.0500
G01 F120.00
G01 X61.0763 Y-27.2495
G01 X61.1469 Y-27.2158
G01 X61.2222 Y-27.1707
G01 X61.2928 Y-27.1183
G01 X61.3579 Y-27.0594
G01 X61.4168 Y-26.9943
G01 X61.4692 Y-26.9237
G01 X61.5143 Y-26.8484
G01 X61.5519 Y-26.7690
G01 X61.5815 Y-26.6863
G01 X61.6028 Y-26.6011
G01 X61.6157 Y-26.5142
G01 X61.6200 Y-26.4265
G01 X61.6157 Y-26.3388
G01 X61.6028 Y-26.2519
G01 X61.5815 Y-26.1667
G01 X61.5519 Y-26.0840
G01 X61.5143 Y-26.0046
G01 X61.4692 Y-25.9293
G01 X61.4168 Y-25.8587
G01 X61.3579 Y-25.7936
G01 X61.2928 Y-25.7347
G01 X61.2222 Y-25.6823
G01 X61.1469 Y-25.6372
G01 X61.0675 Y-25.5996
G01 X60.9848 Y-25.5700
G01 X60.8996 Y-25.5487
G01 X60.8127 Y-25.5358
G01 X60.7250 Y-25.5315
G01 X60.6373 Y-25.5358
G01 X60.5504 Y-25.5487
G01 X60.4652 Y-25.5700
G01 X60.3825 Y-25.5996
G01 X60.3031 Y-25.6372
G01 X60.2278 Y-25.6823
G01 X60.1572 Y-25.7347
G01 X60.0921 Y-25.7936
G01 X60.0332 Y-25.8587
G01 X59.9808 Y-25.9293
G01 X59.9357 Y-26.0046
G01 X59.8981 Y-26.0840
G01 X59.8685 Y-26.1667
G01 X59.8472 Y-26.2519
G01 X59.8343 Y-26.3388
G01 X59.8300 Y-26.4265
G01 X59.8343 Y-26.5142
G01 X59.8472 Y-26.6011
G01 X59.8685 Y-26.6863
G01 X59.8981 Y-26.7690
G01 X59.9357 Y-26.8484
G01 X59.9808 Y-26.9237
G01 X60.0332 Y-26.9943
G01 X60.0921 Y-27.0594
G01 X60.1572 Y-27.1183
G01 X60.2278 Y-27.1707
G01 X60.3031 Y-27.2158
G01 X60.3825 Y-27.2534
G01 X60.4652 Y-27.2830
G01 X60.5504 Y-27.3043
G01 X60.6373 Y-27.3172
G01 X60.7250 Y-27.3215
G01 X60.8127 Y-27.3172
G01 X60.8996 Y-27.3043
G01 X60.9848 Y-27.2830
G01 X61.0586 Y-27.2568
G00 Z2.0000
G00 X59.7324 Y-26.2410
G01 F60.00
G01 Z-0.0500
G01 F120.00
G01 X59.7152 Y-26.4265
G01 X59.7324 Y-26.6121
G01 X59.7834 Y-26.7913
G01 X59.8664 Y-26.9581
G01 X59.9787 Y-27.1068
G01 X60.1165 Y-27.2323
G01 X60.2749 Y-27.3304
G01 X60.4057 Y-27.3812
G01 X60.4285 Y-27.3916
G01 X60.4412 Y-27.3984
G01 X60.4573 Y-27.4088
G01 X60.4723 Y-27.4208
G01 X60.5293 Y-27.4761
G01 X60.5393 Y-27.4866
G01 X60.5456 Y-27.4940
G01 X60.5569 Y-27.5097
G01 X60.5643 Y-27.5222
G01 X60.5687 Y-27.5308
G01 X60.5763 Y-27.5487
G01 X60.5820 Y-27.5672
G01 X60.5999 Y-27.6447
G01 X60.6029 Y-27.6638
G01 X60.6039 Y-27.6831
G01 X60.6034 Y-27.6977
G01 X60.6018 Y-27.7121
G01 X60.6002 Y-27.7216
G01 X60.5968 Y-27.7358
G01 X60.5924 Y-27.7496
G01 X60.5654 Y-27.8244
G01 X60.5614 Y-27.8333
G01 X60.5547 Y-27.8462
G01 X60.5443 Y-27.8625
G01 X60.5323 Y-27.8777
G01 X60.5224 Y-27.8883
G01 X60.5153 Y-27.8949
G01 X60.5041 Y-27.9042
G01 X60.4450 Y-27.9495
G01 X60.4335 Y-27.9573
G01 X60.4255 Y-27.9621
G01 X60.4131 Y-27.9685
G01 X60.4046 Y-27.9722
G01 X60.2749 Y-28.0226
G01 X60.1165 Y-28.1207
G01 X59.9787 Y-28.2462
G01 X59.8664 Y-28.3949
G01 X59.7834 Y-28.5617
G01 X59.7324 Y-28.7409
G01 X59.7152 Y-28.9265
G01 X59.7324 Y-29.1121
G01 X59.7834 Y-29.2913
G01 X59.8664 Y-29.4581
G01 X59.9787 Y-29.6068
G01 X60.1165 Y-29.7323
G01 X60.2749 Y-29.8304
G01 X60.4057 Y-29.8812
G01 X60.4285 Y-29.8916
G01 X60.4412 Y-29.8984
G01 X60.4573 Y-29.9088
G01 X60.4723 Y-29.9208
G01 X60.5293 Y-29.9761
G01 X60.5393 Y-29.9866
G01 X60.5456 Y-29.9940
G01 X60.5569 Y-30.0097
G01 X60.5643 Y-30.0222
G01 X60.5687 Y-30.0308
G01 X60.5763 Y-30.0487
G01 X60.5820 Y-30.0672
G01 X60.5999 Y-30.1447
G01 X60.6029 Y-30.1638
G01 X60.6039 Y-30.1831
G01 X60.6034 Y-30.1977
G01 X60.6018 Y-30.2121
G01 X60.6002 Y-30.2216
G01 X60.5968 Y-30.2358
G01 X60.5924 Y-30.2496
G01 X60.5672 Y-30.3199
G01 X60.5634 Y-30.3289
G01 X60.5570 Y-30.3419
G01 X60.5470 Y-30.3585
G01 X60.5354 Y-30.3740
G01 X60.5224 Y-30.3883
G01 X60.5079 Y-30.4012
G01 X60.4487 Y-30.4467
G01 X60.4374 Y-30.4548
G01 X60.4255 Y-30.4621
G01 X60.4131 Y-30.4685
G01 X60.4046 Y-30.4722
G01 X60.2749 Y-30.5226
G01 X60.1165 Y-30.6207
G01 X59.9788 Y-30.7462
G01 X59.8663 Y-30.8951
G01 X59.7834 Y-31.0617
G01 X59.7324 Y-31.2409
G01 X59.7152 Y-31.4265
G01 X59.7324 Y-31.6121
G01 X59.7834 Y-31.7913
G01 X59.8664 Y-31.9581
G01 X59.9787 Y-32.1068
G01 X60.1165 Y-32.2323
G01 X60.2749 Y-32.3304
G01 X60.4487 Y-32.3978
G01 X60.6318 Y-32.4320
G01 X60.8182 Y-32.4320
G01 X61.0013 Y-32.3978
G01 X61.1751 Y-32.3304
G01 X61.3335 Y-32.2323
G01 X61.4713 Y-32.1068
G01 X61.5836 Y-31.9581
G01 X61.6666 Y-31.7913
G01 X61.7176 Y-31.6120
G01 X61.7348 Y-31.4265
G01 X61.7176 Y-31.2409
G01 X61.6666 Y-31.0617
G01 X61.5836 Y-30.8949
G01 X61.4713 Y-30.7462
G01 X61.3335 Y-30.6207
G01 X61.1751 Y-30.5226
G01 X61.0443 Y-30.4718
G01 X61.0215 Y-30.4614
G01 X61.0088 Y-30.4546
G01 X60.9927 Y-30.4442
G01 X60.9777 Y-30.4322
G01 X60.9173 Y-30.3735
G01 X60.9107 Y-30.3664
G01 X60.9015 Y-30.3551
G01 X60.8958 Y-30.3473
G01 X60.8881 Y-30.3350
G01 X60.8813 Y-30.3222
G01 X60.8773 Y-30.3133
G01 X60.8721 Y-30.2998
G01 X60.8680 Y-30.2858
G01 X60.8501 Y-30.2083
G01 X60.8471 Y-30.1892
G01 X60.8462 Y-30.1747
G01 X60.8463 Y-30.1602
G01 X60.8475 Y-30.1457
G01 X60.8508 Y-30.1266
G01 X60.8532 Y-30.1172
G01 X60.8576 Y-30.1034
G01 X60.8828 Y-30.0331
G01 X60.8907 Y-30.0154
G01 X60.8978 Y-30.0027
G01 X60.9086 Y-29.9866
G01 X60.9209 Y-29.9717
G01 X60.9347 Y-29.9581
G01 X60.9459 Y-29.9488
G01 X61.0050 Y-29.9035
G01 X61.0126 Y-29.8982
G01 X61.0245 Y-29.8909
G01 X61.0327 Y-29.8866
G01 X61.0454 Y-29.8808
G01 X61.1751 Y-29.8304
G01 X61.3335 Y-29.7323
G01 X61.4713 Y-29.6068
G01 X61.5836 Y-29.4581
G01 X61.6666 Y-29.2913
G01 X61.7176 Y-29.1120
G01 X61.7348 Y-28.9265
G01 X61.7176 Y-28.7409
G01 X61.6666 Y-28.5617
G01 X61.5836 Y-28.3949
G01 X61.4713 Y-28.2462
G01 X61.3335 Y-28.1207
G01 X61.1751 Y-28.0226
G01 X61.0443 Y-27.9718
G01 X61.0215 Y-27.9614
G01 X61.0088 Y-27.9546
G01 X60.9927 Y-27.9442
G01 X60.9777 Y-27.9322
G01 X60.9173 Y-27.8735
G01 X60.9044 Y-27.8590
G01 X60.8958 Y-27.8473
G01 X60.8905 Y-27.8392
G01 X60.8857 Y-27.8308
G01 X60.8792 Y-27.8178
G01 X60.8737 Y-27.8043
G01 X60.8706 Y-27.7952
G01 X60.8668 Y-27.7811
G01 X60.8511 Y-27.7131
G01 X60.8484 Y-27.6988
G01 X60.8467 Y-27.6844
G01 X60.8462 Y-27.6747
G01 X60.8463 Y-27.6602
G01 X60.8475 Y-27.6457
G01 X60.8508 Y-27.6266
G01 X60.8560 Y-27.6080
G01 X60.8812 Y-27.5376
G01 X60.8866 Y-27.5241
G01 X60.8953 Y-27.5069
G01 X60.9057 Y-27.4905
G01 X60.9177 Y-27.4753
G01 X60.9311 Y-27.4614
G01 X60.9459 Y-27.4488
G01 X61.0013 Y-27.4063
G01 X61.0126 Y-27.3982
G01 X61.0245 Y-27.3909
G01 X61.0327 Y-27.3866
G01 X61.0454 Y-27.3808
G01 X61.1751 Y-27.3304
G01 X61.3335 Y-27.2323
G01 X61.4713 Y-27.1068
G01 X61.5836 Y-26.9581
G01 X61.6666 Y-26.7913
G01 X61.7176 Y-26.6120
G01 X61.7348 Y-26.4265
G01 X61.7176 Y-26.2409
G01 X61.6666 Y-26.0617
G01 X61.5836 Y-25.8949
G01 X61.4713 Y-25.7462
G01 X61.3335 Y-25.6207
G01 X61.1751 Y-25.5226
G01 X61.0013 Y-25.4552
G01 X60.8182 Y-25.4210
G01 X60.6318 Y-25.4210
G01 X60.4487 Y-25.4552
G01 X60.2749 Y-25.5226
G01 X60.1165 Y-25.6207
G01 X59.9787 Y-25.7462
G01 X59.8664 Y-25.8949
G01 X59.7834 Y-26.0617
G01 X59.7324 Y-26.2410
G00 Z2.0000
G00 X58.1250 Y-27.3215
G01 F60.00
G01 Z-0.0500
G01 F120.00
G01 X58.1441 Y-27.3206
G01 X58.1630 Y-27.3178
G01 X58.1816 Y-27.3131
G01 X58.1996 Y-27.3067
G01 X58.2127 Y-27.3007
G01 X58.2293 Y-27.2912
G01 X58.2450 Y-27.2802
G01 X58.2595 Y-27.2677
G01 X58.2727 Y-27.2539
G01 X58.2844 Y-27.2388
G01 X58.2923 Y-27.2267
G01 X58.3013 Y-27.2099
G01 X58.3069 Y-27.1967
G01 X58.3129 Y-27.1785
G01 X58.3171 Y-27.1598
G01 X58.3195 Y-27.1408
G01 X58.3200 Y-27.1265
G01 X58.3199 Y-25.7217
G01 X58.3191 Y-25.7074
G01 X58.3163 Y-25.6885
G01 X58.3116 Y-25.6699
G01 X58.3069 Y-25.6563
G01 X58.3013 Y-25.6431
G01 X58.2923 Y-25.6263
G01 X58.2844 Y-25.6142
