(G-CODE GENERATED BY FLATCAM v8.994 - www.flatcam.org - Version Date: 2020/11/7)
(Name: bms test circuit-F_Paste.gbr_iso_combined_cnc)
(Type: G-code from Geometry)
(Units: MM)
(Created on Thursday, 11 July 2024 at 12:00)
(This preprocessor is the default preprocessor used by FlatCAM.)
(It is made to work with MACH3 compatible motion controllers.)
(TOOL DIAMETER: 0.2 mm)
(Feedrate_XY: 300.0 mm/min)
(Feedrate_Z: 60.0 mm/min)
(Feedrate rapids 1500.0 mm/min)
(Z_Cut: -0.2 mm)
(Z_Move: 2.0 mm)
(Z Start: None mm)
(Z End: 15.0 mm)
(X,Y End: None mm)
(Steps per circle: 64)
(Preprocessor Geometry: default)
(X range:    5.2950 ...   76.0610  mm)
(Y range:  -51.2250 ...   -0.3800  mm)
(Spindle Speed: 4000.0 RPM)
G21
G90
G94
G01 F300.00
M5
G00 Z15.0000
G00 X0.0000 Y0.0000
T1
G00 Z15.0000
M03 S4000.0
G01 F300.00
G00 X5.3950 Y-6.3370
G01 F60.00
G01 Z-0.2000
G01 F300.00
G01 X8.3950 Y-6.3370
G01 X8.4072 Y-6.3362
G01 X8.4169 Y-6.3346
G01 X8.4264 Y-6.3320
G01 X8.4355 Y-6.3284
G01 X8.4464 Y-6.3228
G01 X8.4526 Y-6.3188
G01 X8.4584 Y-6.3143
G01 X8.4674 Y-6.3060
G01 X8.4723 Y-6.3004
G01 X8.4768 Y-6.2946
G01 X8.4832 Y-6.2841
G01 X8.4864 Y-6.2775
G01 X8.4892 Y-6.2707
G01 X8.4914 Y-6.2637
G01 X8.4931 Y-6.2565
G01 X8.4942 Y-6.2492
G01 X8.4949 Y-6.2419
G01 X8.4950 Y-5.0370
G01 X8.4945 Y-5.0272
G01 X8.4931 Y-5.0175
G01 X8.4900 Y-5.0056
G01 X8.4864 Y-4.9965
G01 X8.4808 Y-4.9856
G01 X8.4768 Y-4.9794
G01 X8.4723 Y-4.9736
G01 X8.4674 Y-4.9680
G01 X8.4622 Y-4.9629
G01 X8.4565 Y-4.9582
G01 X8.4506 Y-4.9539
G01 X8.4443 Y-4.9500
G01 X8.4378 Y-4.9466
G01 X8.4310 Y-4.9437
G01 X8.4240 Y-4.9413
G01 X8.4121 Y-4.9385
G01 X8.4048 Y-4.9375
G01 X8.3975 Y-4.9370
G01 X5.3950 Y-4.9370
G01 X5.3852 Y-4.9375
G01 X5.3755 Y-4.9389
G01 X5.3636 Y-4.9420
G01 X5.3545 Y-4.9456
G01 X5.3436 Y-4.9512
G01 X5.3374 Y-4.9552
G01 X5.3316 Y-4.9597
G01 X5.3226 Y-4.9680
G01 X5.3177 Y-4.9736
G01 X5.3132 Y-4.9794
G01 X5.3092 Y-4.9856
G01 X5.3057 Y-4.9920
G01 X5.3008 Y-5.0033
G01 X5.2986 Y-5.0103
G01 X5.2969 Y-5.0175
G01 X5.2958 Y-5.0248
G01 X5.2951 Y-5.0321
G01 X5.2950 Y-6.2395
G01 X5.2958 Y-6.2492
G01 X5.2974 Y-6.2589
G01 X5.3000 Y-6.2684
G01 X5.3036 Y-6.2775
G01 X5.3080 Y-6.2863
G01 X5.3132 Y-6.2946
G01 X5.3193 Y-6.3023
G01 X5.3260 Y-6.3094
G01 X5.3335 Y-6.3158
G01 X5.3415 Y-6.3215
G01 X5.3479 Y-6.3252
G01 X5.3567 Y-6.3294
G01 X5.3660 Y-6.3327
G01 X5.3755 Y-6.3351
G01 X5.3852 Y-6.3365
G01 X5.3950 Y-6.3370
G00 Z2.0000
G00 X10.3450 Y-9.2870
G01 F60.00
G01 Z-0.2000
G01 F300.00
G01 X14.8450 Y-9.2870
G01 X14.8524 Y-9.2867
G01 X14.8597 Y-9.2859
G01 X14.8717 Y-9.2834
G01 X14.8787 Y-9.2812
G01 X14.8855 Y-9.2784
G01 X14.8921 Y-9.2752
G01 X14.9006 Y-9.2701
G01 X14.9065 Y-9.2658
G01 X14.9122 Y-9.2611
G01 X14.9174 Y-9.2560
G01 X14.9223 Y-9.2504
G01 X14.9268 Y-9.2446
G01 X14.9320 Y-9.2363
G01 X14.9354 Y-9.2298
G01 X14.9383 Y-9.2230
G01 X14.9407 Y-9.2160
G01 X14.9431 Y-9.2065
G01 X14.9442 Y-9.1992
G01 X14.9449 Y-9.1919
G01 X14.9450 Y-7.9870
G01 X14.9447 Y-7.9796
G01 X14.9439 Y-7.9723
G01 X14.9414 Y-7.9603
G01 X14.9383 Y-7.9510
G01 X14.9354 Y-7.9442
G01 X14.9320 Y-7.9377
G01 X14.9281 Y-7.9314
G01 X14.9223 Y-7.9236
G01 X14.9174 Y-7.9180
G01 X14.9122 Y-7.9129
G01 X14.9065 Y-7.9082
G01 X14.9006 Y-7.9039
G01 X14.8921 Y-7.8988
G01 X14.8855 Y-7.8956
G01 X14.8787 Y-7.8928
G01 X14.8717 Y-7.8906
G01 X14.8645 Y-7.8889
G01 X14.8572 Y-7.8878
G01 X14.8475 Y-7.8870
G01 X10.3450 Y-7.8870
G01 X10.3328 Y-7.8878
G01 X10.3255 Y-7.8889
G01 X10.3183 Y-7.8906
G01 X10.3113 Y-7.8928
G01 X10.3045 Y-7.8956
G01 X10.2979 Y-7.8988
G01 X10.2915 Y-7.9025
G01 X10.2854 Y-7.9067
G01 X10.2797 Y-7.9113
G01 X10.2726 Y-7.9180
G01 X10.2677 Y-7.9236
G01 X10.2632 Y-7.9294
G01 X10.2580 Y-7.9377
G01 X10.2546 Y-7.9442
G01 X10.2517 Y-7.9510
G01 X10.2493 Y-7.9580
G01 X10.2474 Y-7.9651
G01 X10.2458 Y-7.9748
G01 X10.2451 Y-7.9821
G01 X10.2450 Y-9.1895
G01 X10.2458 Y-9.1992
G01 X10.2474 Y-9.2089
G01 X10.2500 Y-9.2184
G01 X10.2536 Y-9.2275
G01 X10.2580 Y-9.2363
G01 X10.2632 Y-9.2446
G01 X10.2693 Y-9.2523
G01 X10.2760 Y-9.2594
G01 X10.2835 Y-9.2658
G01 X10.2915 Y-9.2715
G01 X10.3000 Y-9.2763
G01 X10.3090 Y-9.2803
G01 X10.3160 Y-9.2827
G01 X10.3255 Y-9.2851
G01 X10.3352 Y-9.2865
G01 X10.3450 Y-9.2870
G00 Z2.0000
G00 X10.3450 Y-11.7870
G01 F60.00
G01 Z-0.2000
G01 F300.00
G01 X14.8450 Y-11.7870
G01 X14.8524 Y-11.7867
G01 X14.8597 Y-11.7859
G01 X14.8717 Y-11.7834
G01 X14.8787 Y-11.7812
G01 X14.8855 Y-11.7784
G01 X14.8921 Y-11.7752
G01 X14.9006 Y-11.7701
G01 X14.9065 Y-11.7658
G01 X14.9122 Y-11.7611
G01 X14.9174 Y-11.7560
G01 X14.9223 Y-11.7504
G01 X14.9268 Y-11.7446
G01 X14.9320 Y-11.7363
G01 X14.9354 Y-11.7298
G01 X14.9383 Y-11.7230
G01 X14.9407 Y-11.7160
G01 X14.9431 Y-11.7065
G01 X14.9442 Y-11.6992
G01 X14.9449 Y-11.6919
G01 X14.9450 Y-10.4870
G01 X14.9447 Y-10.4796
G01 X14.9439 Y-10.4723
G01 X14.9414 Y-10.4603
G01 X14.9383 Y-10.4510
G01 X14.9354 Y-10.4442
G01 X14.9320 Y-10.4377
G01 X14.9281 Y-10.4314
G01 X14.9223 Y-10.4236
G01 X14.9174 Y-10.4180
G01 X14.9122 Y-10.4129
G01 X14.9065 Y-10.4082
G01 X14.9006 Y-10.4039
G01 X14.8921 Y-10.3988
G01 X14.8855 Y-10.3956
G01 X14.8787 Y-10.3928
G01 X14.8717 Y-10.3906
G01 X14.8645 Y-10.3889
G01 X14.8572 Y-10.3878
G01 X14.8475 Y-10.3870
G01 X10.3450 Y-10.3870
G01 X10.3328 Y-10.3878
G01 X10.3255 Y-10.3889
G01 X10.3183 Y-10.3906
G01 X10.3113 Y-10.3928
G01 X10.3045 Y-10.3956
G01 X10.2979 Y-10.3988
G01 X10.2915 Y-10.4025
G01 X10.2854 Y-10.4067
G01 X10.2797 Y-10.4113
G01 X10.2726 Y-10.4180
G01 X10.2677 Y-10.4236
G01 X10.2632 Y-10.4294
G01 X10.2580 Y-10.4377
G01 X10.2546 Y-10.4442
G01 X10.2517 Y-10.4510
G01 X10.2493 Y-10.4580
G01 X10.2474 Y-10.4651
G01 X10.2458 Y-10.4748
G01 X10.2451 Y-10.4821
G01 X10.2450 Y-11.6895
G01 X10.2458 Y-11.6992
G01 X10.2474 Y-11.7089
G01 X10.2500 Y-11.7184
G01 X10.2536 Y-11.7275
G01 X10.2580 Y-11.7363
G01 X10.2632 Y-11.7446
G01 X10.2693 Y-11.7523
G01 X10.2760 Y-11.7594
G01 X10.2835 Y-11.7658
G01 X10.2915 Y-11.7715
G01 X10.3000 Y-11.7763
G01 X10.3090 Y-11.7803
G01 X10.3160 Y-11.7827
G01 X10.3255 Y-11.7851
G01 X10.3352 Y-11.7865
G01 X10.3450 Y-11.7870
G00 Z2.0000
G00 X10.3450 Y-14.2870
G01 F60.00
G01 Z-0.2000
G01 F300.00
G01 X14.8450 Y-14.2870
G01 X14.8524 Y-14.2867
G01 X14.8597 Y-14.2859
G01 X14.8717 Y-14.2834
G01 X14.8787 Y-14.2812
G01 X14.8855 Y-14.2784
G01 X14.8921 Y-14.2752
G01 X14.9006 Y-14.2701
G01 X14.9065 Y-14.2658
G01 X14.9122 Y-14.2611
G01 X14.9174 Y-14.2560
G01 X14.9223 Y-14.2504
G01 X14.9268 Y-14.2446
G01 X14.9320 Y-14.2363
G01 X14.9354 Y-14.2298
G01 X14.9383 Y-14.2230
G01 X14.9407 Y-14.2160
G01 X14.9431 Y-14.2065
G01 X14.9442 Y-14.1992
G01 X14.9449 Y-14.1919
G01 X14.9450 Y-12.9870
G01 X14.9447 Y-12.9796
G01 X14.9439 Y-12.9723
G01 X14.9414 Y-12.9603
G01 X14.9383 Y-12.9510
G01 X14.9354 Y-12.9442
G01 X14.9320 Y-12.9377
G01 X14.9281 Y-12.9314
G01 X14.9223 Y-12.9236
G01 X14.9174 Y-12.9180
G01 X14.9122 Y-12.9129
G01 X14.9065 Y-12.9082
G01 X14.9006 Y-12.9039
G01 X14.8921 Y-12.8988
G01 X14.8855 Y-12.8956
G01 X14.8787 Y-12.8928
G01 X14.8717 Y-12.8906
G01 X14.8645 Y-12.8889
G01 X14.8572 Y-12.8878
G01 X14.8475 Y-12.8870
G01 X10.3450 Y-12.8870
G01 X10.3328 Y-12.8878
G01 X10.3255 Y-12.8889
G01 X10.3183 Y-12.8906
G01 X10.3113 Y-12.8928
G01 X10.3045 Y-12.8956
G01 X10.2979 Y-12.8988
G01 X10.2915 Y-12.9025
G01 X10.2854 Y-12.9067
G01 X10.2797 Y-12.9113
G01 X10.2726 Y-12.9180
G01 X10.2677 Y-12.9236
G01 X10.2632 Y-12.9294
G01 X10.2580 Y-12.9377
G01 X10.2546 Y-12.9442
G01 X10.2517 Y-12.9510
G01 X10.2493 Y-12.9580
G01 X10.2474 Y-12.9651
G01 X10.2458 Y-12.9748
G01 X10.2451 Y-12.9821
G01 X10.2450 Y-14.1895
G01 X10.2458 Y-14.1992
G01 X10.2474 Y-14.2089
G01 X10.2500 Y-14.2184
G01 X10.2536 Y-14.2275
G01 X10.2580 Y-14.2363
G01 X10.2632 Y-14.2446
G01 X10.2693 Y-14.2523
G01 X10.2760 Y-14.2594
G01 X10.2835 Y-14.2658
G01 X10.2915 Y-14.2715
G01 X10.3000 Y-14.2763
G01 X10.3090 Y-14.2803
G01 X10.3160 Y-14.2827
G01 X10.3255 Y-14.2851
G01 X10.3352 Y-14.2865
G01 X10.3450 Y-14.2870
G00 Z2.0000
G00 X10.3450 Y-16.7870
G01 F60.00
G01 Z-0.2000
G01 F300.00
G01 X14.8450 Y-16.7870
G01 X14.8524 Y-16.7867
G01 X14.8597 Y-16.7859
G01 X14.8717 Y-16.7834
G01 X14.8787 Y-16.7812
G01 X14.8855 Y-16.7784
G01 X14.8921 Y-16.7752
G01 X14.9006 Y-16.7701
G01 X14.9065 Y-16.7658
G01 X14.9122 Y-16.7611
G01 X14.9174 Y-16.7560
G01 X14.9223 Y-16.7504
G01 X14.9268 Y-16.7446
G01 X14.9320 Y-16.7363
G01 X14.9354 Y-16.7298
G01 X14.9383 Y-16.7230
G01 X14.9407 Y-16.7160
G01 X14.9431 Y-16.7065
G01 X14.9442 Y-16.6992
G01 X14.9449 Y-16.6919
G01 X14.9450 Y-15.4870
G01 X14.9447 Y-15.4796
G01 X14.9439 Y-15.4723
G01 X14.9414 Y-15.4603
G01 X14.9383 Y-15.4510
G01 X14.9354 Y-15.4442
G01 X14.9320 Y-15.4377
G01 X14.9281 Y-15.4314
G01 X14.9223 Y-15.4236
G01 X14.9174 Y-15.4180
G01 X14.9122 Y-15.4129
G01 X14.9065 Y-15.4082
G01 X14.9006 Y-15.4039
G01 X14.8921 Y-15.3988
G01 X14.8855 Y-15.3956
G01 X14.8787 Y-15.3928
G01 X14.8717 Y-15.3906
G01 X14.8645 Y-15.3889
G01 X14.8572 Y-15.3878
G01 X14.8475 Y-15.3870
G01 X10.3450 Y-15.3870
G01 X10.3328 Y-15.3878
G01 X10.3255 Y-15.3889
G01 X10.3183 Y-15.3906
G01 X10.3113 Y-15.3928
G01 X10.3045 Y-15.3956
G01 X10.2979 Y-15.3988
G01 X10.2915 Y-15.4025
G01 X10.2854 Y-15.4067
G01 X10.2797 Y-15.4113
G01 X10.2726 Y-15.4180
G01 X10.2677 Y-15.4236
G01 X10.2632 Y-15.4294
G01 X10.2580 Y-15.4377
G01 X10.2546 Y-15.4442
G01 X10.2517 Y-15.4510
G01 X10.2493 Y-15.4580
G01 X10.2474 Y-15.4651
G01 X10.2458 Y-15.4748
G01 X10.2451 Y-15.4821
G01 X10.2450 Y-16.6895
G01 X10.2458 Y-16.6992
G01 X10.2474 Y-16.7089
G01 X10.2500 Y-16.7184
G01 X10.2536 Y-16.7275
G01 X10.2580 Y-16.7363
G01 X10.2632 Y-16.7446
G01 X10.2693 Y-16.7523
G01 X10.2760 Y-16.7594
G01 X10.2835 Y-16.7658
G01 X10.2915 Y-16.7715
G01 X10.3000 Y-16.7763
G01 X10.3090 Y-16.7803
G01 X10.3160 Y-16.7827
G01 X10.3255 Y-16.7851
G01 X10.3352 Y-16.7865
G01 X10.3450 Y-16.7870
G00 Z2.0000
G00 X5.3950 Y-19.7370
G01 F60.00
G01 Z-0.2000
G01 F300.00
G01 X8.3950 Y-19.7370
G01 X8.4072 Y-19.7362
G01 X8.4169 Y-19.7346
G01 X8.4264 Y-19.7320
G01 X8.4355 Y-19.7284
G01 X8.4464 Y-19.7228
G01 X8.4526 Y-19.7188
G01 X8.4584 Y-19.7143
G01 X8.4674 Y-19.7060
G01 X8.4723 Y-19.7004
G01 X8.4768 Y-19.6946
G01 X8.4832 Y-19.6841
G01 X8.4864 Y-19.6775
G01 X8.4892 Y-19.6707
G01 X8.4914 Y-19.6637
G01 X8.4931 Y-19.6565
G01 X8.4942 Y-19.6492
G01 X8.4949 Y-19.6419
G01 X8.4950 Y-18.4370
G01 X8.4945 Y-18.4272
G01 X8.4931 Y-18.4175
G01 X8.4900 Y-18.4056
G01 X8.4864 Y-18.3965
G01 X8.4808 Y-18.3856
G01 X8.4768 Y-18.3794
G01 X8.4723 Y-18.3736
G01 X8.4674 Y-18.3680
G01 X8.4622 Y-18.3629
G01 X8.4565 Y-18.3582
G01 X8.4506 Y-18.3539
G01 X8.4443 Y-18.3500
G01 X8.4378 Y-18.3466
G01 X8.4310 Y-18.3437
G01 X8.4240 Y-18.3413
G01 X8.4121 Y-18.3385
G01 X8.4048 Y-18.3375
G01 X8.3975 Y-18.3370
G01 X5.3950 Y-18.3370
G01 X5.3852 Y-18.3375
G01 X5.3755 Y-18.3389
G01 X5.3636 Y-18.3420
G01 X5.3545 Y-18.3456
G01 X5.3436 Y-18.3512
G01 X5.3374 Y-18.3552
G01 X5.3316 Y-18.3597
G01 X5.3226 Y-18.3680
G01 X5.3177 Y-18.3736
G01 X5.3132 Y-18.3794
G01 X5.3092 Y-18.3856
G01 X5.3057 Y-18.3920
G01 X5.3008 Y-18.4033
G01 X5.2986 Y-18.4103
G01 X5.2969 Y-18.4175
G01 X5.2958 Y-18.4248
G01 X5.2951 Y-18.4321
G01 X5.2950 Y-19.6395
G01 X5.2958 Y-19.6492
G01 X5.2974 Y-19.6589
G01 X5.3000 Y-19.6684
G01 X5.3036 Y-19.6775
G01 X5.3080 Y-19.6863
G01 X5.3132 Y-19.6946
G01 X5.3193 Y-19.7023
G01 X5.3260 Y-19.7094
G01 X5.3316 Y-19.7143
G01 X5.3394 Y-19.7201
G01 X5.3479 Y-19.7252
G01 X5.3567 Y-19.7294
G01 X5.3660 Y-19.7327
G01 X5.3755 Y-19.7351
G01 X5.3852 Y-19.7365
G01 X5.3950 Y-19.7370
G00 Z2.0000
G00 X12.2480 Y-23.9710
G01 F60.00
G01 Z-0.2000
G01 F300.00
G01 X12.2480 Y-25.2210
G01 X12.2493 Y-25.2504
G01 X12.2500 Y-25.2577
G01 X12.2539 Y-25.2844
G01 X12.2558 Y-25.2941
G01 X12.2631 Y-25.3226
G01 X12.2746 Y-25.3549
G01 X12.2893 Y-25.3860
G01 X12.3044 Y-25.4113
G01 X12.3098 Y-25.4195
G01 X12.3290 Y-25.4449
G01 X12.3505 Y-25.4685
G01 X12.3722 Y-25.4883
G01 X12.3798 Y-25.4946
G01 X12.4036 Y-25.5120
G01 X12.4287 Y-25.5273
G01 X12.4352 Y-25.5308
G01 X12.4596 Y-25.5424
G01 X12.4686 Y-25.5461
G01 X12.4964 Y-25.5559
G01 X12.5297 Y-25.5643
G01 X12.5637 Y-25.5693
G01 X12.5955 Y-25.5710
G01 X13.3480 Y-25.5710
G01 X13.3799 Y-25.5695
G01 X13.4114 Y-25.5651
G01 X13.4211 Y-25.5632
G01 X13.4496 Y-25.5559
G01 X13.4819 Y-25.5444
G01 X13.5130 Y-25.5297
G01 X13.5383 Y-25.5146
G01 X13.5465 Y-25.5092
G01 X13.5719 Y-25.4900
G01 X13.5955 Y-25.4685
G01 X13.6153 Y-25.4468
G01 X13.6216 Y-25.4392
G01 X13.6390 Y-25.4154
G01 X13.6543 Y-25.3903
G01 X13.6578 Y-25.3838
G01 X13.6694 Y-25.3594
G01 X13.6731 Y-25.3504
G01 X13.6829 Y-25.3226
G01 X13.6913 Y-25.2893
G01 X13.6963 Y-25.2553
G01 X13.6980 Y-25.2235
G01 X13.6980 Y-23.9710
G01 X13.6967 Y-23.9416
G01 X13.6960 Y-23.9343
G01 X13.6921 Y-23.9076
G01 X13.6902 Y-23.8979
G01 X13.6829 Y-23.8694
G01 X13.6714 Y-23.8371
G01 X13.6567 Y-23.8060
G01 X13.6416 Y-23.7807
G01 X13.6362 Y-23.7725
G01 X13.6170 Y-23.7471
G01 X13.5955 Y-23.7235
G01 X13.5700 Y-23.7004
G01 X13.5424 Y-23.6800
G01 X13.5130 Y-23.6623
G01 X13.4819 Y-23.6476
G01 X13.4496 Y-23.6361
G01 X13.4163 Y-23.6277
G01 X13.3823 Y-23.6227
G01 X13.3480 Y-23.6210
G01 X12.5980 Y-23.6210
G01 X12.5637 Y-23.6227
G01 X12.5321 Y-23.6273
G01 X12.4964 Y-23.6361
G01 X12.4686 Y-23.6459
G01 X12.4618 Y-23.6486
G01 X12.4374 Y-23.6601
G01 X12.4287 Y-23.6647
G01 X12.4036 Y-23.6800
G01 X12.3760 Y-23.7004
G01 X12.3505 Y-23.7235
G01 X12.3274 Y-23.7490
G01 X12.3070 Y-23.7766
G01 X12.2893 Y-23.8060
G01 X12.2746 Y-23.8371
G01 X12.2646 Y-23.8647
G01 X12.2624 Y-23.8718
G01 X12.2558 Y-23.8979
G01 X12.2539 Y-23.9076
G01 X12.2497 Y-23.9367
G01 X12.2480 Y-23.9710
G00 Z2.0000
G00 X15.0480 Y-23.9710
G01 F60.00
G01 Z-0.2000
G01 F300.00
G01 X15.0480 Y-25.2210
G01 X15.0493 Y-25.2504
G01 X15.0500 Y-25.2577
G01 X15.0539 Y-25.2844
G01 X15.0558 Y-25.2941
G01 X15.0631 Y-25.3226
G01 X15.0746 Y-25.3549
G01 X15.0893 Y-25.3860
G01 X15.1044 Y-25.4113
G01 X15.1098 Y-25.4195
G01 X15.1290 Y-25.4449
G01 X15.1505 Y-25.4685
G01 X15.1722 Y-25.4883
G01 X15.1798 Y-25.4946
G01 X15.2036 Y-25.5120
G01 X15.2287 Y-25.5273
G01 X15.2352 Y-25.5308
G01 X15.2596 Y-25.5424
G01 X15.2686 Y-25.5461
G01 X15.2964 Y-25.5559
G01 X15.3297 Y-25.5643
G01 X15.3637 Y-25.5693
G01 X15.3955 Y-25.5710
G01 X16.1480 Y-25.5710
G01 X16.1799 Y-25.5695
G01 X16.2114 Y-25.5651
G01 X16.2211 Y-25.5632
G01 X16.2496 Y-25.5559
G01 X16.2819 Y-25.5444
G01 X16.3130 Y-25.5297
G01 X16.3383 Y-25.5146
G01 X16.3465 Y-25.5092
G01 X16.3719 Y-25.4900
G01 X16.3955 Y-25.4685
G01 X16.4153 Y-25.4468
G01 X16.4216 Y-25.4392
G01 X16.4390 Y-25.4154
G01 X16.4543 Y-25.3903
G01 X16.4578 Y-25.3838
G01 X16.4694 Y-25.3594
G01 X16.4731 Y-25.3504
G01 X16.4829 Y-25.3226
G01 X16.4913 Y-25.2893
G01 X16.4963 Y-25.2553
G01 X16.4980 Y-25.2235
G01 X16.4980 Y-23.9710
G01 X16.4967 Y-23.9416
G01 X16.4960 Y-23.9343
G01 X16.4921 Y-23.9076
G01 X16.4902 Y-23.8979
G01 X16.4829 Y-23.8694
G01 X16.4714 Y-23.8371
G01 X16.4567 Y-23.8060
G01 X16.4416 Y-23.7807
G01 X16.4362 Y-23.7725
G01 X16.4170 Y-23.7471
G01 X16.3955 Y-23.7235
G01 X16.3700 Y-23.7004
G01 X16.3424 Y-23.6800
G01 X16.3130 Y-23.6623
G01 X16.2819 Y-23.6476
G01 X16.2496 Y-23.6361
G01 X16.2163 Y-23.6277
G01 X16.1823 Y-23.6227
G01 X16.1480 Y-23.6210
G01 X15.3980 Y-23.6210
G01 X15.3637 Y-23.6227
G01 X15.3321 Y-23.6273
G01 X15.2964 Y-23.6361
G01 X15.2686 Y-23.6459
G01 X15.2618 Y-23.6486
G01 X15.2374 Y-23.6601
G01 X15.2287 Y-23.6647
G01 X15.2036 Y-23.6800
G01 X15.1760 Y-23.7004
G01 X15.1505 Y-23.7235
G01 X15.1274 Y-23.7490
G01 X15.1070 Y-23.7766
G01 X15.0893 Y-23.8060
G01 X15.0746 Y-23.8371
G01 X15.0646 Y-23.8647
G01 X15.0624 Y-23.8718
G01 X15.0558 Y-23.8979
G01 X15.0539 Y-23.9076
G01 X15.0497 Y-23.9367
G01 X15.0480 Y-23.9710
G00 Z2.0000
G00 X17.9736 Y-25.5451
G01 F60.00
G01 Z-0.2000
G01 F300.00
G01 X18.0014 Y-25.5549
G01 X18.0347 Y-25.5633
G01 X18.0687 Y-25.5683
G01 X18.1005 Y-25.5700
G01 X18.7280 Y-25.5700
G01 X18.7623 Y-25.5683
G01 X18.7914 Y-25.5641
G01 X18.8011 Y-25.5622
G01 X18.8296 Y-25.5549
G01 X18.8619 Y-25.5434
G01 X18.8930 Y-25.5287
G01 X18.9183 Y-25.5136
G01 X18.9265 Y-25.5082
G01 X18.9500 Y-25.4906
G01 X18.9719 Y-25.4709
G01 X18.9789 Y-25.4639
G01 X18.9970 Y-25.4439
G01 X19.0190 Y-25.4144
G01 X19.0343 Y-25.3893
G01 X19.0389 Y-25.3806
G01 X19.0504 Y-25.3562
G01 X19.0531 Y-25.3494
G01 X19.0629 Y-25.3216
G01 X19.0702 Y-25.2931
G01 X19.0721 Y-25.2834
G01 X19.0763 Y-25.2543
G01 X19.0780 Y-25.2225
G01 X19.0780 Y-23.9700
G01 X19.0763 Y-23.9357
G01 X19.0713 Y-23.9017
G01 X19.0642 Y-23.8731
G01 X19.0614 Y-23.8637
G01 X19.0514 Y-23.8361
G01 X19.0389 Y-23.8094
G01 X19.0343 Y-23.8007
G01 X19.0190 Y-23.7756
G01 X19.0016 Y-23.7518
G01 X18.9953 Y-23.7442
G01 X18.9755 Y-23.7225
G01 X18.9538 Y-23.7027
G01 X18.9462 Y-23.6964
G01 X18.9224 Y-23.6790
G01 X18.8973 Y-23.6637
G01 X18.8886 Y-23.6591
G01 X18.8619 Y-23.6466
G01 X18.8343 Y-23.6366
G01 X18.8272 Y-23.6344
G01 X18.8011 Y-23.6278
G01 X18.7914 Y-23.6259
G01 X18.7647 Y-23.6220
G01 X18.7329 Y-23.6201
G01 X18.1030 Y-23.6200
G01 X18.0736 Y-23.6213
G01 X18.0638 Y-23.6223
G01 X18.0347 Y-23.6267
G01 X18.0061 Y-23.6338
G01 X17.9991 Y-23.6358
G01 X17.9736 Y-23.6449
G01 X17.9646 Y-23.6486
G01 X17.9380 Y-23.6613
G01 X17.9065 Y-23.6804
G01 X17.8848 Y-23.6964
G01 X17.8772 Y-23.7027
G01 X17.8555 Y-23.7225
G01 X17.8357 Y-23.7442
G01 X17.8294 Y-23.7518
G01 X17.8120 Y-23.7756
G01 X17.7967 Y-23.8007
G01 X17.7921 Y-23.8094
G01 X17.7806 Y-23.8338
G01 X17.7779 Y-23.8406
G01 X17.7681 Y-23.8684
G01 X17.7608 Y-23.8969
G01 X17.7589 Y-23.9066
G01 X17.7547 Y-23.9357
G01 X17.7530 Y-23.9675
G01 X17.7530 Y-25.2200
G01 X17.7547 Y-25.2543
G01 X17.7589 Y-25.2834
G01 X17.7608 Y-25.2931
G01 X17.7681 Y-25.3216
G01 X17.7796 Y-25.3539
G01 X17.7921 Y-25.3806
G01 X17.7967 Y-25.3893
G01 X17.8120 Y-25.4144
G01 X17.8294 Y-25.4382
G01 X17.8357 Y-25.4458
G01 X17.8555 Y-25.4675
G01 X17.8772 Y-25.4873
G01 X17.8848 Y-25.4936
G01 X17.9086 Y-25.5110
G01 X17.9359 Y-25.5275
G01 X17.9646 Y-25.5414
G01 X17.9736 Y-25.5451
G00 Z2.0000
G00 X20.8986 Y-25.5451
G01 F60.00
G01 Z-0.2000
G01 F300.00
G01 X20.9264 Y-25.5549
G01 X20.9597 Y-25.5633
G01 X20.9937 Y-25.5683
G01 X21.0255 Y-25.5700
G01 X21.6530 Y-25.5700
G01 X21.6873 Y-25.5683
G01 X21.7164 Y-25.5641
G01 X21.7261 Y-25.5622
G01 X21.7546 Y-25.5549
G01 X21.7869 Y-25.5434
G01 X21.8180 Y-25.5287
G01 X21.8433 Y-25.5136
G01 X21.8515 Y-25.5082
G01 X21.8750 Y-25.4906
G01 X21.8969 Y-25.4709
G01 X21.9039 Y-25.4639
G01 X21.9220 Y-25.4439
G01 X21.9440 Y-25.4144
G01 X21.9593 Y-25.3893
G01 X21.9639 Y-25.3806
G01 X21.9754 Y-25.3562
G01 X21.9781 Y-25.3494
G01 X21.9879 Y-25.3216
G01 X21.9952 Y-25.2931
G01 X21.9971 Y-25.2834
G01 X22.0013 Y-25.2543
G01 X22.0030 Y-25.2225
G01 X22.0030 Y-23.9700
G01 X22.0013 Y-23.9357
G01 X21.9963 Y-23.9017
G01 X21.9892 Y-23.8731
G01 X21.9864 Y-23.8637
G01 X21.9764 Y-23.8361
G01 X21.9639 Y-23.8094
G01 X21.9593 Y-23.8007
G01 X21.9440 Y-23.7756
G01 X21.9266 Y-23.7518
G01 X21.9203 Y-23.7442
G01 X21.9005 Y-23.7225
G01 X21.8788 Y-23.7027
G01 X21.8712 Y-23.6964
G01 X21.8474 Y-23.6790
G01 X21.8223 Y-23.6637
G01 X21.8136 Y-23.6591
G01 X21.7869 Y-23.6466
G01 X21.7593 Y-23.6366
G01 X21.7522 Y-23.6344
G01 X21.7261 Y-23.6278
G01 X21.7164 Y-23.6259
G01 X21.6897 Y-23.6220
G01 X21.6579 Y-23.6201
G01 X21.0280 Y-23.6200
G01 X20.9986 Y-23.6213
G01 X20.9888 Y-23.6223
G01 X20.9597 Y-23.6267
G01 X20.9311 Y-23.6338
G01 X20.9241 Y-23.6358
G01 X20.8986 Y-23.6449
G01 X20.8896 Y-23.6486
G01 X20.8630 Y-23.6613
G01 X20.8315 Y-23.6804
G01 X20.8098 Y-23.6964
G01 X20.8022 Y-23.7027
G01 X20.7805 Y-23.7225
G01 X20.7607 Y-23.7442
G01 X20.7544 Y-23.7518
G01 X20.7370 Y-23.7756
G01 X20.7217 Y-23.8007
G01 X20.7171 Y-23.8094
G01 X20.7056 Y-23.8338
G01 X20.7029 Y-23.8406
G01 X20.6931 Y-23.8684
G01 X20.6858 Y-23.8969
G01 X20.6839 Y-23.9066
G01 X20.6797 Y-23.9357
G01 X20.6780 Y-23.9675
G01 X20.6780 Y-25.2200
G01 X20.6797 Y-25.2543
G01 X20.6839 Y-25.2834
G01 X20.6858 Y-25.2931
G01 X20.6931 Y-25.3216
G01 X20.7046 Y-25.3539
G01 X20.7171 Y-25.3806
G01 X20.7217 Y-25.3893
G01 X20.7370 Y-25.4144
G01 X20.7544 Y-25.4382
G01 X20.7607 Y-25.4458
G01 X20.7805 Y-25.4675
G01 X20.8022 Y-25.4873
G01 X20.8098 Y-25.4936
G01 X20.8336 Y-25.5110
G01 X20.8609 Y-25.5275
G01 X20.8896 Y-25.5414
G01 X20.8986 Y-25.5451
G00 Z2.0000
G00 X25.8236 Y-24.1111
G01 F60.00
G01 Z-0.2000
G01 F300.00
G01 X25.8514 Y-24.1209
G01 X25.8847 Y-24.1293
G01 X25.9187 Y-24.1343
G01 X25.9530 Y-24.1360
G01 X28.2079 Y-24.1359
G01 X28.2397 Y-24.1340
G01 X28.2664 Y-24.1301
G01 X28.2761 Y-24.1282
G01 X28.3022 Y-24.1216
G01 X28.3093 Y-24.1194
G01 X28.3369 Y-24.1094
G01 X28.3636 Y-24.0969
G01 X28.3723 Y-24.0923
G01 X28.3974 Y-24.0770
G01 X28.4250 Y-24.0566
G01 X28.4505 Y-24.0335
G01 X28.4736 Y-24.0080
G01 X28.4940 Y-23.9804
G01 X28.5093 Y-23.9553
G01 X28.5128 Y-23.9488
G01 X28.5244 Y-23.9244
G01 X28.5281 Y-23.9154
G01 X28.5379 Y-23.8876
G01 X28.5463 Y-23.8543
G01 X28.5513 Y-23.8203
G01 X28.5530 Y-23.7885
G01 X28.5530 Y-21.2335
G01 X28.5513 Y-21.2017
G01 X28.5471 Y-21.1726
G01 X28.5452 Y-21.1629
G01 X28.5379 Y-21.1344
G01 X28.5281 Y-21.1066
G01 X28.5254 Y-21.0998
G01 X28.5139 Y-21.0754
G01 X28.5093 Y-21.0667
G01 X28.4940 Y-21.0416
G01 X28.4736 Y-21.0140
G01 X28.4505 Y-20.9885
G01 X28.4250 Y-20.9654
G01 X28.3974 Y-20.9450
G01 X28.3723 Y-20.9297
G01 X28.3636 Y-20.9251
G01 X28.3392 Y-20.9136
G01 X28.3324 Y-20.9109
G01 X28.3046 Y-20.9011
G01 X28.2713 Y-20.8927
G01 X28.2373 Y-20.8877
G01 X28.2055 Y-20.8860
G01 X25.9505 Y-20.8860
G01 X25.9187 Y-20.8877
G01 X25.8896 Y-20.8919
G01 X25.8799 Y-20.8938
G01 X25.8538 Y-20.9004
G01 X25.8467 Y-20.9026
G01 X25.8191 Y-20.9126
G01 X25.7924 Y-20.9251
G01 X25.7837 Y-20.9297
G01 X25.7586 Y-20.9450
G01 X25.7310 Y-20.9654
G01 X25.7055 Y-20.9885
G01 X25.6824 Y-21.0140
G01 X25.6620 Y-21.0416
G01 X25.6467 Y-21.0667
G01 X25.6432 Y-21.0732
G01 X25.6316 Y-21.0976
G01 X25.6279 Y-21.1066
G01 X25.6181 Y-21.1344
G01 X25.6097 Y-21.1677
G01 X25.6047 Y-21.2017
G01 X25.6030 Y-21.2335
G01 X25.6031 Y-23.7909
G01 X25.6047 Y-23.8203
G01 X25.6089 Y-23.8494
G01 X25.6108 Y-23.8591
G01 X25.6181 Y-23.8876
G01 X25.6296 Y-23.9199
G01 X25.6421 Y-23.9466
G01 X25.6467 Y-23.9553
G01 X25.6634 Y-23.9825
G01 X25.6824 Y-24.0080
G01 X25.7021 Y-24.0299
G01 X25.7091 Y-24.0369
G01 X25.7310 Y-24.0566
G01 X25.7586 Y-24.0770
G01 X25.7837 Y-24.0923
G01 X25.7902 Y-24.0958
G01 X25.8146 Y-24.1074
G01 X25.8236 Y-24.1111
G00 Z2.0000
G00 X28.8736 Y-24.1111
G01 F60.00
G01 Z-0.2000
G01 F300.00
G01 X28.9014 Y-24.1209
G01 X28.9347 Y-24.1293
G01 X28.9687 Y-24.1343
G01 X29.0030 Y-24.1360
G01 X31.2579 Y-24.1359
G01 X31.2897 Y-24.1340
G01 X31.3164 Y-24.1301
G01 X31.3261 Y-24.1282
G01 X31.3522 Y-24.1216
G01 X31.3593 Y-24.1194
G01 X31.3869 Y-24.1094
G01 X31.4136 Y-24.0969
G01 X31.4223 Y-24.0923
G01 X31.4474 Y-24.0770
G01 X31.4750 Y-24.0566
G01 X31.5005 Y-24.0335
G01 X31.5236 Y-24.0080
G01 X31.5440 Y-23.9804
G01 X31.5593 Y-23.9553
G01 X31.5628 Y-23.9488
G01 X31.5744 Y-23.9244
G01 X31.5781 Y-23.9154
G01 X31.5879 Y-23.8876
G01 X31.5963 Y-23.8543
G01 X31.6013 Y-23.8203
G01 X31.6030 Y-23.7885
G01 X31.6030 Y-21.2335
G01 X31.6013 Y-21.2017
G01 X31.5971 Y-21.1726
G01 X31.5952 Y-21.1629
G01 X31.5879 Y-21.1344
G01 X31.5781 Y-21.1066
G01 X31.5754 Y-21.0998
G01 X31.5639 Y-21.0754
G01 X31.5593 Y-21.0667
G01 X31.5440 Y-21.0416
G01 X31.5236 Y-21.0140
G01 X31.5005 Y-20.9885
G01 X31.4750 Y-20.9654
G01 X31.4474 Y-20.9450
G01 X31.4223 Y-20.9297
G01 X31.4136 Y-20.9251
G01 X31.3892 Y-20.9136
G01 X31.3824 Y-20.9109
G01 X31.3546 Y-20.9011
G01 X31.3213 Y-20.8927
G01 X31.2873 Y-20.8877
G01 X31.2555 Y-20.8860
G01 X29.0005 Y-20.8860
G01 X28.9687 Y-20.8877
G01 X28.9396 Y-20.8919
G01 X28.9299 Y-20.8938
G01 X28.9038 Y-20.9004
G01 X28.8967 Y-20.9026
G01 X28.8691 Y-20.9126
G01 X28.8424 Y-20.9251
G01 X28.8337 Y-20.9297
G01 X28.8086 Y-20.9450
G01 X28.7810 Y-20.9654
G01 X28.7555 Y-20.9885
G01 X28.7324 Y-21.0140
G01 X28.7120 Y-21.0416
G01 X28.6967 Y-21.0667
G01 X28.6932 Y-21.0732
G01 X28.6816 Y-21.0976
G01 X28.6779 Y-21.1066
G01 X28.6681 Y-21.1344
G01 X28.6597 Y-21.1677
G01 X28.6547 Y-21.2017
G01 X28.6530 Y-21.2335
G01 X28.6531 Y-23.7909
G01 X28.6547 Y-23.8203
G01 X28.6589 Y-23.8494
G01 X28.6608 Y-23.8591
G01 X28.6681 Y-23.8876
G01 X28.6796 Y-23.9199
G01 X28.6921 Y-23.9466
G01 X28.6967 Y-23.9553
G01 X28.7134 Y-23.9825
G01 X28.7324 Y-24.0080
G01 X28.7521 Y-24.0299
G01 X28.7591 Y-24.0369
G01 X28.7810 Y-24.0566
G01 X28.8086 Y-24.0770
G01 X28.8337 Y-24.0923
G01 X28.8402 Y-24.0958
G01 X28.8646 Y-24.1074
G01 X28.8736 Y-24.1111
G00 Z2.0000
G00 X28.8736 Y-20.7611
G01 F60.00
G01 Z-0.2000
G01 F300.00
G01 X28.9014 Y-20.7709
G01 X28.9347 Y-20.7793
G01 X28.9687 Y-20.7843
G01 X29.0030 Y-20.7860
G01 X31.2579 Y-20.7859
G01 X31.2897 Y-20.7840
G01 X31.3164 Y-20.7801
G01 X31.3261 Y-20.7782
G01 X31.3522 Y-20.7716
G01 X31.3593 Y-20.7694
G01 X31.3869 Y-20.7594
G01 X31.4136 Y-20.7469
G01 X31.4223 Y-20.7423
G01 X31.4474 Y-20.7270
G01 X31.4750 Y-20.7066
G01 X31.5005 Y-20.6835
G01 X31.5236 Y-20.6580
G01 X31.5440 Y-20.6304
G01 X31.5593 Y-20.6053
G01 X31.5628 Y-20.5988
G01 X31.5744 Y-20.5744
G01 X31.5781 Y-20.5654
G01 X31.5879 Y-20.5376
G01 X31.5963 Y-20.5043
G01 X31.6013 Y-20.4703
G01 X31.6030 Y-20.4385
G01 X31.6030 Y-17.8835
G01 X31.6013 Y-17.8517
G01 X31.5971 Y-17.8226
G01 X31.5952 Y-17.8129
G01 X31.5886 Y-17.7868
G01 X31.5864 Y-17.7797
G01 X31.5764 Y-17.7521
G01 X31.5639 Y-17.7254
G01 X31.5593 Y-17.7167
G01 X31.5440 Y-17.6916
G01 X31.5236 Y-17.6640
G01 X31.5005 Y-17.6385
G01 X31.4750 Y-17.6154
G01 X31.4474 Y-17.5950
G01 X31.4223 Y-17.5797
G01 X31.4136 Y-17.5751
G01 X31.3892 Y-17.5636
G01 X31.3824 Y-17.5609
G01 X31.3546 Y-17.5511
G01 X31.3213 Y-17.5427
G01 X31.2873 Y-17.5377
G01 X31.2555 Y-17.5360
G01 X29.0005 Y-17.5360
G01 X28.9687 Y-17.5377
G01 X28.9396 Y-17.5419
G01 X28.9299 Y-17.5438
G01 X28.9014 Y-17.5511
G01 X28.8736 Y-17.5609
G01 X28.8668 Y-17.5636
G01 X28.8424 Y-17.5751
G01 X28.8337 Y-17.5797
G01 X28.8086 Y-17.5950
G01 X28.7810 Y-17.6154
G01 X28.7555 Y-17.6385
G01 X28.7324 Y-17.6640
G01 X28.7120 Y-17.6916
G01 X28.6967 Y-17.7167
G01 X28.6932 Y-17.7232
G01 X28.6816 Y-17.7476
G01 X28.6779 Y-17.7566
G01 X28.6681 Y-17.7844
G01 X28.6597 Y-17.8177
G01 X28.6547 Y-17.8517
G01 X28.6530 Y-17.8835
G01 X28.6531 Y-20.4409
G01 X28.6547 Y-20.4703
G01 X28.6589 Y-20.4994
G01 X28.6608 Y-20.5091
G01 X28.6681 Y-20.5376
G01 X28.6796 Y-20.5699
G01 X28.6921 Y-20.5966
G01 X28.6967 Y-20.6053
G01 X28.7134 Y-20.6325
G01 X28.7324 Y-20.6580
G01 X28.7521 Y-20.6799
G01 X28.7591 Y-20.6869
G01 X28.7810 Y-20.7066
G01 X28.8086 Y-20.7270
G01 X28.8337 Y-20.7423
G01 X28.8402 Y-20.7458
G01 X28.8646 Y-20.7574
G01 X28.8736 Y-20.7611
G00 Z2.0000
G00 X25.8236 Y-20.7611
G01 F60.00
G01 Z-0.2000
G01 F300.00
G01 X25.8514 Y-20.7709
G01 X25.8847 Y-20.7793
G01 X25.9187 Y-20.7843
G01 X25.9530 Y-20.7860
G01 X28.2079 Y-20.7859
G01 X28.2397 Y-20.7840
G01 X28.2664 Y-20.7801
G01 X28.2761 Y-20.7782
G01 X28.3022 Y-20.7716
G01 X28.3093 Y-20.7694
G01 X28.3369 Y-20.7594
G01 X28.3636 Y-20.7469
G01 X28.3723 Y-20.7423
G01 X28.3974 Y-20.7270
G01 X28.4250 Y-20.7066
G01 X28.4505 Y-20.6835
G01 X28.4736 Y-20.6580
G01 X28.4940 Y-20.6304
G01 X28.5093 Y-20.6053
G01 X28.5128 Y-20.5988
G01 X28.5244 Y-20.5744
G01 X28.5281 Y-20.5654
G01 X28.5379 Y-20.5376
G01 X28.5463 Y-20.5043
G01 X28.5513 Y-20.4703
G01 X28.5530 Y-20.4385
G01 X28.5530 Y-17.8835
G01 X28.5513 Y-17.8517
G01 X28.5471 Y-17.8226
G01 X28.5452 Y-17.8129
G01 X28.5386 Y-17.7868
G01 X28.5364 Y-17.7797
G01 X28.5264 Y-17.7521
G01 X28.5139 Y-17.7254
G01 X28.5093 Y-17.7167
G01 X28.4940 Y-17.6916
G01 X28.4736 Y-17.6640
G01 X28.4505 Y-17.6385
G01 X28.4250 Y-17.6154
G01 X28.3974 Y-17.5950
G01 X28.3723 Y-17.5797
G01 X28.3636 Y-17.5751
G01 X28.3392 Y-17.5636
G01 X28.3324 Y-17.5609
G01 X28.3046 Y-17.5511
G01 X28.2713 Y-17.5427
G01 X28.2373 Y-17.5377
G01 X28.2055 Y-17.5360
G01 X25.9505 Y-17.5360
G01 X25.9187 Y-17.5377
G01 X25.8896 Y-17.5419
G01 X25.8799 Y-17.5438
G01 X25.8514 Y-17.5511
G01 X25.8236 Y-17.5609
G01 X25.8168 Y-17.5636
G01 X25.7924 Y-17.5751
G01 X25.7837 Y-17.5797
G01 X25.7586 Y-17.5950
G01 X25.7310 Y-17.6154
G01 X25.7055 Y-17.6385
G01 X25.6824 Y-17.6640
G01 X25.6620 Y-17.6916
G01 X25.6467 Y-17.7167
G01 X25.6432 Y-17.7232
G01 X25.6316 Y-17.7476
G01 X25.6279 Y-17.7566
G01 X25.6181 Y-17.7844
G01 X25.6097 Y-17.8177
G01 X25.6047 Y-17.8517
G01 X25.6030 Y-17.8835
G01 X25.6031 Y-20.4409
G01 X25.6047 Y-20.4703
G01 X25.6089 Y-20.4994
G01 X25.6108 Y-20.5091
G01 X25.6181 Y-20.5376
G01 X25.6296 Y-20.5699
G01 X25.6421 Y-20.5966
G01 X25.6467 Y-20.6053
G01 X25.6634 Y-20.6325
G01 X25.6824 Y-20.6580
G01 X25.7021 Y-20.6799
G01 X25.7091 Y-20.6869
G01 X25.7310 Y-20.7066
G01 X25.7586 Y-20.7270
G01 X25.7837 Y-20.7423
G01 X25.7902 Y-20.7458
G01 X25.8146 Y-20.7574
G01 X25.8236 Y-20.7611
G00 Z2.0000
G00 X25.0070 Y-13.7910
G01 F60.00
G01 Z-0.2000
G01 F300.00
G01 X25.0070 Y-12.5410
G01 X25.0057 Y-12.5116
G01 X25.0050 Y-12.5043
G01 X25.0011 Y-12.4776
G01 X24.9992 Y-12.4679
G01 X24.9919 Y-12.4394
G01 X24.9804 Y-12.4071
G01 X24.9679 Y-12.3804
G01 X24.9633 Y-12.3717
G01 X24.9480 Y-12.3466
G01 X24.9291 Y-12.3209
G01 X24.9045 Y-12.2935
G01 X24.8790 Y-12.2704
G01 X24.8514 Y-12.2500
G01 X24.8263 Y-12.2347
G01 X24.8176 Y-12.2301
G01 X24.7909 Y-12.2176
G01 X24.7633 Y-12.2076
G01 X24.7562 Y-12.2054
G01 X24.7301 Y-12.1988
G01 X24.7204 Y-12.1969
G01 X24.6937 Y-12.1930
G01 X24.6619 Y-12.1911
G01 X24.0320 Y-12.1910
G01 X23.9977 Y-12.1927
G01 X23.9637 Y-12.1977
G01 X23.9351 Y-12.2048
G01 X23.9257 Y-12.2076
G01 X23.8981 Y-12.2176
G01 X23.8714 Y-12.2301
G01 X23.8627 Y-12.2347
G01 X23.8376 Y-12.2500
G01 X23.8119 Y-12.2689
G01 X23.7845 Y-12.2935
G01 X23.7614 Y-12.3190
G01 X23.7410 Y-12.3466
G01 X23.7257 Y-12.3717
G01 X23.7211 Y-12.3804
G01 X23.7096 Y-12.4048
G01 X23.7069 Y-12.4116
G01 X23.6971 Y-12.4394
G01 X23.6898 Y-12.4679
G01 X23.6879 Y-12.4776
G01 X23.6837 Y-12.5067
G01 X23.6820 Y-12.5385
G01 X23.6820 Y-13.7910
G01 X23.6833 Y-13.8204
G01 X23.6840 Y-13.8277
G01 X23.6879 Y-13.8544
G01 X23.6898 Y-13.8641
G01 X23.6971 Y-13.8926
G01 X23.7086 Y-13.9249
G01 X23.7211 Y-13.9516
G01 X23.7257 Y-13.9603
G01 X23.7410 Y-13.9854
G01 X23.7599 Y-14.0111
G01 X23.7845 Y-14.0385
G01 X23.8100 Y-14.0616
G01 X23.8376 Y-14.0820
G01 X23.8670 Y-14.0997
G01 X23.8981 Y-14.1144
G01 X23.9304 Y-14.1259
G01 X23.9637 Y-14.1343
G01 X23.9953 Y-14.1390
G01 X24.0320 Y-14.1410
G01 X24.6570 Y-14.1410
G01 X24.6913 Y-14.1393
G01 X24.7229 Y-14.1347
G01 X24.7586 Y-14.1259
G01 X24.7864 Y-14.1161
G01 X24.7932 Y-14.1134
G01 X24.8176 Y-14.1019
G01 X24.8263 Y-14.0973
G01 X24.8514 Y-14.0820
G01 X24.8790 Y-14.0616
G01 X24.9045 Y-14.0385
G01 X24.9276 Y-14.0130
G01 X24.9480 Y-13.9854
G01 X24.9657 Y-13.9560
G01 X24.9804 Y-13.9249
G01 X24.9904 Y-13.8973
G01 X24.9926 Y-13.8902
G01 X24.9992 Y-13.8641
G01 X25.0011 Y-13.8544
G01 X25.0053 Y-13.8253
G01 X25.0070 Y-13.7910
G00 Z2.0000
G00 X22.0820 Y-13.7910
G01 F60.00
G01 Z-0.2000
G01 F300.00
G01 X22.0820 Y-12.5410
G01 X22.0807 Y-12.5116
G01 X22.0800 Y-12.5043
G01 X22.0761 Y-12.4776
G01 X22.0742 Y-12.4679
G01 X22.0669 Y-12.4394
G01 X22.0554 Y-12.4071
G01 X22.0429 Y-12.3804
G01 X22.0383 Y-12.3717
G01 X22.0230 Y-12.3466
G01 X22.0041 Y-12.3209
G01 X21.9795 Y-12.2935
G01 X21.9540 Y-12.2704
G01 X21.9264 Y-12.2500
G01 X21.9013 Y-12.2347
G01 X21.8926 Y-12.2301
G01 X21.8659 Y-12.2176
G01 X21.8383 Y-12.2076
G01 X21.8312 Y-12.2054
G01 X21.8051 Y-12.1988
G01 X21.7954 Y-12.1969
G01 X21.7687 Y-12.1930
G01 X21.7369 Y-12.1911
G01 X21.1070 Y-12.1910
G01 X21.0727 Y-12.1927
G01 X21.0387 Y-12.1977
G01 X21.0101 Y-12.2048
G01 X21.0007 Y-12.2076
G01 X20.9731 Y-12.2176
G01 X20.9464 Y-12.2301
G01 X20.9377 Y-12.2347
G01 X20.9126 Y-12.2500
G01 X20.8869 Y-12.2689
G01 X20.8595 Y-12.2935
G01 X20.8364 Y-12.3190
G01 X20.8160 Y-12.3466
G01 X20.8007 Y-12.3717
G01 X20.7961 Y-12.3804
G01 X20.7846 Y-12.4048
G01 X20.7819 Y-12.4116
G01 X20.7721 Y-12.4394
G01 X20.7648 Y-12.4679
G01 X20.7629 Y-12.4776
G01 X20.7587 Y-12.5067
G01 X20.7570 Y-12.5385
G01 X20.7570 Y-13.7910
G01 X20.7583 Y-13.8204
G01 X20.7590 Y-13.8277
G01 X20.7629 Y-13.8544
G01 X20.7648 Y-13.8641
G01 X20.7721 Y-13.8926
G01 X20.7836 Y-13.9249
G01 X20.7961 Y-13.9516
G01 X20.8007 Y-13.9603
G01 X20.8160 Y-13.9854
G01 X20.8349 Y-14.0111
G01 X20.8595 Y-14.0385
G01 X20.8850 Y-14.0616
G01 X20.9126 Y-14.0820
G01 X20.9420 Y-14.0997
G01 X20.9731 Y-14.1144
G01 X21.0054 Y-14.1259
G01 X21.0387 Y-14.1343
G01 X21.0703 Y-14.1390
G01 X21.1070 Y-14.1410
G01 X21.7320 Y-14.1410
G01 X21.7663 Y-14.1393
G01 X21.7979 Y-14.1347
G01 X21.8336 Y-14.1259
G01 X21.8614 Y-14.1161
G01 X21.8682 Y-14.1134
G01 X21.8926 Y-14.1019
G01 X21.9013 Y-14.0973
G01 X21.9264 Y-14.0820
G01 X21.9540 Y-14.0616
G01 X21.9795 Y-14.0385
G01 X22.0026 Y-14.0130
G01 X22.0230 Y-13.9854
G01 X22.0407 Y-13.9560
G01 X22.0554 Y-13.9249
G01 X22.0654 Y-13.8973
G01 X22.0676 Y-13.8902
G01 X22.0742 Y-13.8641
G01 X22.0761 Y-13.8544
G01 X22.0803 Y-13.8253
G01 X22.0820 Y-13.7910
G00 Z2.0000
G00 X28.0510 Y-13.7910
G01 F60.00
G01 Z-0.2000
G01 F300.00
G01 X28.0510 Y-12.5410
G01 X28.0497 Y-12.5116
G01 X28.0490 Y-12.5043
G01 X28.0451 Y-12.4776
G01 X28.0432 Y-12.4679
G01 X28.0359 Y-12.4394
G01 X28.0244 Y-12.4071
G01 X28.0119 Y-12.3804
G01 X28.0073 Y-12.3717
G01 X27.9920 Y-12.3466
G01 X27.9731 Y-12.3209
G01 X27.9485 Y-12.2935
G01 X27.9230 Y-12.2704
G01 X27.8954 Y-12.2500
G01 X27.8703 Y-12.2347
G01 X27.8616 Y-12.2301
G01 X27.8349 Y-12.2176
G01 X27.8073 Y-12.2076
G01 X27.8002 Y-12.2054
G01 X27.7741 Y-12.1988
G01 X27.7644 Y-12.1969
G01 X27.7377 Y-12.1930
G01 X27.7059 Y-12.1911
G01 X27.0760 Y-12.1910
G01 X27.0417 Y-12.1927
G01 X27.0077 Y-12.1977
G01 X26.9791 Y-12.2048
G01 X26.9697 Y-12.2076
G01 X26.9421 Y-12.2176
G01 X26.9154 Y-12.2301
G01 X26.9067 Y-12.2347
G01 X26.8816 Y-12.2500
G01 X26.8559 Y-12.2689
G01 X26.8285 Y-12.2935
G01 X26.8054 Y-12.3190
G01 X26.7850 Y-12.3466
G01 X26.7697 Y-12.3717
G01 X26.7651 Y-12.3804
G01 X26.7536 Y-12.4048
G01 X26.7509 Y-12.4116
G01 X26.7411 Y-12.4394
G01 X26.7338 Y-12.4679
G01 X26.7319 Y-12.4776
G01 X26.7277 Y-12.5067
G01 X26.7260 Y-12.5385
G01 X26.7260 Y-13.7910
G01 X26.7273 Y-13.8204
G01 X26.7280 Y-13.8277
G01 X26.7319 Y-13.8544
G01 X26.7338 Y-13.8641
G01 X26.7411 Y-13.8926
G01 X26.7526 Y-13.9249
G01 X26.7651 Y-13.9516
G01 X26.7697 Y-13.9603
G01 X26.7850 Y-13.9854
G01 X26.8039 Y-14.0111
G01 X26.8285 Y-14.0385
G01 X26.8540 Y-14.0616
G01 X26.8816 Y-14.0820
G01 X26.9110 Y-14.0997
G01 X26.9421 Y-14.1144
G01 X26.9744 Y-14.1259
G01 X27.0077 Y-14.1343
G01 X27.0393 Y-14.1390
G01 X27.0760 Y-14.1410
G01 X27.7010 Y-14.1410
G01 X27.7353 Y-14.1393
G01 X27.7669 Y-14.1347
G01 X27.8026 Y-14.1259
G01 X27.8304 Y-14.1161
G01 X27.8372 Y-14.1134
G01 X27.8616 Y-14.1019
G01 X27.8703 Y-14.0973
G01 X27.8954 Y-14.0820
G01 X27.9230 Y-14.0616
G01 X27.9485 Y-14.0385
G01 X27.9716 Y-14.0130
G01 X27.9920 Y-13.9854
G01 X28.0097 Y-13.9560
G01 X28.0244 Y-13.9249
G01 X28.0344 Y-13.8973
G01 X28.0366 Y-13.8902
G01 X28.0432 Y-13.8641
G01 X28.0451 Y-13.8544
G01 X28.0493 Y-13.8253
G01 X28.0510 Y-13.7910
G00 Z2.0000
G00 X30.9760 Y-13.7910
G01 F60.00
G01 Z-0.2000
G01 F300.00
G01 X30.9760 Y-12.5410
G01 X30.9747 Y-12.5116
G01 X30.9740 Y-12.5043
G01 X30.9701 Y-12.4776
G01 X30.9682 Y-12.4679
G01 X30.9609 Y-12.4394
G01 X30.9494 Y-12.4071
G01 X30.9369 Y-12.3804
G01 X30.9323 Y-12.3717
G01 X30.9170 Y-12.3466
G01 X30.8981 Y-12.3209
G01 X30.8735 Y-12.2935
G01 X30.8480 Y-12.2704
G01 X30.8204 Y-12.2500
G01 X30.7953 Y-12.2347
G01 X30.7866 Y-12.2301
G01 X30.7599 Y-12.2176
G01 X30.7323 Y-12.2076
G01 X30.7252 Y-12.2054
G01 X30.6991 Y-12.1988
G01 X30.6894 Y-12.1969
G01 X30.6627 Y-12.1930
G01 X30.6309 Y-12.1911
G01 X30.0010 Y-12.1910
G01 X29.9667 Y-12.1927
G01 X29.9327 Y-12.1977
G01 X29.9041 Y-12.2048
G01 X29.8947 Y-12.2076
G01 X29.8671 Y-12.2176
G01 X29.8404 Y-12.2301
G01 X29.8317 Y-12.2347
G01 X29.8066 Y-12.2500
G01 X29.7809 Y-12.2689
G01 X29.7535 Y-12.2935
G01 X29.7304 Y-12.3190
G01 X29.7100 Y-12.3466
G01 X29.6947 Y-12.3717
G01 X29.6901 Y-12.3804
G01 X29.6786 Y-12.4048
G01 X29.6759 Y-12.4116
G01 X29.6661 Y-12.4394
G01 X29.6588 Y-12.4679
G01 X29.6569 Y-12.4776
G01 X29.6527 Y-12.5067
G01 X29.6510 Y-12.5385
G01 X29.6510 Y-13.7910
G01 X29.6523 Y-13.8204
G01 X29.6530 Y-13.8277
G01 X29.6569 Y-13.8544
G01 X29.6588 Y-13.8641
G01 X29.6661 Y-13.8926
G01 X29.6776 Y-13.9249
G01 X29.6901 Y-13.9516
G01 X29.6947 Y-13.9603
G01 X29.7100 Y-13.9854
G01 X29.7289 Y-14.0111
G01 X29.7535 Y-14.0385
G01 X29.7790 Y-14.0616
G01 X29.8066 Y-14.0820
G01 X29.8360 Y-14.0997
G01 X29.8671 Y-14.1144
G01 X29.8994 Y-14.1259
G01 X29.9327 Y-14.1343
G01 X29.9643 Y-14.1390
G01 X30.0010 Y-14.1410
G01 X30.6260 Y-14.1410
G01 X30.6603 Y-14.1393
G01 X30.6919 Y-14.1347
G01 X30.7276 Y-14.1259
G01 X30.7554 Y-14.1161
G01 X30.7622 Y-14.1134
G01 X30.7866 Y-14.1019
G01 X30.7953 Y-14.0973
G01 X30.8204 Y-14.0820
G01 X30.8480 Y-14.0616
G01 X30.8735 Y-14.0385
G01 X30.8966 Y-14.0130
G01 X30.9170 Y-13.9854
G01 X30.9347 Y-13.9560
G01 X30.9494 Y-13.9249
G01 X30.9594 Y-13.8973
G01 X30.9616 Y-13.8902
G01 X30.9682 Y-13.8641
G01 X30.9701 Y-13.8544
G01 X30.9743 Y-13.8253
G01 X30.9760 Y-13.7910
G00 Z2.0000
G00 X34.2740 Y-16.3400
G01 F60.00
G01 Z-0.2000
G01 F300.00
G01 X35.8765 Y-16.3400
G01 X35.8887 Y-16.3389
G01 X35.8959 Y-16.3376
G01 X35.9030 Y-16.3357
G01 X35.9145 Y-16.3314
G01 X35.9211 Y-16.3282
G01 X35.9275 Y-16.3245
G01 X35.9374 Y-16.3173
G01 X35.9430 Y-16.3124
G01 X35.9481 Y-16.3072
G01 X35.9528 Y-16.3015
G01 X35.9571 Y-16.2956
G01 X35.9633 Y-16.2850
G01 X35.9682 Y-16.2737
G01 X35.9716 Y-16.2619
G01 X35.9735 Y-16.2498
G01 X35.9740 Y-16.2400
G01 X35.9740 Y-13.1375
G01 X35.9735 Y-13.1302
G01 X35.9725 Y-13.1229
G01 X35.9697 Y-13.1110
G01 X35.9654 Y-13.0995
G01 X35.9622 Y-13.0929
G01 X35.9585 Y-13.0865
G01 X35.9543 Y-13.0804
G01 X35.9497 Y-13.0747
G01 X35.9412 Y-13.0659
G01 X35.9355 Y-13.0612
G01 X35.9296 Y-13.0569
G01 X35.9190 Y-13.0507
G01 X35.9100 Y-13.0467
G01 X35.8983 Y-13.0430
G01 X35.8862 Y-13.0408
G01 X35.8740 Y-13.0400
G01 X34.2715 Y-13.0400
G01 X34.2642 Y-13.0405
G01 X34.2569 Y-13.0415
G01 X34.2450 Y-13.0443
G01 X34.2335 Y-13.0486
G01 X34.2269 Y-13.0518
G01 X34.2205 Y-13.0555
G01 X34.2144 Y-13.0597
G01 X34.2087 Y-13.0643
G01 X34.1999 Y-13.0728
G01 X34.1952 Y-13.0785
G01 X34.1909 Y-13.0844
G01 X34.1847 Y-13.0950
G01 X34.1798 Y-13.1063
G01 X34.1770 Y-13.1157
G01 X34.1748 Y-13.1278
G01 X34.1740 Y-13.1400
G01 X34.1740 Y-16.2425
G01 X34.1748 Y-16.2522
G01 X34.1764 Y-16.2619
G01 X34.1790 Y-16.2714
G01 X34.1826 Y-16.2805
G01 X34.1870 Y-16.2893
G01 X34.1922 Y-16.2976
G01 X34.1983 Y-16.3053
G01 X34.2050 Y-16.3124
G01 X34.2125 Y-16.3188
G01 X34.2205 Y-16.3245
G01 X34.2290 Y-16.3293
G01 X34.2380 Y-16.3333
G01 X34.2473 Y-16.3364
G01 X34.2545 Y-16.3381
G01 X34.2642 Y-16.3395
G01 X34.2740 Y-16.3400
G00 Z2.0000
G00 X36.8140 Y-16.3400
G01 F60.00
G01 Z-0.2000
G01 F300.00
G01 X38.4165 Y-16.3400
G01 X38.4287 Y-16.3389
G01 X38.4359 Y-16.3376
G01 X38.4430 Y-16.3357
G01 X38.4545 Y-16.3314
G01 X38.4611 Y-16.3282
G01 X38.4675 Y-16.3245
G01 X38.4774 Y-16.3173
G01 X38.4830 Y-16.3124
G01 X38.4881 Y-16.3072
G01 X38.4928 Y-16.3015
G01 X38.4971 Y-16.2956
G01 X38.5033 Y-16.2850
G01 X38.5082 Y-16.2737
G01 X38.5116 Y-16.2619
G01 X38.5135 Y-16.2498
G01 X38.5140 Y-16.2400
G01 X38.5140 Y-13.1375
G01 X38.5135 Y-13.1302
G01 X38.5125 Y-13.1229
G01 X38.5097 Y-13.1110
G01 X38.5054 Y-13.0995
G01 X38.5022 Y-13.0929
G01 X38.4985 Y-13.0865
G01 X38.4943 Y-13.0804
G01 X38.4897 Y-13.0747
G01 X38.4812 Y-13.0659
G01 X38.4755 Y-13.0612
G01 X38.4696 Y-13.0569
G01 X38.4590 Y-13.0507
G01 X38.4500 Y-13.0467
G01 X38.4383 Y-13.0430
G01 X38.4262 Y-13.0408
G01 X38.4140 Y-13.0400
G01 X36.8115 Y-13.0400
G01 X36.8042 Y-13.0405
G01 X36.7969 Y-13.0415
G01 X36.7850 Y-13.0443
G01 X36.7735 Y-13.0486
G01 X36.7669 Y-13.0518
G01 X36.7605 Y-13.0555
G01 X36.7544 Y-13.0597
G01 X36.7487 Y-13.0643
G01 X36.7399 Y-13.0728
G01 X36.7352 Y-13.0785
G01 X36.7309 Y-13.0844
G01 X36.7247 Y-13.0950
G01 X36.7198 Y-13.1063
G01 X36.7170 Y-13.1157
G01 X36.7148 Y-13.1278
G01 X36.7140 Y-13.1400
G01 X36.7140 Y-16.2425
G01 X36.7148 Y-16.2522
G01 X36.7164 Y-16.2619
G01 X36.7190 Y-16.2714
G01 X36.7226 Y-16.2805
G01 X36.7270 Y-16.2893
G01 X36.7322 Y-16.2976
G01 X36.7383 Y-16.3053
G01 X36.7450 Y-16.3124
G01 X36.7525 Y-16.3188
G01 X36.7605 Y-16.3245
G01 X36.7690 Y-16.3293
G01 X36.7780 Y-16.3333
G01 X36.7873 Y-16.3364
G01 X36.7945 Y-16.3381
G01 X36.8042 Y-16.3395
G01 X36.8140 Y-16.3400
G00 Z2.0000
G00 X42.2095 Y-15.1880
G01 F60.00
G01 Z-0.2000
G01 F300.00
G01 X42.2095 Y-13.9380
G01 X42.2082 Y-13.9086
G01 X42.2075 Y-13.9013
G01 X42.2036 Y-13.8746
G01 X42.2017 Y-13.8649
G01 X42.1944 Y-13.8364
G01 X42.1829 Y-13.8041
G01 X42.1704 Y-13.7774
G01 X42.1658 Y-13.7687
G01 X42.1505 Y-13.7436
G01 X42.1316 Y-13.7179
G01 X42.1070 Y-13.6905
G01 X42.0815 Y-13.6674
G01 X42.0539 Y-13.6470
G01 X42.0288 Y-13.6317
G01 X42.0201 Y-13.6271
G01 X41.9934 Y-13.6146
G01 X41.9658 Y-13.6046
G01 X41.9587 Y-13.6024
G01 X41.9326 Y-13.5958
G01 X41.9229 Y-13.5939
G01 X41.8962 Y-13.5900
G01 X41.8644 Y-13.5881
G01 X41.2345 Y-13.5880
G01 X41.2002 Y-13.5897
G01 X41.1662 Y-13.5947
G01 X41.1376 Y-13.6018
G01 X41.1282 Y-13.6046
G01 X41.1006 Y-13.6146
G01 X41.0739 Y-13.6271
G01 X41.0652 Y-13.6317
G01 X41.0401 Y-13.6470
G01 X41.0144 Y-13.6659
G01 X40.9870 Y-13.6905
G01 X40.9639 Y-13.7160
G01 X40.9435 Y-13.7436
G01 X40.9282 Y-13.7687
G01 X40.9236 Y-13.7774
G01 X40.9121 Y-13.8018
G01 X40.9094 Y-13.8086
G01 X40.8996 Y-13.8364
G01 X40.8923 Y-13.8649
G01 X40.8904 Y-13.8746
G01 X40.8862 Y-13.9037
G01 X40.8845 Y-13.9355
G01 X40.8845 Y-15.1880
G01 X40.8858 Y-15.2174
G01 X40.8865 Y-15.2247
G01 X40.8904 Y-15.2514
G01 X40.8923 Y-15.2611
G01 X40.8996 Y-15.2896
G01 X40.9111 Y-15.3219
G01 X40.9236 Y-15.3486
G01 X40.9282 Y-15.3573
G01 X40.9435 Y-15.3824
G01 X40.9624 Y-15.4081
G01 X40.9870 Y-15.4355
G01 X41.0125 Y-15.4586
G01 X41.0401 Y-15.4790
G01 X41.0695 Y-15.4967
G01 X41.1006 Y-15.5114
G01 X41.1329 Y-15.5229
G01 X41.1662 Y-15.5313
G01 X41.1978 Y-15.5360
G01 X41.2345 Y-15.5380
G01 X41.8595 Y-15.5380
G01 X41.8938 Y-15.5363
G01 X41.9254 Y-15.5317
G01 X41.9611 Y-15.5229
G01 X41.9889 Y-15.5131
G01 X41.9957 Y-15.5104
G01 X42.0201 Y-15.4989
G01 X42.0288 Y-15.4943
G01 X42.0539 Y-15.4790
G01 X42.0815 Y-15.4586
G01 X42.1070 Y-15.4355
G01 X42.1301 Y-15.4100
G01 X42.1505 Y-15.3824
G01 X42.1682 Y-15.3530
G01 X42.1829 Y-15.3219
G01 X42.1929 Y-15.2943
G01 X42.1951 Y-15.2872
G01 X42.2017 Y-15.2611
G01 X42.2036 Y-15.2514
G01 X42.2078 Y-15.2223
G01 X42.2095 Y-15.1880
G00 Z2.0000
G00 X45.1345 Y-15.1880
G01 F60.00
G01 Z-0.2000
G01 F300.00
G01 X45.1345 Y-13.9380
G01 X45.1332 Y-13.9086
G01 X45.1325 Y-13.9013
G01 X45.1286 Y-13.8746
G01 X45.1267 Y-13.8649
G01 X45.1194 Y-13.8364
G01 X45.1079 Y-13.8041
G01 X45.0954 Y-13.7774
G01 X45.0908 Y-13.7687
G01 X45.0755 Y-13.7436
G01 X45.0566 Y-13.7179
G01 X45.0320 Y-13.6905
G01 X45.0065 Y-13.6674
G01 X44.9789 Y-13.6470
G01 X44.9538 Y-13.6317
G01 X44.9451 Y-13.6271
G01 X44.9184 Y-13.6146
G01 X44.8908 Y-13.6046
G01 X44.8837 Y-13.6024
G01 X44.8576 Y-13.5958
G01 X44.8479 Y-13.5939
G01 X44.8212 Y-13.5900
G01 X44.7894 Y-13.5881
G01 X44.1595 Y-13.5880
G01 X44.1252 Y-13.5897
G01 X44.0912 Y-13.5947
G01 X44.0626 Y-13.6018
G01 X44.0532 Y-13.6046
G01 X44.0256 Y-13.6146
G01 X43.9989 Y-13.6271
G01 X43.9902 Y-13.6317
G01 X43.9651 Y-13.6470
G01 X43.9394 Y-13.6659
G01 X43.9120 Y-13.6905
G01 X43.8889 Y-13.7160
G01 X43.8685 Y-13.7436
G01 X43.8532 Y-13.7687
G01 X43.8486 Y-13.7774
G01 X43.8371 Y-13.8018
G01 X43.8344 Y-13.8086
G01 X43.8246 Y-13.8364
G01 X43.8173 Y-13.8649
G01 X43.8154 Y-13.8746
G01 X43.8112 Y-13.9037
G01 X43.8095 Y-13.9355
G01 X43.8095 Y-15.1880
G01 X43.8108 Y-15.2174
G01 X43.8115 Y-15.2247
G01 X43.8154 Y-15.2514
G01 X43.8173 Y-15.2611
G01 X43.8246 Y-15.2896
G01 X43.8361 Y-15.3219
G01 X43.8486 Y-15.3486
G01 X43.8532 Y-15.3573
G01 X43.8685 Y-15.3824
G01 X43.8874 Y-15.4081
G01 X43.9120 Y-15.4355
G01 X43.9375 Y-15.4586
G01 X43.9651 Y-15.4790
G01 X43.9945 Y-15.4967
G01 X44.0256 Y-15.5114
G01 X44.0579 Y-15.5229
G01 X44.0912 Y-15.5313
G01 X44.1228 Y-15.5360
G01 X44.1595 Y-15.5380
G01 X44.7845 Y-15.5380
G01 X44.8188 Y-15.5363
G01 X44.8504 Y-15.5317
G01 X44.8861 Y-15.5229
G01 X44.9139 Y-15.5131
G01 X44.9207 Y-15.5104
G01 X44.9451 Y-15.4989
G01 X44.9538 Y-15.4943
G01 X44.9789 Y-15.4790
G01 X45.0065 Y-15.4586
G01 X45.0320 Y-15.4355
G01 X45.0551 Y-15.4100
G01 X45.0755 Y-15.3824
G01 X45.0932 Y-15.3530
G01 X45.1079 Y-15.3219
G01 X45.1179 Y-15.2943
G01 X45.1201 Y-15.2872
G01 X45.1267 Y-15.2611
G01 X45.1286 Y-15.2514
G01 X45.1328 Y-15.2223
G01 X45.1345 Y-15.1880
G00 Z2.0000
G00 X48.1170 Y-15.3150
G01 F60.00
G01 Z-0.2000
G01 F300.00
G01 X48.1170 Y-14.0650
G01 X48.1157 Y-14.0356
G01 X48.1150 Y-14.0283
G01 X48.1111 Y-14.0016
G01 X48.1092 Y-13.9919
G01 X48.1019 Y-13.9634
G01 X48.0904 Y-13.9311
G01 X48.0779 Y-13.9044
G01 X48.0733 Y-13.8957
G01 X48.0580 Y-13.8706
G01 X48.0391 Y-13.8449
G01 X48.0145 Y-13.8175
G01 X47.9890 Y-13.7944
G01 X47.9614 Y-13.7740
G01 X47.9363 Y-13.7587
G01 X47.9276 Y-13.7541
G01 X47.9009 Y-13.7416
G01 X47.8733 Y-13.7316
G01 X47.8662 Y-13.7294
G01 X47.8401 Y-13.7228
G01 X47.8304 Y-13.7209
G01 X47.8037 Y-13.7170
G01 X47.7719 Y-13.7151
G01 X47.1420 Y-13.7150
G01 X47.1077 Y-13.7167
G01 X47.0737 Y-13.7217
G01 X47.0451 Y-13.7288
G01 X47.0357 Y-13.7316
G01 X47.0081 Y-13.7416
G01 X46.9814 Y-13.7541
G01 X46.9727 Y-13.7587
G01 X46.9476 Y-13.7740
G01 X46.9219 Y-13.7929
G01 X46.8945 Y-13.8175
G01 X46.8714 Y-13.8430
G01 X46.8510 Y-13.8706
G01 X46.8357 Y-13.8957
G01 X46.8311 Y-13.9044
G01 X46.8196 Y-13.9288
G01 X46.8169 Y-13.9356
G01 X46.8071 Y-13.9634
G01 X46.7998 Y-13.9919
G01 X46.7979 Y-14.0016
G01 X46.7937 Y-14.0307
G01 X46.7920 Y-14.0625
G01 X46.7920 Y-15.3150
G01 X46.7933 Y-15.3444
G01 X46.7940 Y-15.3517
G01 X46.7979 Y-15.3784
G01 X46.7998 Y-15.3881
G01 X46.8071 Y-15.4166
G01 X46.8186 Y-15.4489
G01 X46.8311 Y-15.4756
G01 X46.8357 Y-15.4843
G01 X46.8510 Y-15.5094
G01 X46.8699 Y-15.5351
G01 X46.8945 Y-15.5625
G01 X46.9200 Y-15.5856
G01 X46.9476 Y-15.6060
G01 X46.9770 Y-15.6237
G01 X47.0081 Y-15.6384
G01 X47.0404 Y-15.6499
G01 X47.0737 Y-15.6583
G01 X47.1053 Y-15.6630
G01 X47.1420 Y-15.6650
G01 X47.7670 Y-15.6650
G01 X47.8013 Y-15.6633
G01 X47.8329 Y-15.6587
G01 X47.8686 Y-15.6499
G01 X47.8964 Y-15.6401
G01 X47.9032 Y-15.6374
G01 X47.9276 Y-15.6259
G01 X47.9363 Y-15.6213
G01 X47.9614 Y-15.6060
G01 X47.9890 Y-15.5856
G01 X48.0145 Y-15.5625
G01 X48.0376 Y-15.5370
G01 X48.0580 Y-15.5094
G01 X48.0757 Y-15.4800
G01 X48.0904 Y-15.4489
G01 X48.1004 Y-15.4213
G01 X48.1026 Y-15.4142
G01 X48.1092 Y-15.3881
G01 X48.1111 Y-15.3784
G01 X48.1153 Y-15.3493
G01 X48.1170 Y-15.3150
G00 Z2.0000
G00 X51.0420 Y-15.3150
G01 F60.00
G01 Z-0.2000
G01 F300.00
G01 X51.0420 Y-14.0650
G01 X51.0407 Y-14.0356
G01 X51.0400 Y-14.0283
G01 X51.0361 Y-14.0016
G01 X51.0342 Y-13.9919
G01 X51.0269 Y-13.9634
G01 X51.0154 Y-13.9311
G01 X51.0029 Y-13.9044
G01 X50.9983 Y-13.8957
G01 X50.9830 Y-13.8706
G01 X50.9641 Y-13.8449
G01 X50.9395 Y-13.8175
G01 X50.9140 Y-13.7944
G01 X50.8864 Y-13.7740
G01 X50.8613 Y-13.7587
G01 X50.8526 Y-13.7541
G01 X50.8259 Y-13.7416
G01 X50.7983 Y-13.7316
G01 X50.7912 Y-13.7294
G01 X50.7651 Y-13.7228
G01 X50.7554 Y-13.7209
G01 X50.7287 Y-13.7170
G01 X50.6969 Y-13.7151
G01 X50.0670 Y-13.7150
G01 X50.0327 Y-13.7167
G01 X49.9987 Y-13.7217
G01 X49.9701 Y-13.7288
G01 X49.9607 Y-13.7316
G01 X49.9331 Y-13.7416
G01 X49.9064 Y-13.7541
G01 X49.8977 Y-13.7587
G01 X49.8726 Y-13.7740
G01 X49.8469 Y-13.7929
G01 X49.8195 Y-13.8175
G01 X49.7964 Y-13.8430
G01 X49.7760 Y-13.8706
G01 X49.7607 Y-13.8957
G01 X49.7561 Y-13.9044
G01 X49.7446 Y-13.9288
G01 X49.7419 Y-13.9356
G01 X49.7321 Y-13.9634
G01 X49.7248 Y-13.9919
G01 X49.7229 Y-14.0016
G01 X49.7187 Y-14.0307
G01 X49.7170 Y-14.0625
G01 X49.7170 Y-15.3150
G01 X49.7183 Y-15.3444
G01 X49.7190 Y-15.3517
G01 X49.7229 Y-15.3784
G01 X49.7248 Y-15.3881
G01 X49.7321 Y-15.4166
G01 X49.7436 Y-15.4489
G01 X49.7561 Y-15.4756
G01 X49.7607 Y-15.4843
G01 X49.7760 Y-15.5094
G01 X49.7949 Y-15.5351
G01 X49.8195 Y-15.5625
G01 X49.8450 Y-15.5856
G01 X49.8726 Y-15.6060
G01 X49.9020 Y-15.6237
G01 X49.9331 Y-15.6384
G01 X49.9654 Y-15.6499
G01 X49.9987 Y-15.6583
G01 X50.0303 Y-15.6630
G01 X50.0670 Y-15.6650
G01 X50.6920 Y-15.6650
G01 X50.7263 Y-15.6633
G01 X50.7579 Y-15.6587
G01 X50.7936 Y-15.6499
G01 X50.8214 Y-15.6401
G01 X50.8282 Y-15.6374
G01 X50.8526 Y-15.6259
G01 X50.8613 Y-15.6213
G01 X50.8864 Y-15.6060
G01 X50.9140 Y-15.5856
G01 X50.9395 Y-15.5625
G01 X50.9626 Y-15.5370
G01 X50.9830 Y-15.5094
G01 X51.0007 Y-15.4800
G01 X51.0154 Y-15.4489
G01 X51.0254 Y-15.4213
G01 X51.0276 Y-15.4142
G01 X51.0342 Y-15.3881
G01 X51.0361 Y-15.3784
G01 X51.0403 Y-15.3493
G01 X51.0420 Y-15.3150
G00 Z2.0000
G00 X51.2410 Y-20.9230
G01 F60.00
G01 Z-0.2000
G01 F300.00
G01 X51.2410 Y-22.1730
G01 X51.2423 Y-22.2024
G01 X51.2430 Y-22.2097
G01 X51.2469 Y-22.2364
G01 X51.2488 Y-22.2461
G01 X51.2561 Y-22.2746
G01 X51.2676 Y-22.3069
G01 X51.2801 Y-22.3336
G01 X51.2847 Y-22.3423
G01 X51.3000 Y-22.3674
G01 X51.3189 Y-22.3931
G01 X51.3435 Y-22.4205
G01 X51.3690 Y-22.4436
G01 X51.3966 Y-22.4640
G01 X51.4217 Y-22.4793
G01 X51.4304 Y-22.4839
G01 X51.4571 Y-22.4964
G01 X51.4847 Y-22.5064
G01 X51.4918 Y-22.5086
G01 X51.5179 Y-22.5152
G01 X51.5276 Y-22.5171
G01 X51.5543 Y-22.5210
G01 X51.5861 Y-22.5229
G01 X52.2160 Y-22.5230
G01 X52.2503 Y-22.5213
G01 X52.2794 Y-22.5171
G01 X52.2891 Y-22.5152
G01 X52.3176 Y-22.5079
G01 X52.3499 Y-22.4964
G01 X52.3766 Y-22.4839
G01 X52.3853 Y-22.4793
G01 X52.4104 Y-22.4640
G01 X52.4361 Y-22.4451
G01 X52.4635 Y-22.4205
G01 X52.4866 Y-22.3950
G01 X52.5070 Y-22.3674
G01 X52.5223 Y-22.3423
G01 X52.5269 Y-22.3336
G01 X52.5384 Y-22.3092
G01 X52.5411 Y-22.3024
G01 X52.5509 Y-22.2746
G01 X52.5582 Y-22.2461
G01 X52.5601 Y-22.2364
G01 X52.5643 Y-22.2073
G01 X52.5660 Y-22.1755
G01 X52.5660 Y-20.9230
G01 X52.5647 Y-20.8936
G01 X52.5640 Y-20.8863
G01 X52.5601 Y-20.8596
G01 X52.5582 Y-20.8499
G01 X52.5509 Y-20.8214
G01 X52.5394 Y-20.7891
G01 X52.5269 Y-20.7624
G01 X52.5223 Y-20.7537
G01 X52.5070 Y-20.7286
G01 X52.4881 Y-20.7029
G01 X52.4635 Y-20.6755
G01 X52.4380 Y-20.6524
G01 X52.4104 Y-20.6320
G01 X52.3810 Y-20.6143
G01 X52.3499 Y-20.5996
G01 X52.3176 Y-20.5881
G01 X52.2843 Y-20.5797
G01 X52.2527 Y-20.5750
G01 X52.2160 Y-20.5730
G01 X51.5910 Y-20.5730
G01 X51.5567 Y-20.5747
G01 X51.5251 Y-20.5793
G01 X51.4894 Y-20.5881
G01 X51.4616 Y-20.5979
G01 X51.4548 Y-20.6006
G01 X51.4304 Y-20.6121
G01 X51.4217 Y-20.6167
G01 X51.3966 Y-20.6320
G01 X51.3690 Y-20.6524
G01 X51.3435 Y-20.6755
G01 X51.3204 Y-20.7010
G01 X51.3000 Y-20.7286
G01 X51.2823 Y-20.7580
G01 X51.2676 Y-20.7891
G01 X51.2576 Y-20.8167
G01 X51.2554 Y-20.8238
G01 X51.2488 Y-20.8499
G01 X51.2469 Y-20.8596
G01 X51.2427 Y-20.8887
G01 X51.2410 Y-20.9230
G00 Z2.0000
G00 X48.3160 Y-20.9230
G01 F60.00
G01 Z-0.2000
G01 F300.00
G01 X48.3160 Y-22.1730
G01 X48.3173 Y-22.2024
G01 X48.3180 Y-22.2097
G01 X48.3219 Y-22.2364
G01 X48.3238 Y-22.2461
G01 X48.3311 Y-22.2746
G01 X48.3426 Y-22.3069
G01 X48.3551 Y-22.3336
G01 X48.3597 Y-22.3423
G01 X48.3750 Y-22.3674
G01 X48.3939 Y-22.3931
G01 X48.4185 Y-22.4205
G01 X48.4440 Y-22.4436
G01 X48.4716 Y-22.4640
G01 X48.4967 Y-22.4793
G01 X48.5054 Y-22.4839
G01 X48.5321 Y-22.4964
G01 X48.5597 Y-22.5064
G01 X48.5668 Y-22.5086
G01 X48.5929 Y-22.5152
G01 X48.6026 Y-22.5171
G01 X48.6293 Y-22.5210
G01 X48.6611 Y-22.5229
G01 X49.2910 Y-22.5230
G01 X49.3253 Y-22.5213
G01 X49.3544 Y-22.5171
G01 X49.3641 Y-22.5152
G01 X49.3926 Y-22.5079
G01 X49.4249 Y-22.4964
G01 X49.4516 Y-22.4839
G01 X49.4603 Y-22.4793
G01 X49.4854 Y-22.4640
G01 X49.5111 Y-22.4451
G01 X49.5385 Y-22.4205
G01 X49.5616 Y-22.3950
G01 X49.5820 Y-22.3674
G01 X49.5973 Y-22.3423
G01 X49.6019 Y-22.3336
G01 X49.6134 Y-22.3092
G01 X49.6161 Y-22.3024
G01 X49.6259 Y-22.2746
G01 X49.6332 Y-22.2461
G01 X49.6351 Y-22.2364
G01 X49.6393 Y-22.2073
G01 X49.6410 Y-22.1755
G01 X49.6410 Y-20.9230
G01 X49.6397 Y-20.8936
G01 X49.6390 Y-20.8863
G01 X49.6351 Y-20.8596
G01 X49.6332 Y-20.8499
G01 X49.6259 Y-20.8214
G01 X49.6144 Y-20.7891
G01 X49.6019 Y-20.7624
G01 X49.5973 Y-20.7537
G01 X49.5820 Y-20.7286
G01 X49.5631 Y-20.7029
G01 X49.5385 Y-20.6755
G01 X49.5130 Y-20.6524
G01 X49.4854 Y-20.6320
G01 X49.4560 Y-20.6143
G01 X49.4249 Y-20.5996
G01 X49.3926 Y-20.5881
G01 X49.3593 Y-20.5797
G01 X49.3277 Y-20.5750
G01 X49.2910 Y-20.5730
G01 X48.6660 Y-20.5730
G01 X48.6317 Y-20.5747
G01 X48.6001 Y-20.5793
G01 X48.5644 Y-20.5881
G01 X48.5366 Y-20.5979
G01 X48.5298 Y-20.6006
G01 X48.5054 Y-20.6121
G01 X48.4967 Y-20.6167
G01 X48.4716 Y-20.6320
G01 X48.4440 Y-20.6524
G01 X48.4185 Y-20.6755
G01 X48.3954 Y-20.7010
G01 X48.3750 Y-20.7286
G01 X48.3573 Y-20.7580
G01 X48.3426 Y-20.7891
G01 X48.3326 Y-20.8167
G01 X48.3304 Y-20.8238
G01 X48.3238 Y-20.8499
G01 X48.3219 Y-20.8596
G01 X48.3177 Y-20.8887
G01 X48.3160 Y-20.9230
G00 Z2.0000
G00 X50.1434 Y-25.8727
G01 F60.00
G01 Z-0.2000
G01 F300.00
G01 X50.1619 Y-25.8792
G01 X50.1857 Y-25.8852
G01 X50.2100 Y-25.8888
G01 X50.2320 Y-25.8900
G01 X51.4095 Y-25.8900
G01 X51.4340 Y-25.8888
G01 X51.4583 Y-25.8852
G01 X51.4821 Y-25.8792
G01 X51.5052 Y-25.8710
G01 X51.5273 Y-25.8605
G01 X51.5442 Y-25.8505
G01 X51.5524 Y-25.8450
G01 X51.5681 Y-25.8333
G01 X51.5827 Y-25.8202
G01 X51.5897 Y-25.8132
G01 X51.6028 Y-25.7986
G01 X51.6174 Y-25.7789
G01 X51.6276 Y-25.7621
G01 X51.6322 Y-25.7535
G01 X51.6405 Y-25.7357
G01 X51.6472 Y-25.7172
G01 X51.6494 Y-25.7102
G01 X51.6542 Y-25.6912
G01 X51.6583 Y-25.6645
G01 X51.6595 Y-25.6425
G01 X51.6595 Y-25.3375
G01 X51.6583 Y-25.3155
G01 X51.6547 Y-25.2912
G01 X51.6487 Y-25.2674
G01 X51.6405 Y-25.2443
G01 X51.6322 Y-25.2265
G01 X51.6276 Y-25.2179
G01 X51.6174 Y-25.2011
G01 X51.6058 Y-25.1853
G01 X51.5995 Y-25.1777
G01 X51.5863 Y-25.1632
G01 X51.5718 Y-25.1500
G01 X51.5642 Y-25.1437
G01 X51.5484 Y-25.1321
G01 X51.5316 Y-25.1219
G01 X51.5230 Y-25.1173
G01 X51.5052 Y-25.1090
G01 X51.4867 Y-25.1023
G01 X51.4773 Y-25.0995
G01 X51.4583 Y-25.0948
G01 X51.4340 Y-25.0912
G01 X51.4095 Y-25.0900
G01 X50.2320 Y-25.0900
G01 X50.2100 Y-25.0912
G01 X50.1857 Y-25.0948
G01 X50.1619 Y-25.1008
G01 X50.1388 Y-25.1090
G01 X50.1167 Y-25.1195
G01 X50.0998 Y-25.1295
G01 X50.0916 Y-25.1350
G01 X50.0759 Y-25.1467
G01 X50.0613 Y-25.1598
G01 X50.0560 Y-25.1650
G01 X50.0445 Y-25.1777
G01 X50.0382 Y-25.1853
G01 X50.0266 Y-25.2011
G01 X50.0140 Y-25.2222
G01 X50.0035 Y-25.2443
G01 X49.9953 Y-25.2674
G01 X49.9904 Y-25.2864
G01 X49.9885 Y-25.2961
G01 X49.9857 Y-25.3155
G01 X49.9845 Y-25.3375
G01 X49.9845 Y-25.6400
G01 X49.9853 Y-25.6596
G01 X49.9863 Y-25.6694
G01 X49.9893 Y-25.6888
G01 X49.9953 Y-25.7126
G01 X50.0018 Y-25.7311
G01 X50.0055 Y-25.7402
G01 X50.0140 Y-25.7578
G01 X50.0266 Y-25.7789
G01 X50.0412 Y-25.7986
G01 X50.0543 Y-25.8132
G01 X50.0613 Y-25.8202
G01 X50.0759 Y-25.8333
G01 X50.0956 Y-25.8479
G01 X50.1124 Y-25.8581
G01 X50.1188 Y-25.8616
G01 X50.1343 Y-25.8690
G01 X50.1434 Y-25.8727
G00 Z2.0000
G00 X50.1434 Y-27.7727
G01 F60.00
G01 Z-0.2000
G01 F300.00
G01 X50.1619 Y-27.7792
G01 X50.1857 Y-27.7852
G01 X50.2100 Y-27.7888
G01 X50.2320 Y-27.7900
G01 X51.4095 Y-27.7900
G01 X51.4340 Y-27.7888
G01 X51.4583 Y-27.7852
G01 X51.4821 Y-27.7792
G01 X51.5052 Y-27.7710
G01 X51.5273 Y-27.7605
G01 X51.5442 Y-27.7505
G01 X51.5524 Y-27.7450
G01 X51.5681 Y-27.7333
G01 X51.5827 Y-27.7202
G01 X51.5897 Y-27.7132
G01 X51.6028 Y-27.6986
G01 X51.6174 Y-27.6789
G01 X51.6276 Y-27.6621
G01 X51.6322 Y-27.6535
G01 X51.6405 Y-27.6357
G01 X51.6472 Y-27.6172
G01 X51.6494 Y-27.6102
G01 X51.6542 Y-27.5912
G01 X51.6583 Y-27.5645
G01 X51.6595 Y-27.5425
G01 X51.6595 Y-27.2375
G01 X51.6583 Y-27.2155
G01 X51.6547 Y-27.1912
G01 X51.6487 Y-27.1674
G01 X51.6405 Y-27.1443
G01 X51.6322 Y-27.1265
G01 X51.6276 Y-27.1179
G01 X51.6174 Y-27.1011
G01 X51.6058 Y-27.0853
G01 X51.5995 Y-27.0777
G01 X51.5863 Y-27.0632
G01 X51.5718 Y-27.0500
G01 X51.5642 Y-27.0437
G01 X51.5484 Y-27.0321
G01 X51.5316 Y-27.0219
G01 X51.5230 Y-27.0173
G01 X51.5052 Y-27.0090
G01 X51.4867 Y-27.0023
G01 X51.4773 Y-26.9995
G01 X51.4583 Y-26.9948
G01 X51.4340 Y-26.9912
G01 X51.4095 Y-26.9900
G01 X50.2320 Y-26.9900
G01 X50.2100 Y-26.9912
G01 X50.1857 Y-26.9948
G01 X50.1619 Y-27.0008
G01 X50.1388 Y-27.0090
G01 X50.1167 Y-27.0195
G01 X50.0998 Y-27.0295
G01 X50.0916 Y-27.0350
G01 X50.0759 Y-27.0467
G01 X50.0613 Y-27.0598
G01 X50.0560 Y-27.0650
G01 X50.0445 Y-27.0777
G01 X50.0382 Y-27.0853
G01 X50.0266 Y-27.1011
G01 X50.0140 Y-27.1222
G01 X50.0035 Y-27.1443
G01 X49.9953 Y-27.1674
G01 X49.9904 Y-27.1864
G01 X49.9885 Y-27.1961
G01 X49.9857 Y-27.2155
G01 X49.9845 Y-27.2375
G01 X49.9845 Y-27.5400
G01 X49.9853 Y-27.5596
G01 X49.9863 Y-27.5694
G01 X49.9893 Y-27.5888
G01 X49.9953 Y-27.6126
G01 X50.0018 Y-27.6311
G01 X50.0055 Y-27.6402
G01 X50.0140 Y-27.6578
G01 X50.0266 Y-27.6789
G01 X50.0412 Y-27.6986
G01 X50.0543 Y-27.7132
G01 X50.0613 Y-27.7202
G01 X50.0759 Y-27.7333
G01 X50.0956 Y-27.7479
G01 X50.1124 Y-27.7581
G01 X50.1188 Y-27.7616
G01 X50.1343 Y-27.7690
G01 X50.1434 Y-27.7727
G00 Z2.0000
G00 X48.2684 Y-26.8227
G01 F60.00
G01 Z-0.2000
G01 F300.00
G01 X48.2869 Y-26.8292
G01 X48.3107 Y-26.8352
G01 X48.3350 Y-26.8388
G01 X48.3570 Y-26.8400
G01 X49.5345 Y-26.8400
G01 X49.5590 Y-26.8388
G01 X49.5833 Y-26.8352
G01 X49.6071 Y-26.8292
G01 X49.6302 Y-26.8210
G01 X49.6523 Y-26.8105
G01 X49.6692 Y-26.8005
G01 X49.6774 Y-26.7950
G01 X49.6931 Y-26.7833
G01 X49.7077 Y-26.7702
G01 X49.7147 Y-26.7632
G01 X49.7278 Y-26.7486
G01 X49.7424 Y-26.7289
G01 X49.7526 Y-26.7121
G01 X49.7572 Y-26.7035
G01 X49.7655 Y-26.6857
G01 X49.7722 Y-26.6672
G01 X49.7744 Y-26.6602
G01 X49.7792 Y-26.6412
G01 X49.7833 Y-26.6145
G01 X49.7845 Y-26.5925
G01 X49.7845 Y-26.2875
G01 X49.7833 Y-26.2655
G01 X49.7797 Y-26.2412
G01 X49.7737 Y-26.2174
G01 X49.7655 Y-26.1943
G01 X49.7572 Y-26.1765
G01 X49.7526 Y-26.1679
G01 X49.7424 Y-26.1511
G01 X49.7308 Y-26.1353
G01 X49.7245 Y-26.1277
G01 X49.7113 Y-26.1132
G01 X49.6968 Y-26.1000
G01 X49.6892 Y-26.0937
G01 X49.6734 Y-26.0821
G01 X49.6566 Y-26.0719
G01 X49.6480 Y-26.0673
G01 X49.6302 Y-26.0590
G01 X49.6117 Y-26.0523
G01 X49.6023 Y-26.0495
G01 X49.5833 Y-26.0448
G01 X49.5590 Y-26.0412
G01 X49.5345 Y-26.0400
G01 X48.3570 Y-26.0400
G01 X48.3350 Y-26.0412
G01 X48.3107 Y-26.0448
G01 X48.2869 Y-26.0508
G01 X48.2638 Y-26.0590
G01 X48.2417 Y-26.0695
G01 X48.2248 Y-26.0795
G01 X48.2166 Y-26.0850
G01 X48.2009 Y-26.0967
G01 X48.1863 Y-26.1098
G01 X48.1810 Y-26.1150
G01 X48.1695 Y-26.1277
G01 X48.1632 Y-26.1353
G01 X48.1516 Y-26.1511
G01 X48.1390 Y-26.1722
G01 X48.1285 Y-26.1943
G01 X48.1203 Y-26.2174
G01 X48.1154 Y-26.2364
G01 X48.1135 Y-26.2461
G01 X48.1107 Y-26.2655
G01 X48.1095 Y-26.2875
G01 X48.1095 Y-26.5900
G01 X48.1103 Y-26.6096
G01 X48.1113 Y-26.6194
G01 X48.1143 Y-26.6388
G01 X48.1203 Y-26.6626
G01 X48.1268 Y-26.6811
G01 X48.1305 Y-26.6902
G01 X48.1390 Y-26.7078
G01 X48.1516 Y-26.7289
G01 X48.1662 Y-26.7486
G01 X48.1793 Y-26.7632
G01 X48.1863 Y-26.7702
G01 X48.2009 Y-26.7833
G01 X48.2206 Y-26.7979
G01 X48.2374 Y-26.8081
G01 X48.2438 Y-26.8116
G01 X48.2593 Y-26.8190
G01 X48.2684 Y-26.8227
G00 Z2.0000
G00 X44.3496 Y-29.4831
G01 F60.00
G01 Z-0.2000
G01 F300.00
G01 X44.3774 Y-29.4929
G01 X44.4107 Y-29.5013
G01 X44.4447 Y-29.5063
G01 X44.4765 Y-29.5080
G01 X45.1040 Y-29.5080
G01 X45.1383 Y-29.5063
G01 X45.1674 Y-29.5021
G01 X45.1771 Y-29.5002
G01 X45.2056 Y-29.4929
G01 X45.2379 Y-29.4814
G01 X45.2690 Y-29.4667
G01 X45.2943 Y-29.4516
G01 X45.3025 Y-29.4462
G01 X45.3260 Y-29.4286
G01 X45.3479 Y-29.4089
G01 X45.3549 Y-29.4019
G01 X45.3730 Y-29.3819
G01 X45.3950 Y-29.3524
G01 X45.4103 Y-29.3273
G01 X45.4149 Y-29.3186
G01 X45.4264 Y-29.2942
G01 X45.4291 Y-29.2874
G01 X45.4389 Y-29.2596
G01 X45.4462 Y-29.2311
G01 X45.4481 Y-29.2214
G01 X45.4523 Y-29.1923
G01 X45.4540 Y-29.1605
G01 X45.4540 Y-27.9080
G01 X45.4523 Y-27.8737
G01 X45.4473 Y-27.8397
G01 X45.4402 Y-27.8111
G01 X45.4374 Y-27.8017
G01 X45.4274 Y-27.7741
G01 X45.4149 Y-27.7474
G01 X45.4103 Y-27.7387
G01 X45.3950 Y-27.7136
G01 X45.3776 Y-27.6898
G01 X45.3713 Y-27.6822
G01 X45.3515 Y-27.6605
G01 X45.3298 Y-27.6407
G01 X45.3222 Y-27.6344
G01 X45.2984 Y-27.6170
G01 X45.2733 Y-27.6017
G01 X45.2646 Y-27.5971
G01 X45.2379 Y-27.5846
G01 X45.2103 Y-27.5746
G01 X45.2032 Y-27.5724
G01 X45.1771 Y-27.5658
G01 X45.1674 Y-27.5639
G01 X45.1407 Y-27.5600
G01 X45.1089 Y-27.5581
G01 X44.4790 Y-27.5580
G01 X44.4496 Y-27.5593
G01 X44.4398 Y-27.5603
G01 X44.4107 Y-27.5647
G01 X44.3821 Y-27.5718
G01 X44.3751 Y-27.5738
G01 X44.3496 Y-27.5829
G01 X44.3406 Y-27.5866
G01 X44.3140 Y-27.5993
G01 X44.2825 Y-27.6184
G01 X44.2608 Y-27.6344
G01 X44.2532 Y-27.6407
G01 X44.2315 Y-27.6605
G01 X44.2117 Y-27.6822
G01 X44.2054 Y-27.6898
G01 X44.1880 Y-27.7136
G01 X44.1727 Y-27.7387
G01 X44.1681 Y-27.7474
G01 X44.1566 Y-27.7718
G01 X44.1539 Y-27.7786
G01 X44.1441 Y-27.8064
G01 X44.1368 Y-27.8349
G01 X44.1349 Y-27.8446
G01 X44.1307 Y-27.8737
G01 X44.1290 Y-27.9055
G01 X44.1290 Y-29.1580
G01 X44.1307 Y-29.1923
G01 X44.1349 Y-29.2214
G01 X44.1368 Y-29.2311
G01 X44.1441 Y-29.2596
G01 X44.1556 Y-29.2919
G01 X44.1681 Y-29.3186
G01 X44.1727 Y-29.3273
G01 X44.1880 Y-29.3524
G01 X44.2054 Y-29.3762
G01 X44.2117 Y-29.3838
G01 X44.2315 Y-29.4055
G01 X44.2532 Y-29.4253
G01 X44.2608 Y-29.4316
G01 X44.2846 Y-29.4490
G01 X44.3119 Y-29.4655
G01 X44.3406 Y-29.4794
G01 X44.3496 Y-29.4831
G00 Z2.0000
G00 X41.4246 Y-29.4831
G01 F60.00
G01 Z-0.2000
G01 F300.00
G01 X41.4524 Y-29.4929
G01 X41.4857 Y-29.5013
G01 X41.5197 Y-29.5063
G01 X41.5515 Y-29.5080
G01 X42.1790 Y-29.5080
G01 X42.2133 Y-29.5063
G01 X42.2424 Y-29.5021
G01 X42.2521 Y-29.5002
G01 X42.2806 Y-29.4929
G01 X42.3129 Y-29.4814
G01 X42.3440 Y-29.4667
G01 X42.3693 Y-29.4516
G01 X42.3775 Y-29.4462
G01 X42.4010 Y-29.4286
G01 X42.4229 Y-29.4089
G01 X42.4299 Y-29.4019
G01 X42.4480 Y-29.3819
G01 X42.4700 Y-29.3524
G01 X42.4853 Y-29.3273
G01 X42.4899 Y-29.3186
G01 X42.5014 Y-29.2942
G01 X42.5041 Y-29.2874
G01 X42.5139 Y-29.2596
G01 X42.5212 Y-29.2311
G01 X42.5231 Y-29.2214
G01 X42.5273 Y-29.1923
G01 X42.5290 Y-29.1605
G01 X42.5290 Y-27.9080
G01 X42.5273 Y-27.8737
G01 X42.5223 Y-27.8397
G01 X42.5152 Y-27.8111
G01 X42.5124 Y-27.8017
G01 X42.5024 Y-27.7741
G01 X42.4899 Y-27.7474
G01 X42.4853 Y-27.7387
G01 X42.4700 Y-27.7136
G01 X42.4526 Y-27.6898
G01 X42.4463 Y-27.6822
G01 X42.4265 Y-27.6605
G01 X42.4048 Y-27.6407
G01 X42.3972 Y-27.6344
G01 X42.3734 Y-27.6170
G01 X42.3483 Y-27.6017
G01 X42.3396 Y-27.5971
G01 X42.3129 Y-27.5846
G01 X42.2853 Y-27.5746
G01 X42.2782 Y-27.5724
G01 X42.2521 Y-27.5658
G01 X42.2424 Y-27.5639
G01 X42.2157 Y-27.5600
G01 X42.1839 Y-27.5581
G01 X41.5540 Y-27.5580
G01 X41.5246 Y-27.5593
G01 X41.5148 Y-27.5603
G01 X41.4857 Y-27.5647
G01 X41.4571 Y-27.5718
G01 X41.4501 Y-27.5738
G01 X41.4246 Y-27.5829
G01 X41.4156 Y-27.5866
G01 X41.3890 Y-27.5993
G01 X41.3575 Y-27.6184
G01 X41.3358 Y-27.6344
G01 X41.3282 Y-27.6407
G01 X41.3065 Y-27.6605
G01 X41.2867 Y-27.6822
G01 X41.2804 Y-27.6898
G01 X41.2630 Y-27.7136
G01 X41.2477 Y-27.7387
G01 X41.2431 Y-27.7474
G01 X41.2316 Y-27.7718
G01 X41.2289 Y-27.7786
G01 X41.2191 Y-27.8064
G01 X41.2118 Y-27.8349
G01 X41.2099 Y-27.8446
G01 X41.2057 Y-27.8737
G01 X41.2040 Y-27.9055
G01 X41.2040 Y-29.1580
G01 X41.2057 Y-29.1923
G01 X41.2099 Y-29.2214
G01 X41.2118 Y-29.2311
G01 X41.2191 Y-29.2596
G01 X41.2306 Y-29.2919
G01 X41.2431 Y-29.3186
G01 X41.2477 Y-29.3273
G01 X41.2630 Y-29.3524
G01 X41.2804 Y-29.3762
G01 X41.2867 Y-29.3838
G01 X41.3065 Y-29.4055
G01 X41.3282 Y-29.4253
G01 X41.3358 Y-29.4316
G01 X41.3596 Y-29.4490
G01 X41.3869 Y-29.4655
G01 X41.4156 Y-29.4794
G01 X41.4246 Y-29.4831
G00 Z2.0000
G00 X30.4036 Y-28.3111
G01 F60.00
G01 Z-0.2000
G01 F300.00
G01 X30.4314 Y-28.3209
G01 X30.4647 Y-28.3293
G01 X30.4987 Y-28.3343
G01 X30.5305 Y-28.3360
G01 X31.2330 Y-28.3360
G01 X31.2673 Y-28.3343
G01 X31.2989 Y-28.3297
G01 X31.3346 Y-28.3209
G01 X31.3624 Y-28.3111
G01 X31.3714 Y-28.3074
G01 X31.3980 Y-28.2947
G01 X31.4233 Y-28.2796
G01 X31.4315 Y-28.2742
G01 X31.4550 Y-28.2566
G01 X31.4769 Y-28.2369
G01 X31.4839 Y-28.2299
G01 X31.5036 Y-28.2080
G01 X31.5212 Y-28.1845
G01 X31.5266 Y-28.1763
G01 X31.5417 Y-28.1510
G01 X31.5564 Y-28.1199
G01 X31.5679 Y-28.0876
G01 X31.5763 Y-28.0543
G01 X31.5813 Y-28.0203
G01 X31.5830 Y-27.9885
G01 X31.5830 Y-26.2860
G01 X31.5813 Y-26.2517
G01 X31.5771 Y-26.2226
G01 X31.5752 Y-26.2129
G01 X31.5679 Y-26.1844
G01 X31.5581 Y-26.1566
G01 X31.5544 Y-26.1476
G01 X31.5417 Y-26.1210
G01 X31.5266 Y-26.0957
G01 X31.5212 Y-26.0875
G01 X31.5036 Y-26.0640
G01 X31.4839 Y-26.0421
G01 X31.4769 Y-26.0351
G01 X31.4550 Y-26.0154
G01 X31.4274 Y-25.9950
G01 X31.4023 Y-25.9797
G01 X31.3936 Y-25.9751
G01 X31.3669 Y-25.9626
G01 X31.3346 Y-25.9511
G01 X31.3013 Y-25.9427
G01 X31.2673 Y-25.9377
G01 X31.2355 Y-25.9360
G01 X30.5330 Y-25.9360
G01 X30.4987 Y-25.9377
G01 X30.4671 Y-25.9423
G01 X30.4314 Y-25.9511
G01 X30.4036 Y-25.9609
G01 X30.3946 Y-25.9646
G01 X30.3680 Y-25.9773
G01 X30.3427 Y-25.9924
G01 X30.3345 Y-25.9978
G01 X30.3110 Y-26.0154
G01 X30.2891 Y-26.0351
G01 X30.2821 Y-26.0421
G01 X30.2624 Y-26.0640
G01 X30.2448 Y-26.0875
G01 X30.2394 Y-26.0957
G01 X30.2243 Y-26.1210
G01 X30.2096 Y-26.1521
G01 X30.1981 Y-26.1844
G01 X30.1897 Y-26.2177
G01 X30.1847 Y-26.2517
G01 X30.1830 Y-26.2835
G01 X30.1830 Y-27.9860
G01 X30.1847 Y-28.0203
G01 X30.1889 Y-28.0494
G01 X30.1908 Y-28.0591
G01 X30.1981 Y-28.0876
G01 X30.2096 Y-28.1199
G01 X30.2221 Y-28.1466
G01 X30.2267 Y-28.1553
G01 X30.2420 Y-28.1804
G01 X30.2594 Y-28.2042
G01 X30.2657 Y-28.2118
G01 X30.2855 Y-28.2335
G01 X30.3072 Y-28.2533
G01 X30.3148 Y-28.2596
G01 X30.3386 Y-28.2770
G01 X30.3659 Y-28.2935
G01 X30.3946 Y-28.3074
G01 X30.4036 Y-28.3111
G00 Z2.0000
G00 X25.8436 Y-28.3111
G01 F60.00
G01 Z-0.2000
G01 F300.00
G01 X25.8714 Y-28.3209
G01 X25.9047 Y-28.3293
G01 X25.9387 Y-28.3343
G01 X25.9705 Y-28.3360
G01 X26.6730 Y-28.3360
G01 X26.7073 Y-28.3343
G01 X26.7389 Y-28.3297
G01 X26.7746 Y-28.3209
G01 X26.8024 Y-28.3111
G01 X26.8114 Y-28.3074
G01 X26.8380 Y-28.2947
G01 X26.8633 Y-28.2796
G01 X26.8715 Y-28.2742
G01 X26.8950 Y-28.2566
G01 X26.9169 Y-28.2369
G01 X26.9239 Y-28.2299
G01 X26.9436 Y-28.2080
G01 X26.9612 Y-28.1845
G01 X26.9666 Y-28.1763
G01 X26.9817 Y-28.1510
G01 X26.9964 Y-28.1199
G01 X27.0079 Y-28.0876
G01 X27.0163 Y-28.0543
G01 X27.0213 Y-28.0203
G01 X27.0230 Y-27.9885
G01 X27.0230 Y-26.2860
G01 X27.0213 Y-26.2517
G01 X27.0171 Y-26.2226
G01 X27.0152 Y-26.2129
G01 X27.0079 Y-26.1844
G01 X26.9981 Y-26.1566
G01 X26.9944 Y-26.1476
G01 X26.9817 Y-26.1210
G01 X26.9666 Y-26.0957
G01 X26.9612 Y-26.0875
G01 X26.9436 Y-26.0640
G01 X26.9239 Y-26.0421
G01 X26.9169 Y-26.0351
G01 X26.8950 Y-26.0154
G01 X26.8674 Y-25.9950
G01 X26.8423 Y-25.9797
G01 X26.8336 Y-25.9751
G01 X26.8069 Y-25.9626
G01 X26.7746 Y-25.9511
G01 X26.7413 Y-25.9427
G01 X26.7073 Y-25.9377
G01 X26.6755 Y-25.9360
G01 X25.9730 Y-25.9360
G01 X25.9387 Y-25.9377
G01 X25.9071 Y-25.9423
G01 X25.8714 Y-25.9511
G01 X25.8436 Y-25.9609
G01 X25.8346 Y-25.9646
G01 X25.8080 Y-25.9773
G01 X25.7827 Y-25.9924
G01 X25.7745 Y-25.9978
G01 X25.7510 Y-26.0154
G01 X25.7291 Y-26.0351
G01 X25.7221 Y-26.0421
G01 X25.7024 Y-26.0640
G01 X25.6848 Y-26.0875
G01 X25.6794 Y-26.0957
G01 X25.6643 Y-26.1210
G01 X25.6496 Y-26.1521
G01 X25.6381 Y-26.1844
G01 X25.6297 Y-26.2177
G01 X25.6247 Y-26.2517
G01 X25.6230 Y-26.2835
G01 X25.6230 Y-27.9860
G01 X25.6247 Y-28.0203
G01 X25.6289 Y-28.0494
G01 X25.6308 Y-28.0591
G01 X25.6381 Y-28.0876
G01 X25.6496 Y-28.1199
G01 X25.6621 Y-28.1466
G01 X25.6667 Y-28.1553
G01 X25.6820 Y-28.1804
G01 X25.6994 Y-28.2042
G01 X25.7057 Y-28.2118
G01 X25.7255 Y-28.2335
G01 X25.7472 Y-28.2533
G01 X25.7548 Y-28.2596
G01 X25.7786 Y-28.2770
G01 X25.8059 Y-28.2935
G01 X25.8346 Y-28.3074
G01 X25.8436 Y-28.3111
G00 Z2.0000
G00 X24.1060 Y-41.7750
G01 F60.00
G01 Z-0.2000
G01 F300.00
G01 X25.3109 Y-41.7749
G01 X25.3182 Y-41.7742
G01 X25.3279 Y-41.7726
G01 X25.3350 Y-41.7707
G01 X25.3420 Y-41.7683
G01 X25.3488 Y-41.7654
G01 X25.3553 Y-41.7620
G01 X25.3616 Y-41.7581
G01 X25.3694 Y-41.7523
G01 X25.3767 Y-41.7457
G01 X25.3817 Y-41.7403
G01 X25.3863 Y-41.7346
G01 X25.3905 Y-41.7285
G01 X25.3942 Y-41.7221
G01 X25.3984 Y-41.7133
G01 X25.4010 Y-41.7064
G01 X25.4030 Y-41.6993
G01 X25.4052 Y-41.6872
G01 X25.4060 Y-41.6750
G01 X25.4060 Y-37.1725
G01 X25.4052 Y-37.1628
G01 X25.4041 Y-37.1555
G01 X25.4024 Y-37.1483
G01 X25.4002 Y-37.1413
G01 X25.3974 Y-37.1345
G01 X25.3930 Y-37.1257
G01 X25.3891 Y-37.1194
G01 X25.3848 Y-37.1135
G01 X25.3801 Y-37.1078
G01 X25.3750 Y-37.1026
G01 X25.3675 Y-37.0962
G01 X25.3616 Y-37.0919
G01 X25.3553 Y-37.0880
G01 X25.3465 Y-37.0836
G01 X25.3397 Y-37.0808
G01 X25.3303 Y-37.0780
G01 X25.3182 Y-37.0758
G01 X25.3060 Y-37.0750
G01 X24.1011 Y-37.0751
G01 X24.0913 Y-37.0761
G01 X24.0841 Y-37.0774
G01 X24.0770 Y-37.0793
G01 X24.0700 Y-37.0817
G01 X24.0632 Y-37.0846
G01 X24.0567 Y-37.0880
G01 X24.0484 Y-37.0932
G01 X24.0426 Y-37.0977
G01 X24.0370 Y-37.1026
G01 X24.0319 Y-37.1078
G01 X24.0257 Y-37.1154
G01 X24.0215 Y-37.1215
G01 X24.0178 Y-37.1279
G01 X24.0136 Y-37.1367
G01 X24.0110 Y-37.1436
G01 X24.0090 Y-37.1507
G01 X24.0068 Y-37.1628
G01 X24.0060 Y-37.1750
G01 X24.0060 Y-41.6775
G01 X24.0065 Y-41.6848
G01 X24.0079 Y-41.6945
G01 X24.0103 Y-41.7040
G01 X24.0136 Y-41.7133
G01 X24.0178 Y-41.7221
G01 X24.0229 Y-41.7306
G01 X24.0287 Y-41.7384
G01 X24.0353 Y-41.7457
G01 X24.0426 Y-41.7523
G01 X24.0504 Y-41.7581
G01 X24.0589 Y-41.7632
G01 X24.0677 Y-41.7674
G01 X24.0770 Y-41.7707
G01 X24.0865 Y-41.7731
G01 X24.0962 Y-41.7745
G01 X24.1060 Y-41.7750
G00 Z2.0000
G00 X21.6060 Y-41.7750
G01 F60.00
G01 Z-0.2000
G01 F300.00
G01 X22.8109 Y-41.7749
G01 X22.8182 Y-41.7742
G01 X22.8279 Y-41.7726
G01 X22.8350 Y-41.7707
G01 X22.8420 Y-41.7683
G01 X22.8488 Y-41.7654
G01 X22.8553 Y-41.7620
G01 X22.8616 Y-41.7581
G01 X22.8694 Y-41.7523
G01 X22.8767 Y-41.7457
G01 X22.8817 Y-41.7403
G01 X22.8863 Y-41.7346
G01 X22.8905 Y-41.7285
G01 X22.8942 Y-41.7221
G01 X22.8984 Y-41.7133
G01 X22.9010 Y-41.7064
G01 X22.9030 Y-41.6993
G01 X22.9052 Y-41.6872
G01 X22.9060 Y-41.6750
G01 X22.9060 Y-37.1725
G01 X22.9052 Y-37.1628
G01 X22.9041 Y-37.1555
G01 X22.9024 Y-37.1483
G01 X22.9002 Y-37.1413
G01 X22.8974 Y-37.1345
G01 X22.8930 Y-37.1257
G01 X22.8891 Y-37.1194
G01 X22.8848 Y-37.1135
G01 X22.8801 Y-37.1078
G01 X22.8750 Y-37.1026
G01 X22.8675 Y-37.0962
G01 X22.8616 Y-37.0919
G01 X22.8553 Y-37.0880
G01 X22.8465 Y-37.0836
G01 X22.8397 Y-37.0808
G01 X22.8303 Y-37.0780
G01 X22.8182 Y-37.0758
G01 X22.8060 Y-37.0750
G01 X21.6011 Y-37.0751
G01 X21.5913 Y-37.0761
G01 X21.5841 Y-37.0774
G01 X21.5770 Y-37.0793
G01 X21.5700 Y-37.0817
G01 X21.5632 Y-37.0846
G01 X21.5567 Y-37.0880
G01 X21.5484 Y-37.0932
G01 X21.5426 Y-37.0977
G01 X21.5370 Y-37.1026
G01 X21.5319 Y-37.1078
G01 X21.5257 Y-37.1154
G01 X21.5215 Y-37.1215
G01 X21.5178 Y-37.1279
G01 X21.5136 Y-37.1367
G01 X21.5110 Y-37.1436
G01 X21.5090 Y-37.1507
G01 X21.5068 Y-37.1628
G01 X21.5060 Y-37.1750
G01 X21.5060 Y-41.6775
G01 X21.5065 Y-41.6848
G01 X21.5079 Y-41.6945
G01 X21.5103 Y-41.7040
G01 X21.5136 Y-41.7133
G01 X21.5178 Y-41.7221
G01 X21.5229 Y-41.7306
G01 X21.5287 Y-41.7384
G01 X21.5353 Y-41.7457
G01 X21.5426 Y-41.7523
G01 X21.5504 Y-41.7581
G01 X21.5589 Y-41.7632
G01 X21.5677 Y-41.7674
G01 X21.5770 Y-41.7707
G01 X21.5865 Y-41.7731
G01 X21.5962 Y-41.7745
G01 X21.6060 Y-41.7750
G00 Z2.0000
G00 X19.1060 Y-41.7750
G01 F60.00
G01 Z-0.2000
G01 F300.00
G01 X20.3109 Y-41.7749
G01 X20.3182 Y-41.7742
G01 X20.3279 Y-41.7726
G01 X20.3350 Y-41.7707
G01 X20.3420 Y-41.7683
G01 X20.3488 Y-41.7654
G01 X20.3553 Y-41.7620
G01 X20.3616 Y-41.7581
G01 X20.3694 Y-41.7523
G01 X20.3767 Y-41.7457
G01 X20.3817 Y-41.7403
G01 X20.3863 Y-41.7346
G01 X20.3905 Y-41.7285
G01 X20.3942 Y-41.7221
G01 X20.3984 Y-41.7133
G01 X20.4010 Y-41.7064
G01 X20.4030 Y-41.6993
G01 X20.4052 Y-41.6872
G01 X20.4060 Y-41.6750
G01 X20.4060 Y-37.1725
G01 X20.4052 Y-37.1628
G01 X20.4041 Y-37.1555
G01 X20.4024 Y-37.1483
G01 X20.4002 Y-37.1413
G01 X20.3974 Y-37.1345
G01 X20.3930 Y-37.1257
G01 X20.3891 Y-37.1194
G01 X20.3848 Y-37.1135
G01 X20.3801 Y-37.1078
G01 X20.3750 Y-37.1026
G01 X20.3675 Y-37.0962
G01 X20.3616 Y-37.0919
G01 X20.3553 Y-37.0880
G01 X20.3465 Y-37.0836
G01 X20.3397 Y-37.0808
G01 X20.3303 Y-37.0780
G01 X20.3182 Y-37.0758
G01 X20.3060 Y-37.0750
G01 X19.1011 Y-37.0751
G01 X19.0913 Y-37.0761
G01 X19.0841 Y-37.0774
G01 X19.0770 Y-37.0793
G01 X19.0700 Y-37.0817
G01 X19.0632 Y-37.0846
G01 X19.0567 Y-37.0880
G01 X19.0484 Y-37.0932
G01 X19.0426 Y-37.0977
G01 X19.0370 Y-37.1026
G01 X19.0319 Y-37.1078
G01 X19.0257 Y-37.1154
G01 X19.0215 Y-37.1215
G01 X19.0178 Y-37.1279
G01 X19.0136 Y-37.1367
G01 X19.0110 Y-37.1436
G01 X19.0090 Y-37.1507
G01 X19.0068 Y-37.1628
G01 X19.0060 Y-37.1750
G01 X19.0060 Y-41.6775
G01 X19.0065 Y-41.6848
G01 X19.0079 Y-41.6945
G01 X19.0103 Y-41.7040
G01 X19.0136 Y-41.7133
G01 X19.0178 Y-41.7221
G01 X19.0229 Y-41.7306
G01 X19.0287 Y-41.7384
G01 X19.0353 Y-41.7457
G01 X19.0426 Y-41.7523
G01 X19.0504 Y-41.7581
G01 X19.0589 Y-41.7632
G01 X19.0677 Y-41.7674
G01 X19.0770 Y-41.7707
G01 X19.0865 Y-41.7731
G01 X19.0962 Y-41.7745
G01 X19.1060 Y-41.7750
G00 Z2.0000
G00 X16.1560 Y-46.7250
G01 F60.00
G01 Z-0.2000
G01 F300.00
G01 X17.3609 Y-46.7249
G01 X17.3731 Y-46.7235
G01 X17.3803 Y-46.7220
G01 X17.3874 Y-46.7200
G01 X17.3943 Y-46.7174
G01 X17.4010 Y-46.7143
G01 X17.4074 Y-46.7108
G01 X17.4136 Y-46.7068
G01 X17.4194 Y-46.7023
G01 X17.4250 Y-46.6974
G01 X17.4301 Y-46.6922
G01 X17.4348 Y-46.6865
G01 X17.4391 Y-46.6806
G01 X17.4430 Y-46.6743
G01 X17.4464 Y-46.6678
G01 X17.4493 Y-46.6610
G01 X17.4517 Y-46.6540
G01 X17.4541 Y-46.6445
G01 X17.4555 Y-46.6348
G01 X17.4560 Y-46.6250
G01 X17.4560 Y-43.6225
G01 X17.4555 Y-43.6152
G01 X17.4545 Y-43.6079
G01 X17.4530 Y-43.6007
G01 X17.4510 Y-43.5936
G01 X17.4484 Y-43.5867
G01 X17.4453 Y-43.5800
G01 X17.4418 Y-43.5736
G01 X17.4378 Y-43.5674
G01 X17.4333 Y-43.5616
G01 X17.4284 Y-43.5560
G01 X17.4232 Y-43.5509
G01 X17.4175 Y-43.5462
G01 X17.4116 Y-43.5419
G01 X17.4053 Y-43.5380
G01 X17.3988 Y-43.5346
G01 X17.3920 Y-43.5317
G01 X17.3827 Y-43.5286
G01 X17.3755 Y-43.5269
G01 X17.3658 Y-43.5255
G01 X17.3560 Y-43.5250
G01 X16.1511 Y-43.5251
G01 X16.1438 Y-43.5258
G01 X16.1365 Y-43.5269
G01 X16.1293 Y-43.5286
G01 X16.1223 Y-43.5308
G01 X16.1155 Y-43.5336
G01 X16.1089 Y-43.5368
G01 X16.1025 Y-43.5405
G01 X16.0964 Y-43.5447
G01 X16.0907 Y-43.5493
G01 X16.0853 Y-43.5543
G01 X16.0772 Y-43.5635
G01 X16.0729 Y-43.5694
G01 X16.0690 Y-43.5757
G01 X16.0656 Y-43.5822
G01 X16.0627 Y-43.5890
G01 X16.0596 Y-43.5983
G01 X16.0575 Y-43.6079
G01 X16.0563 Y-43.6176
G01 X16.0560 Y-43.6250
G01 X16.0560 Y-46.6275
G01 X16.0565 Y-46.6348
G01 X16.0579 Y-46.6445
G01 X16.0603 Y-46.6540
G01 X16.0636 Y-46.6633
G01 X16.0678 Y-46.6721
G01 X16.0729 Y-46.6806
G01 X16.0787 Y-46.6884
G01 X16.0853 Y-46.6957
G01 X16.0926 Y-46.7023
G01 X16.1004 Y-46.7081
G01 X16.1089 Y-46.7132
G01 X16.1177 Y-46.7174
G01 X16.1270 Y-46.7207
G01 X16.1365 Y-46.7231
G01 X16.1462 Y-46.7245
G01 X16.1560 Y-46.7250
G00 Z2.0000
G00 X27.0560 Y-46.7250
G01 F60.00
G01 Z-0.2000
G01 F300.00
G01 X28.2609 Y-46.7249
G01 X28.2731 Y-46.7235
G01 X28.2803 Y-46.7220
G01 X28.2874 Y-46.7200
G01 X28.2943 Y-46.7174
G01 X28.3010 Y-46.7143
G01 X28.3074 Y-46.7108
G01 X28.3136 Y-46.7068
G01 X28.3194 Y-46.7023
G01 X28.3250 Y-46.6974
G01 X28.3301 Y-46.6922
G01 X28.3348 Y-46.6865
G01 X28.3391 Y-46.6806
G01 X28.3430 Y-46.6743
G01 X28.3464 Y-46.6678
G01 X28.3493 Y-46.6610
G01 X28.3517 Y-46.6540
G01 X28.3541 Y-46.6445
G01 X28.3555 Y-46.6348
G01 X28.3560 Y-46.6250
G01 X28.3560 Y-43.6225
G01 X28.3555 Y-43.6152
G01 X28.3545 Y-43.6079
G01 X28.3530 Y-43.6007
G01 X28.3510 Y-43.5936
G01 X28.3484 Y-43.5867
G01 X28.3453 Y-43.5800
G01 X28.3418 Y-43.5736
G01 X28.3378 Y-43.5674
G01 X28.3333 Y-43.5616
G01 X28.3284 Y-43.5560
G01 X28.3232 Y-43.5509
G01 X28.3175 Y-43.5462
G01 X28.3116 Y-43.5419
G01 X28.3053 Y-43.5380
G01 X28.2988 Y-43.5346
G01 X28.2920 Y-43.5317
G01 X28.2827 Y-43.5286
G01 X28.2755 Y-43.5269
G01 X28.2658 Y-43.5255
G01 X28.2560 Y-43.5250
G01 X27.0511 Y-43.5251
G01 X27.0438 Y-43.5258
G01 X27.0365 Y-43.5269
G01 X27.0293 Y-43.5286
G01 X27.0223 Y-43.5308
G01 X27.0155 Y-43.5336
G01 X27.0089 Y-43.5368
G01 X27.0025 Y-43.5405
G01 X26.9964 Y-43.5447
G01 X26.9907 Y-43.5493
G01 X26.9853 Y-43.5543
G01 X26.9772 Y-43.5635
G01 X26.9729 Y-43.5694
G01 X26.9690 Y-43.5757
G01 X26.9656 Y-43.5822
G01 X26.9627 Y-43.5890
G01 X26.9596 Y-43.5983
G01 X26.9575 Y-43.6079
G01 X26.9563 Y-43.6176
G01 X26.9560 Y-43.6250
G01 X26.9560 Y-46.6275
G01 X26.9565 Y-46.6348
G01 X26.9579 Y-46.6445
G01 X26.9603 Y-46.6540
G01 X26.9636 Y-46.6633
G01 X26.9678 Y-46.6721
G01 X26.9729 Y-46.6806
G01 X26.9787 Y-46.6884
G01 X26.9853 Y-46.6957
G01 X26.9926 Y-46.7023
G01 X27.0004 Y-46.7081
G01 X27.0089 Y-46.7132
G01 X27.0177 Y-46.7174
G01 X27.0270 Y-46.7207
G01 X27.0365 Y-46.7231
G01 X27.0462 Y-46.7245
G01 X27.0560 Y-46.7250
G00 Z2.0000
G00 X33.3010 Y-46.5980
G01 F60.00
G01 Z-0.2000
G01 F300.00
G01 X34.5059 Y-46.5979
G01 X34.5181 Y-46.5965
G01 X34.5253 Y-46.5950
G01 X34.5324 Y-46.5930
G01 X34.5393 Y-46.5904
G01 X34.5460 Y-46.5873
G01 X34.5524 Y-46.5838
G01 X34.5586 Y-46.5798
G01 X34.5644 Y-46.5753
G01 X34.5700 Y-46.5704
G01 X34.5751 Y-46.5652
G01 X34.5798 Y-46.5595
G01 X34.5841 Y-46.5536
G01 X34.5880 Y-46.5473
G01 X34.5914 Y-46.5408
G01 X34.5943 Y-46.5340
G01 X34.5967 Y-46.5270
G01 X34.5991 Y-46.5175
G01 X34.6005 Y-46.5078
G01 X34.6010 Y-46.4980
G01 X34.6010 Y-43.4955
G01 X34.6005 Y-43.4882
G01 X34.5995 Y-43.4809
G01 X34.5980 Y-43.4737
G01 X34.5960 Y-43.4666
G01 X34.5934 Y-43.4597
G01 X34.5903 Y-43.4530
G01 X34.5868 Y-43.4466
G01 X34.5828 Y-43.4404
G01 X34.5783 Y-43.4346
G01 X34.5734 Y-43.4290
G01 X34.5682 Y-43.4239
G01 X34.5625 Y-43.4192
G01 X34.5566 Y-43.4149
G01 X34.5503 Y-43.4110
G01 X34.5438 Y-43.4076
G01 X34.5370 Y-43.4047
G01 X34.5277 Y-43.4016
G01 X34.5205 Y-43.3999
G01 X34.5108 Y-43.3985
G01 X34.5010 Y-43.3980
G01 X33.2961 Y-43.3981
G01 X33.2888 Y-43.3988
G01 X33.2815 Y-43.3999
G01 X33.2743 Y-43.4016
G01 X33.2673 Y-43.4038
G01 X33.2605 Y-43.4066
G01 X33.2539 Y-43.4098
G01 X33.2475 Y-43.4135
G01 X33.2414 Y-43.4177
G01 X33.2357 Y-43.4223
G01 X33.2303 Y-43.4273
G01 X33.2222 Y-43.4365
G01 X33.2179 Y-43.4424
G01 X33.2140 Y-43.4487
G01 X33.2106 Y-43.4552
G01 X33.2077 Y-43.4620
G01 X33.2046 Y-43.4713
G01 X33.2025 Y-43.4809
G01 X33.2013 Y-43.4906
G01 X33.2010 Y-43.4980
G01 X33.2010 Y-46.5005
G01 X33.2015 Y-46.5078
G01 X33.2029 Y-46.5175
G01 X33.2053 Y-46.5270
G01 X33.2086 Y-46.5363
G01 X33.2128 Y-46.5451
G01 X33.2179 Y-46.5536
G01 X33.2237 Y-46.5614
G01 X33.2303 Y-46.5687
G01 X33.2376 Y-46.5753
G01 X33.2454 Y-46.5811
G01 X33.2539 Y-46.5862
G01 X33.2627 Y-46.5904
G01 X33.2720 Y-46.5937
G01 X33.2815 Y-46.5961
G01 X33.2912 Y-46.5975
G01 X33.3010 Y-46.5980
G00 Z2.0000
G00 X36.2510 Y-41.6480
G01 F60.00
G01 Z-0.2000
G01 F300.00
G01 X37.4559 Y-41.6479
G01 X37.4632 Y-41.6472
G01 X37.4729 Y-41.6456
G01 X37.4800 Y-41.6437
G01 X37.4870 Y-41.6413
G01 X37.4938 Y-41.6384
G01 X37.5003 Y-41.6350
G01 X37.5066 Y-41.6311
G01 X37.5144 Y-41.6253
G01 X37.5217 Y-41.6187
G01 X37.5267 Y-41.6133
G01 X37.5313 Y-41.6076
G01 X37.5355 Y-41.6015
G01 X37.5392 Y-41.5951
G01 X37.5434 Y-41.5863
G01 X37.5460 Y-41.5794
G01 X37.5480 Y-41.5723
G01 X37.5502 Y-41.5602
G01 X37.5510 Y-41.5480
G01 X37.5510 Y-37.0455
G01 X37.5502 Y-37.0358
G01 X37.5491 Y-37.0285
G01 X37.5474 Y-37.0213
G01 X37.5452 Y-37.0143
G01 X37.5424 Y-37.0075
G01 X37.5380 Y-36.9987
G01 X37.5341 Y-36.9924
G01 X37.5298 Y-36.9865
G01 X37.5251 Y-36.9808
G01 X37.5200 Y-36.9756
G01 X37.5125 Y-36.9692
G01 X37.5066 Y-36.9649
G01 X37.5003 Y-36.9610
G01 X37.4915 Y-36.9566
G01 X37.4847 Y-36.9538
G01 X37.4753 Y-36.9510
G01 X37.4632 Y-36.9488
G01 X37.4510 Y-36.9480
G01 X36.2461 Y-36.9481
G01 X36.2363 Y-36.9491
G01 X36.2291 Y-36.9504
G01 X36.2220 Y-36.9523
G01 X36.2150 Y-36.9547
G01 X36.2082 Y-36.9576
G01 X36.2017 Y-36.9610
G01 X36.1934 Y-36.9662
G01 X36.1876 Y-36.9707
G01 X36.1820 Y-36.9756
G01 X36.1769 Y-36.9808
G01 X36.1707 Y-36.9884
G01 X36.1665 Y-36.9945
G01 X36.1628 Y-37.0009
G01 X36.1586 Y-37.0097
G01 X36.1560 Y-37.0166
G01 X36.1540 Y-37.0237
G01 X36.1518 Y-37.0358
G01 X36.1510 Y-37.0480
G01 X36.1510 Y-41.5505
G01 X36.1515 Y-41.5578
G01 X36.1529 Y-41.5675
G01 X36.1553 Y-41.5770
G01 X36.1586 Y-41.5863
G01 X36.1628 Y-41.5951
G01 X36.1679 Y-41.6036
G01 X36.1737 Y-41.6114
G01 X36.1803 Y-41.6187
G01 X36.1876 Y-41.6253
G01 X36.1954 Y-41.6311
G01 X36.2039 Y-41.6362
G01 X36.2127 Y-41.6404
G01 X36.2220 Y-41.6437
G01 X36.2315 Y-41.6461
G01 X36.2412 Y-41.6475
G01 X36.2510 Y-41.6480
G00 Z2.0000
G00 X38.7510 Y-41.6480
G01 F60.00
G01 Z-0.2000
G01 F300.00
G01 X39.9559 Y-41.6479
G01 X39.9632 Y-41.6472
G01 X39.9729 Y-41.6456
G01 X39.9800 Y-41.6437
G01 X39.9870 Y-41.6413
G01 X39.9938 Y-41.6384
G01 X40.0003 Y-41.6350
G01 X40.0066 Y-41.6311
G01 X40.0144 Y-41.6253
G01 X40.0217 Y-41.6187
G01 X40.0267 Y-41.6133
G01 X40.0313 Y-41.6076
G01 X40.0355 Y-41.6015
G01 X40.0392 Y-41.5951
G01 X40.0434 Y-41.5863
G01 X40.0460 Y-41.5794
G01 X40.0480 Y-41.5723
G01 X40.0502 Y-41.5602
G01 X40.0510 Y-41.5480
G01 X40.0510 Y-37.0455
G01 X40.0502 Y-37.0358
G01 X40.0491 Y-37.0285
G01 X40.0474 Y-37.0213
G01 X40.0452 Y-37.0143
G01 X40.0424 Y-37.0075
G01 X40.0380 Y-36.9987
G01 X40.0341 Y-36.9924
G01 X40.0298 Y-36.9865
G01 X40.0251 Y-36.9808
G01 X40.0200 Y-36.9756
G01 X40.0125 Y-36.9692
G01 X40.0066 Y-36.9649
G01 X40.0003 Y-36.9610
G01 X39.9915 Y-36.9566
G01 X39.9847 Y-36.9538
G01 X39.9753 Y-36.9510
G01 X39.9632 Y-36.9488
G01 X39.9510 Y-36.9480
G01 X38.7461 Y-36.9481
G01 X38.7363 Y-36.9491
G01 X38.7291 Y-36.9504
G01 X38.7220 Y-36.9523
G01 X38.7150 Y-36.9547
G01 X38.7082 Y-36.9576
G01 X38.7017 Y-36.9610
G01 X38.6934 Y-36.9662
G01 X38.6876 Y-36.9707
G01 X38.6820 Y-36.9756
G01 X38.6769 Y-36.9808
G01 X38.6707 Y-36.9884
G01 X38.6665 Y-36.9945
G01 X38.6628 Y-37.0009
G01 X38.6586 Y-37.0097
G01 X38.6560 Y-37.0166
G01 X38.6540 Y-37.0237
G01 X38.6518 Y-37.0358
G01 X38.6510 Y-37.0480
G01 X38.6510 Y-41.5505
G01 X38.6515 Y-41.5578
G01 X38.6529 Y-41.5675
G01 X38.6553 Y-41.5770
G01 X38.6586 Y-41.5863
G01 X38.6628 Y-41.5951
G01 X38.6679 Y-41.6036
G01 X38.6737 Y-41.6114
G01 X38.6803 Y-41.6187
G01 X38.6876 Y-41.6253
G01 X38.6954 Y-41.6311
G01 X38.7039 Y-41.6362
G01 X38.7127 Y-41.6404
G01 X38.7220 Y-41.6437
G01 X38.7315 Y-41.6461
G01 X38.7412 Y-41.6475
G01 X38.7510 Y-41.6480
G00 Z2.0000
G00 X41.2510 Y-41.6480
G01 F60.00
G01 Z-0.2000
G01 F300.00
G01 X42.4559 Y-41.6479
G01 X42.4632 Y-41.6472
G01 X42.4729 Y-41.6456
G01 X42.4800 Y-41.6437
G01 X42.4870 Y-41.6413
G01 X42.4938 Y-41.6384
G01 X42.5003 Y-41.6350
G01 X42.5066 Y-41.6311
G01 X42.5144 Y-41.6253
G01 X42.5217 Y-41.6187
G01 X42.5267 Y-41.6133
G01 X42.5313 Y-41.6076
G01 X42.5355 Y-41.6015
G01 X42.5392 Y-41.5951
G01 X42.5434 Y-41.5863
G01 X42.5460 Y-41.5794
G01 X42.5480 Y-41.5723
G01 X42.5502 Y-41.5602
G01 X42.5510 Y-41.5480
G01 X42.5510 Y-37.0455
G01 X42.5502 Y-37.0358
G01 X42.5491 Y-37.0285
G01 X42.5474 Y-37.0213
G01 X42.5452 Y-37.0143
G01 X42.5424 Y-37.0075
G01 X42.5380 Y-36.9987
G01 X42.5341 Y-36.9924
G01 X42.5298 Y-36.9865
G01 X42.5251 Y-36.9808
G01 X42.5200 Y-36.9756
G01 X42.5125 Y-36.9692
G01 X42.5066 Y-36.9649
G01 X42.5003 Y-36.9610
G01 X42.4915 Y-36.9566
G01 X42.4847 Y-36.9538
G01 X42.4753 Y-36.9510
G01 X42.4632 Y-36.9488
G01 X42.4510 Y-36.9480
G01 X41.2461 Y-36.9481
G01 X41.2363 Y-36.9491
G01 X41.2291 Y-36.9504
G01 X41.2220 Y-36.9523
G01 X41.2150 Y-36.9547
G01 X41.2082 Y-36.9576
G01 X41.2017 Y-36.9610
G01 X41.1934 Y-36.9662
G01 X41.1876 Y-36.9707
G01 X41.1820 Y-36.9756
G01 X41.1769 Y-36.9808
G01 X41.1707 Y-36.9884
G01 X41.1665 Y-36.9945
G01 X41.1628 Y-37.0009
G01 X41.1586 Y-37.0097
G01 X41.1560 Y-37.0166
G01 X41.1540 Y-37.0237
G01 X41.1518 Y-37.0358
G01 X41.1510 Y-37.0480
G01 X41.1510 Y-41.5505
G01 X41.1515 Y-41.5578
G01 X41.1529 Y-41.5675
G01 X41.1553 Y-41.5770
G01 X41.1586 Y-41.5863
G01 X41.1628 Y-41.5951
G01 X41.1679 Y-41.6036
G01 X41.1737 Y-41.6114
G01 X41.1803 Y-41.6187
G01 X41.1876 Y-41.6253
G01 X41.1954 Y-41.6311
G01 X41.2039 Y-41.6362
G01 X41.2127 Y-41.6404
G01 X41.2220 Y-41.6437
G01 X41.2315 Y-41.6461
G01 X41.2412 Y-41.6475
G01 X41.2510 Y-41.6480
G00 Z2.0000
G00 X44.2010 Y-46.5980
G01 F60.00
G01 Z-0.2000
G01 F300.00
G01 X45.4059 Y-46.5979
G01 X45.4181 Y-46.5965
G01 X45.4253 Y-46.5950
G01 X45.4324 Y-46.5930
G01 X45.4393 Y-46.5904
G01 X45.4460 Y-46.5873
G01 X45.4524 Y-46.5838
G01 X45.4586 Y-46.5798
G01 X45.4644 Y-46.5753
G01 X45.4700 Y-46.5704
G01 X45.4751 Y-46.5652
G01 X45.4798 Y-46.5595
G01 X45.4841 Y-46.5536
G01 X45.4880 Y-46.5473
G01 X45.4914 Y-46.5408
G01 X45.4943 Y-46.5340
G01 X45.4967 Y-46.5270
G01 X45.4991 Y-46.5175
G01 X45.5005 Y-46.5078
G01 X45.5010 Y-46.4980
G01 X45.5010 Y-43.4955
G01 X45.5005 Y-43.4882
G01 X45.4995 Y-43.4809
G01 X45.4980 Y-43.4737
G01 X45.4960 Y-43.4666
G01 X45.4934 Y-43.4597
G01 X45.4903 Y-43.4530
G01 X45.4868 Y-43.4466
G01 X45.4828 Y-43.4404
G01 X45.4783 Y-43.4346
G01 X45.4734 Y-43.4290
G01 X45.4682 Y-43.4239
G01 X45.4625 Y-43.4192
G01 X45.4566 Y-43.4149
G01 X45.4503 Y-43.4110
G01 X45.4438 Y-43.4076
G01 X45.4370 Y-43.4047
G01 X45.4277 Y-43.4016
G01 X45.4205 Y-43.3999
G01 X45.4108 Y-43.3985
G01 X45.4010 Y-43.3980
G01 X44.1961 Y-43.3981
G01 X44.1888 Y-43.3988
G01 X44.1815 Y-43.3999
G01 X44.1743 Y-43.4016
G01 X44.1673 Y-43.4038
G01 X44.1605 Y-43.4066
G01 X44.1539 Y-43.4098
G01 X44.1475 Y-43.4135
G01 X44.1414 Y-43.4177
G01 X44.1357 Y-43.4223
G01 X44.1303 Y-43.4273
G01 X44.1222 Y-43.4365
G01 X44.1179 Y-43.4424
G01 X44.1140 Y-43.4487
G01 X44.1106 Y-43.4552
G01 X44.1077 Y-43.4620
G01 X44.1046 Y-43.4713
G01 X44.1025 Y-43.4809
G01 X44.1013 Y-43.4906
G01 X44.1010 Y-43.4980
G01 X44.1010 Y-46.5005
G01 X44.1015 Y-46.5078
G01 X44.1029 Y-46.5175
G01 X44.1053 Y-46.5270
G01 X44.1086 Y-46.5363
G01 X44.1128 Y-46.5451
G01 X44.1179 Y-46.5536
G01 X44.1237 Y-46.5614
G01 X44.1303 Y-46.5687
G01 X44.1376 Y-46.5753
G01 X44.1454 Y-46.5811
G01 X44.1539 Y-46.5862
G01 X44.1627 Y-46.5904
G01 X44.1720 Y-46.5937
G01 X44.1815 Y-46.5961
G01 X44.1912 Y-46.5975
G01 X44.2010 Y-46.5980
G00 Z2.0000
G00 X49.1229 Y-44.5632
G01 F60.00
G01 Z-0.2000
G01 F300.00
G01 X49.1414 Y-44.5697
G01 X49.1652 Y-44.5757
G01 X49.1895 Y-44.5793
G01 X49.2115 Y-44.5805
G01 X49.5165 Y-44.5805
G01 X49.5361 Y-44.5795
G01 X49.5434 Y-44.5787
G01 X49.5628 Y-44.5757
G01 X49.5818 Y-44.5710
G01 X49.5912 Y-44.5682
G01 X49.6097 Y-44.5615
G01 X49.6275 Y-44.5532
G01 X49.6361 Y-44.5486
G01 X49.6529 Y-44.5384
G01 X49.6687 Y-44.5268
G01 X49.6763 Y-44.5205
G01 X49.6908 Y-44.5073
G01 X49.7040 Y-44.4928
G01 X49.7103 Y-44.4852
G01 X49.7219 Y-44.4694
G01 X49.7321 Y-44.4526
G01 X49.7367 Y-44.4440
G01 X49.7450 Y-44.4262
G01 X49.7539 Y-44.4007
G01 X49.7592 Y-44.3793
G01 X49.7622 Y-44.3599
G01 X49.7632 Y-44.3501
G01 X49.7640 Y-44.3305
G01 X49.7640 Y-43.1555
G01 X49.7625 Y-43.1286
G01 X49.7592 Y-43.1067
G01 X49.7545 Y-43.0877
G01 X49.7517 Y-43.0783
G01 X49.7450 Y-43.0598
G01 X49.7345 Y-43.0377
G01 X49.7245 Y-43.0208
G01 X49.7190 Y-43.0126
G01 X49.7073 Y-42.9969
G01 X49.6942 Y-42.9823
G01 X49.6872 Y-42.9753
G01 X49.6726 Y-42.9622
G01 X49.6529 Y-42.9476
G01 X49.6318 Y-42.9350
G01 X49.6142 Y-42.9265
G01 X49.6051 Y-42.9228
G01 X49.5842 Y-42.9156
G01 X49.5628 Y-42.9103
G01 X49.5434 Y-42.9073
G01 X49.5361 Y-42.9065
G01 X49.5165 Y-42.9055
G01 X49.2140 Y-42.9055
G01 X49.1944 Y-42.9063
G01 X49.1846 Y-42.9073
G01 X49.1652 Y-42.9103
G01 X49.1438 Y-42.9156
G01 X49.1183 Y-42.9245
G01 X49.1005 Y-42.9328
G01 X49.0919 Y-42.9374
G01 X49.0751 Y-42.9476
G01 X49.0593 Y-42.9592
G01 X49.0517 Y-42.9655
G01 X49.0372 Y-42.9787
G01 X49.0240 Y-42.9932
G01 X49.0177 Y-43.0008
G01 X49.0061 Y-43.0166
G01 X48.9959 Y-43.0334
G01 X48.9913 Y-43.0420
G01 X48.9830 Y-43.0598
G01 X48.9741 Y-43.0853
G01 X48.9688 Y-43.1067
G01 X48.9658 Y-43.1261
G01 X48.9648 Y-43.1359
G01 X48.9640 Y-43.1555
G01 X48.9640 Y-44.3305
G01 X48.9652 Y-44.3550
G01 X48.9680 Y-44.3744
G01 X48.9699 Y-44.3841
G01 X48.9748 Y-44.4031
G01 X48.9830 Y-44.4262
G01 X48.9913 Y-44.4440
G01 X48.9959 Y-44.4526
G01 X49.0061 Y-44.4694
G01 X49.0177 Y-44.4852
G01 X49.0240 Y-44.4928
G01 X49.0372 Y-44.5073
G01 X49.0517 Y-44.5205
G01 X49.0593 Y-44.5268
G01 X49.0751 Y-44.5384
G01 X49.0940 Y-44.5498
G01 X49.1138 Y-44.5595
G01 X49.1229 Y-44.5632
G00 Z2.0000
G00 X51.0229 Y-44.5632
G01 F60.00
G01 Z-0.2000
G01 F300.00
G01 X51.0414 Y-44.5697
G01 X51.0652 Y-44.5757
G01 X51.0895 Y-44.5793
G01 X51.1115 Y-44.5805
G01 X51.4165 Y-44.5805
G01 X51.4361 Y-44.5795
G01 X51.4434 Y-44.5787
G01 X51.4628 Y-44.5757
G01 X51.4818 Y-44.5710
G01 X51.4912 Y-44.5682
G01 X51.5097 Y-44.5615
G01 X51.5275 Y-44.5532
G01 X51.5361 Y-44.5486
G01 X51.5529 Y-44.5384
G01 X51.5687 Y-44.5268
G01 X51.5763 Y-44.5205
G01 X51.5908 Y-44.5073
G01 X51.6040 Y-44.4928
G01 X51.6103 Y-44.4852
G01 X51.6219 Y-44.4694
G01 X51.6321 Y-44.4526
G01 X51.6367 Y-44.4440
G01 X51.6450 Y-44.4262
G01 X51.6539 Y-44.4007
G01 X51.6592 Y-44.3793
G01 X51.6622 Y-44.3599
G01 X51.6632 Y-44.3501
G01 X51.6640 Y-44.3305
G01 X51.6640 Y-43.1555
G01 X51.6625 Y-43.1286
G01 X51.6592 Y-43.1067
G01 X51.6545 Y-43.0877
G01 X51.6517 Y-43.0783
G01 X51.6450 Y-43.0598
G01 X51.6345 Y-43.0377
G01 X51.6245 Y-43.0208
G01 X51.6190 Y-43.0126
G01 X51.6073 Y-42.9969
G01 X51.5942 Y-42.9823
G01 X51.5872 Y-42.9753
G01 X51.5726 Y-42.9622
G01 X51.5529 Y-42.9476
G01 X51.5318 Y-42.9350
G01 X51.5142 Y-42.9265
G01 X51.5051 Y-42.9228
G01 X51.4842 Y-42.9156
G01 X51.4628 Y-42.9103
G01 X51.4434 Y-42.9073
G01 X51.4361 Y-42.9065
G01 X51.4165 Y-42.9055
G01 X51.1140 Y-42.9055
G01 X51.0944 Y-42.9063
G01 X51.0846 Y-42.9073
G01 X51.0652 Y-42.9103
G01 X51.0438 Y-42.9156
G01 X51.0183 Y-42.9245
G01 X51.0005 Y-42.9328
G01 X50.9919 Y-42.9374
G01 X50.9751 Y-42.9476
G01 X50.9593 Y-42.9592
G01 X50.9517 Y-42.9655
G01 X50.9372 Y-42.9787
G01 X50.9240 Y-42.9932
G01 X50.9177 Y-43.0008
G01 X50.9061 Y-43.0166
G01 X50.8959 Y-43.0334
G01 X50.8913 Y-43.0420
G01 X50.8830 Y-43.0598
G01 X50.8741 Y-43.0853
G01 X50.8688 Y-43.1067
G01 X50.8658 Y-43.1261
G01 X50.8648 Y-43.1359
G01 X50.8640 Y-43.1555
G01 X50.8640 Y-44.3305
G01 X50.8652 Y-44.3550
G01 X50.8680 Y-44.3744
G01 X50.8699 Y-44.3841
G01 X50.8748 Y-44.4031
G01 X50.8830 Y-44.4262
G01 X50.8913 Y-44.4440
G01 X50.8959 Y-44.4526
G01 X50.9061 Y-44.4694
G01 X50.9177 Y-44.4852
G01 X50.9240 Y-44.4928
G01 X50.9372 Y-44.5073
G01 X50.9517 Y-44.5205
G01 X50.9593 Y-44.5268
G01 X50.9751 Y-44.5384
G01 X50.9940 Y-44.5498
G01 X51.0138 Y-44.5595
G01 X51.0229 Y-44.5632
G00 Z2.0000
G00 X50.0729 Y-42.6882
G01 F60.00
G01 Z-0.2000
G01 F300.00
G01 X50.0914 Y-42.6947
G01 X50.1152 Y-42.7007
G01 X50.1395 Y-42.7043
G01 X50.1615 Y-42.7055
G01 X50.4665 Y-42.7055
G01 X50.4861 Y-42.7045
G01 X50.4934 Y-42.7037
G01 X50.5128 Y-42.7007
G01 X50.5318 Y-42.6960
G01 X50.5412 Y-42.6932
G01 X50.5597 Y-42.6865
G01 X50.5775 Y-42.6782
G01 X50.5861 Y-42.6736
G01 X50.6029 Y-42.6634
G01 X50.6187 Y-42.6518
G01 X50.6263 Y-42.6455
G01 X50.6408 Y-42.6323
G01 X50.6540 Y-42.6178
G01 X50.6603 Y-42.6102
G01 X50.6719 Y-42.5944
G01 X50.6821 Y-42.5776
G01 X50.6867 Y-42.5690
G01 X50.6950 Y-42.5512
G01 X50.7039 Y-42.5257
G01 X50.7092 Y-42.5043
G01 X50.7122 Y-42.4849
G01 X50.7132 Y-42.4751
G01 X50.7140 Y-42.4555
G01 X50.7140 Y-41.2805
G01 X50.7125 Y-41.2536
G01 X50.7092 Y-41.2317
G01 X50.7045 Y-41.2127
G01 X50.7017 Y-41.2033
G01 X50.6950 Y-41.1848
G01 X50.6845 Y-41.1627
G01 X50.6745 Y-41.1458
G01 X50.6690 Y-41.1376
G01 X50.6573 Y-41.1219
G01 X50.6442 Y-41.1073
G01 X50.6372 Y-41.1003
G01 X50.6226 Y-41.0872
G01 X50.6029 Y-41.0726
G01 X50.5818 Y-41.0600
G01 X50.5642 Y-41.0515
G01 X50.5551 Y-41.0478
G01 X50.5342 Y-41.0406
G01 X50.5128 Y-41.0353
G01 X50.4934 Y-41.0323
G01 X50.4861 Y-41.0315
G01 X50.4665 Y-41.0305
G01 X50.1640 Y-41.0305
G01 X50.1444 Y-41.0313
G01 X50.1346 Y-41.0323
G01 X50.1152 Y-41.0353
G01 X50.0938 Y-41.0406
G01 X50.0683 Y-41.0495
G01 X50.0505 Y-41.0578
G01 X50.0419 Y-41.0624
G01 X50.0251 Y-41.0726
G01 X50.0093 Y-41.0842
G01 X50.0017 Y-41.0905
G01 X49.9872 Y-41.1037
G01 X49.9740 Y-41.1182
G01 X49.9677 Y-41.1258
G01 X49.9561 Y-41.1416
G01 X49.9459 Y-41.1584
G01 X49.9413 Y-41.1670
G01 X49.9330 Y-41.1848
G01 X49.9241 Y-41.2103
G01 X49.9188 Y-41.2317
G01 X49.9158 Y-41.2511
G01 X49.9148 Y-41.2609
G01 X49.9140 Y-41.2805
G01 X49.9140 Y-42.4555
G01 X49.9152 Y-42.4800
G01 X49.9180 Y-42.4994
G01 X49.9199 Y-42.5091
G01 X49.9248 Y-42.5281
G01 X49.9330 Y-42.5512
G01 X49.9413 Y-42.5690
G01 X49.9459 Y-42.5776
G01 X49.9561 Y-42.5944
G01 X49.9677 Y-42.6102
G01 X49.9740 Y-42.6178
G01 X49.9872 Y-42.6323
G01 X50.0017 Y-42.6455
G01 X50.0093 Y-42.6518
G01 X50.0251 Y-42.6634
G01 X50.0440 Y-42.6748
G01 X50.0638 Y-42.6845
G01 X50.0729 Y-42.6882
G00 Z2.0000
G00 X50.1946 Y-39.3961
G01 F60.00
G01 Z-0.2000
G01 F300.00
G01 X50.2224 Y-39.4059
G01 X50.2557 Y-39.4143
G01 X50.2897 Y-39.4193
G01 X50.3215 Y-39.4210
G01 X51.5765 Y-39.4210
G01 X51.6083 Y-39.4193
G01 X51.6374 Y-39.4151
G01 X51.6471 Y-39.4132
G01 X51.6756 Y-39.4059
G01 X51.7079 Y-39.3944
G01 X51.7346 Y-39.3819
G01 X51.7433 Y-39.3773
G01 X51.7705 Y-39.3606
G01 X51.7960 Y-39.3416
G01 X51.8179 Y-39.3219
G01 X51.8249 Y-39.3149
G01 X51.8430 Y-39.2949
G01 X51.8476 Y-39.2892
G01 X51.8650 Y-39.2654
G01 X51.8803 Y-39.2403
G01 X51.8849 Y-39.2316
G01 X51.8974 Y-39.2049
G01 X51.9089 Y-39.1726
G01 X51.9173 Y-39.1393
G01 X51.9225 Y-39.1029
G01 X51.9240 Y-39.0710
G01 X51.9240 Y-38.4460
G01 X51.9225 Y-38.4141
G01 X51.9173 Y-38.3777
G01 X51.9102 Y-38.3491
G01 X51.9074 Y-38.3397
G01 X51.8974 Y-38.3121
G01 X51.8849 Y-38.2854
G01 X51.8803 Y-38.2767
G01 X51.8636 Y-38.2495
G01 X51.8446 Y-38.2240
G01 X51.8249 Y-38.2021
G01 X51.8179 Y-38.1951
G01 X51.7960 Y-38.1754
G01 X51.7725 Y-38.1578
G01 X51.7664 Y-38.1536
G01 X51.7433 Y-38.1397
G01 X51.7346 Y-38.1351
G01 X51.7079 Y-38.1226
G01 X51.6756 Y-38.1111
G01 X51.6423 Y-38.1027
G01 X51.6132 Y-38.0983
G01 X51.6034 Y-38.0973
G01 X51.5740 Y-38.0960
G01 X50.3191 Y-38.0961
G01 X50.2897 Y-38.0977
G01 X50.2606 Y-38.1019
G01 X50.2509 Y-38.1038
G01 X50.2224 Y-38.1111
G01 X50.1901 Y-38.1226
G01 X50.1634 Y-38.1351
G01 X50.1547 Y-38.1397
G01 X50.1275 Y-38.1564
G01 X50.1020 Y-38.1754
G01 X50.0765 Y-38.1985
G01 X50.0534 Y-38.2240
G01 X50.0330 Y-38.2516
G01 X50.0153 Y-38.2810
G01 X50.0006 Y-38.3121
G01 X49.9891 Y-38.3444
G01 X49.9803 Y-38.3801
G01 X49.9757 Y-38.4117
G01 X49.9740 Y-38.4460
G01 X49.9740 Y-39.0710
G01 X49.9753 Y-39.1004
G01 X49.9763 Y-39.1102
G01 X49.9807 Y-39.1393
G01 X49.9878 Y-39.1679
G01 X49.9906 Y-39.1773
G01 X50.0006 Y-39.2049
G01 X50.0142 Y-39.2338
G01 X50.0304 Y-39.2613
G01 X50.0358 Y-39.2695
G01 X50.0534 Y-39.2930
G01 X50.0731 Y-39.3149
G01 X50.0801 Y-39.3219
G01 X50.1039 Y-39.3431
G01 X50.1296 Y-39.3620
G01 X50.1547 Y-39.3773
G01 X50.1612 Y-39.3808
G01 X50.1856 Y-39.3924
G01 X50.1946 Y-39.3961
G00 Z2.0000
G00 X50.1946 Y-36.4711
G01 F60.00
G01 Z-0.2000
G01 F300.00
G01 X50.2224 Y-36.4809
G01 X50.2557 Y-36.4893
G01 X50.2897 Y-36.4943
G01 X50.3215 Y-36.4960
G01 X51.5765 Y-36.4960
G01 X51.6083 Y-36.4943
G01 X51.6374 Y-36.4901
G01 X51.6471 Y-36.4882
G01 X51.6756 Y-36.4809
G01 X51.7079 Y-36.4694
G01 X51.7346 Y-36.4569
G01 X51.7433 Y-36.4523
G01 X51.7705 Y-36.4356
G01 X51.7960 Y-36.4166
G01 X51.8179 Y-36.3969
G01 X51.8249 Y-36.3899
G01 X51.8430 Y-36.3699
G01 X51.8476 Y-36.3642
G01 X51.8650 Y-36.3404
G01 X51.8803 Y-36.3153
G01 X51.8849 Y-36.3066
G01 X51.8974 Y-36.2799
G01 X51.9089 Y-36.2476
G01 X51.9173 Y-36.2143
G01 X51.9225 Y-36.1779
G01 X51.9240 Y-36.1460
G01 X51.9240 Y-35.5210
G01 X51.9225 Y-35.4891
G01 X51.9173 Y-35.4527
G01 X51.9102 Y-35.4241
G01 X51.9074 Y-35.4147
G01 X51.8974 Y-35.3871
G01 X51.8849 Y-35.3604
G01 X51.8803 Y-35.3517
G01 X51.8636 Y-35.3245
G01 X51.8446 Y-35.2990
G01 X51.8249 Y-35.2771
G01 X51.8179 Y-35.2701
G01 X51.7960 Y-35.2504
G01 X51.7725 Y-35.2328
G01 X51.7664 Y-35.2286
G01 X51.7433 Y-35.2147
G01 X51.7346 Y-35.2101
G01 X51.7079 Y-35.1976
G01 X51.6756 Y-35.1861
G01 X51.6423 Y-35.1777
G01 X51.6132 Y-35.1733
G01 X51.6034 Y-35.1723
G01 X51.5740 Y-35.1710
G01 X50.3191 Y-35.1711
G01 X50.2897 Y-35.1727
G01 X50.2606 Y-35.1769
G01 X50.2509 Y-35.1788
G01 X50.2224 Y-35.1861
G01 X50.1901 Y-35.1976
G01 X50.1634 Y-35.2101
G01 X50.1547 Y-35.2147
G01 X50.1275 Y-35.2314
G01 X50.1020 Y-35.2504
G01 X50.0765 Y-35.2735
G01 X50.0534 Y-35.2990
G01 X50.0330 Y-35.3266
G01 X50.0153 Y-35.3560
G01 X50.0006 Y-35.3871
G01 X49.9891 Y-35.4194
G01 X49.9803 Y-35.4551
G01 X49.9757 Y-35.4867
G01 X49.9740 Y-35.5210
G01 X49.9740 Y-36.1460
G01 X49.9753 Y-36.1754
G01 X49.9763 Y-36.1852
G01 X49.9807 Y-36.2143
G01 X49.9878 Y-36.2429
G01 X49.9906 Y-36.2523
G01 X50.0006 Y-36.2799
G01 X50.0142 Y-36.3088
G01 X50.0304 Y-36.3363
G01 X50.0358 Y-36.3445
G01 X50.0534 Y-36.3680
G01 X50.0731 Y-36.3899
G01 X50.0801 Y-36.3969
G01 X50.1039 Y-36.4181
G01 X50.1296 Y-36.4370
G01 X50.1547 Y-36.4523
G01 X50.1612 Y-36.4558
G01 X50.1856 Y-36.4674
G01 X50.1946 Y-36.4711
G00 Z2.0000
G00 X64.5720 Y-49.6250
G01 F60.00
G01 Z-0.2000
G01 F300.00
G01 X64.5720 Y-50.8750
G01 X64.5733 Y-50.9044
G01 X64.5740 Y-50.9117
G01 X64.5779 Y-50.9384
G01 X64.5798 Y-50.9481
G01 X64.5871 Y-50.9766
G01 X64.5986 Y-51.0089
G01 X64.6133 Y-51.0400
G01 X64.6284 Y-51.0653
G01 X64.6338 Y-51.0735
G01 X64.6530 Y-51.0989
G01 X64.6745 Y-51.1225
G01 X64.6962 Y-51.1423
G01 X64.7038 Y-51.1486
G01 X64.7276 Y-51.1660
G01 X64.7527 Y-51.1813
G01 X64.7592 Y-51.1848
G01 X64.7836 Y-51.1964
G01 X64.7926 Y-51.2001
G01 X64.8204 Y-51.2099
G01 X64.8537 Y-51.2183
G01 X64.8877 Y-51.2233
G01 X64.9195 Y-51.2250
G01 X65.6720 Y-51.2250
G01 X65.7039 Y-51.2235
G01 X65.7354 Y-51.2191
G01 X65.7451 Y-51.2172
G01 X65.7736 Y-51.2099
G01 X65.8059 Y-51.1984
G01 X65.8370 Y-51.1837
G01 X65.8623 Y-51.1686
G01 X65.8705 Y-51.1632
G01 X65.8959 Y-51.1440
G01 X65.9195 Y-51.1225
G01 X65.9393 Y-51.1008
G01 X65.9456 Y-51.0932
G01 X65.9630 Y-51.0694
G01 X65.9783 Y-51.0443
G01 X65.9818 Y-51.0378
G01 X65.9934 Y-51.0134
G01 X65.9971 Y-51.0044
G01 X66.0069 Y-50.9766
G01 X66.0153 Y-50.9433
G01 X66.0203 Y-50.9093
G01 X66.0220 Y-50.8775
G01 X66.0220 Y-49.6250
G01 X66.0207 Y-49.5956
G01 X66.0200 Y-49.5883
G01 X66.0161 Y-49.5616
G01 X66.0142 Y-49.5519
G01 X66.0069 Y-49.5234
G01 X65.9954 Y-49.4911
G01 X65.9807 Y-49.4600
G01 X65.9656 Y-49.4347
G01 X65.9602 Y-49.4265
G01 X65.9410 Y-49.4011
G01 X65.9195 Y-49.3775
G01 X65.8940 Y-49.3544
G01 X65.8664 Y-49.3340
G01 X65.8370 Y-49.3163
G01 X65.8059 Y-49.3016
G01 X65.7736 Y-49.2901
G01 X65.7403 Y-49.2817
G01 X65.7063 Y-49.2767
G01 X65.6720 Y-49.2750
G01 X64.9220 Y-49.2750
G01 X64.8877 Y-49.2767
G01 X64.8561 Y-49.2813
G01 X64.8204 Y-49.2901
G01 X64.7926 Y-49.2999
G01 X64.7858 Y-49.3026
G01 X64.7614 Y-49.3141
G01 X64.7527 Y-49.3187
G01 X64.7276 Y-49.3340
G01 X64.7000 Y-49.3544
G01 X64.6745 Y-49.3775
G01 X64.6514 Y-49.4030
G01 X64.6310 Y-49.4306
G01 X64.6133 Y-49.4600
G01 X64.5986 Y-49.4911
G01 X64.5886 Y-49.5187
G01 X64.5864 Y-49.5258
G01 X64.5798 Y-49.5519
G01 X64.5779 Y-49.5616
G01 X64.5737 Y-49.5907
G01 X64.5720 Y-49.6250
G00 Z2.0000
G00 X67.3720 Y-49.6250
G01 F60.00
G01 Z-0.2000
G01 F300.00
G01 X67.3720 Y-50.8750
G01 X67.3733 Y-50.9044
G01 X67.3740 Y-50.9117
G01 X67.3779 Y-50.9384
G01 X67.3798 Y-50.9481
G01 X67.3871 Y-50.9766
G01 X67.3986 Y-51.0089
G01 X67.4133 Y-51.0400
G01 X67.4284 Y-51.0653
G01 X67.4338 Y-51.0735
G01 X67.4530 Y-51.0989
G01 X67.4745 Y-51.1225
G01 X67.4962 Y-51.1423
G01 X67.5038 Y-51.1486
G01 X67.5276 Y-51.1660
G01 X67.5527 Y-51.1813
G01 X67.5592 Y-51.1848
G01 X67.5836 Y-51.1964
G01 X67.5926 Y-51.2001
G01 X67.6204 Y-51.2099
G01 X67.6537 Y-51.2183
G01 X67.6877 Y-51.2233
G01 X67.7195 Y-51.2250
G01 X68.4720 Y-51.2250
G01 X68.5039 Y-51.2235
G01 X68.5354 Y-51.2191
G01 X68.5451 Y-51.2172
G01 X68.5736 Y-51.2099
G01 X68.6059 Y-51.1984
G01 X68.6370 Y-51.1837
G01 X68.6623 Y-51.1686
G01 X68.6705 Y-51.1632
G01 X68.6959 Y-51.1440
G01 X68.7195 Y-51.1225
G01 X68.7393 Y-51.1008
G01 X68.7456 Y-51.0932
G01 X68.7630 Y-51.0694
G01 X68.7783 Y-51.0443
G01 X68.7818 Y-51.0378
G01 X68.7934 Y-51.0134
G01 X68.7971 Y-51.0044
G01 X68.8069 Y-50.9766
G01 X68.8153 Y-50.9433
G01 X68.8203 Y-50.9093
G01 X68.8220 Y-50.8775
G01 X68.8220 Y-49.6250
G01 X68.8207 Y-49.5956
G01 X68.8200 Y-49.5883
G01 X68.8161 Y-49.5616
G01 X68.8142 Y-49.5519
G01 X68.8069 Y-49.5234
G01 X68.7954 Y-49.4911
G01 X68.7807 Y-49.4600
G01 X68.7656 Y-49.4347
G01 X68.7602 Y-49.4265
G01 X68.7410 Y-49.4011
G01 X68.7195 Y-49.3775
G01 X68.6940 Y-49.3544
G01 X68.6664 Y-49.3340
G01 X68.6370 Y-49.3163
G01 X68.6059 Y-49.3016
G01 X68.5736 Y-49.2901
G01 X68.5403 Y-49.2817
G01 X68.5063 Y-49.2767
G01 X68.4720 Y-49.2750
G01 X67.7220 Y-49.2750
G01 X67.6877 Y-49.2767
G01 X67.6561 Y-49.2813
G01 X67.6204 Y-49.2901
G01 X67.5926 Y-49.2999
G01 X67.5858 Y-49.3026
G01 X67.5614 Y-49.3141
G01 X67.5527 Y-49.3187
G01 X67.5276 Y-49.3340
G01 X67.5000 Y-49.3544
G01 X67.4745 Y-49.3775
G01 X67.4514 Y-49.4030
G01 X67.4310 Y-49.4306
G01 X67.4133 Y-49.4600
G01 X67.3986 Y-49.4911
G01 X67.3886 Y-49.5187
G01 X67.3864 Y-49.5258
G01 X67.3798 Y-49.5519
G01 X67.3779 Y-49.5616
G01 X67.3737 Y-49.5907
G01 X67.3720 Y-49.6250
G00 Z2.0000
G00 X71.8110 Y-49.6250
G01 F60.00
G01 Z-0.2000
G01 F300.00
G01 X71.8110 Y-50.8750
G01 X71.8123 Y-50.9044
G01 X71.8130 Y-50.9117
G01 X71.8169 Y-50.9384
G01 X71.8188 Y-50.9481
G01 X71.8261 Y-50.9766
G01 X71.8376 Y-51.0089
G01 X71.8501 Y-51.0356
G01 X71.8547 Y-51.0443
G01 X71.8700 Y-51.0694
G01 X71.8889 Y-51.0951
G01 X71.9135 Y-51.1225
G01 X71.9390 Y-51.1456
G01 X71.9666 Y-51.1660
G01 X71.9917 Y-51.1813
