(G-CODE GENERATED BY FLATCAM v8.994 - www.flatcam.org - Version Date: 2020/11/7)

(Name: bms test circuit-Edge_Cuts.gbr_cutout_cnc)
(Type: G-code from Geometry)
(Units: MM)

(Created on Wednesday, 10 July 2024 at 16:33)

(This preprocessor is the default preprocessor used by FlatCAM.)
(It is made to work with MACH3 compatible motion controllers.)

(TOOL DIAMETER: 2.0 mm)
(Feedrate_XY: 120.0 mm/min)
(Feedrate_Z: 60.0 mm/min)
(Feedrate rapids 1500.0 mm/min)

(Z_Cut: -2.0 mm)
(DepthPerCut: 0.6 mm <=>4 passes)
(Z_Move: 2.0 mm)
(Z Start: None mm)
(Z End: 15.0 mm)
(X,Y End: None mm)
(Steps per circle: 64)
(Preprocessor Geometry: default)

(X range:    7.2520 ...  104.0400  mm)
(Y range:  -60.3370 ...    0.3830  mm)

(Spindle Speed: 0.0 RPM)
G21
G90
G94

G01 F120.00

M5
G00 Z15.0000
G00 X0.0000 Y0.0000
T1
M6    
(MSG, Change to Tool Dia = 2.0000)
M0
G00 Z15.0000

M03
G01 F120.00
G00 X7.2520 Y-26.8770
G01 F60.00
G01 Z-0.6000
G01 F120.00
G01 X7.2520 Y-0.7670
G01 X7.2535 Y-0.7081
G01 X7.2641 Y-0.6007
G01 X7.2871 Y-0.4852
G01 X7.3201 Y-0.3773
G01 X7.3614 Y-0.2775
G01 X7.4144 Y-0.1779
G01 X7.4769 Y-0.0839
G01 X7.5516 Y0.0071
G01 X7.6279 Y0.0834
G01 X7.7150 Y0.1552
G01 X7.8129 Y0.2206
G01 X7.9125 Y0.2736
G01 X8.0123 Y0.3149
G01 X8.1202 Y0.3479
G01 X8.2357 Y0.3709
G01 X8.3431 Y0.3815
G01 X8.4020 Y0.3830
G01 X52.7460 Y0.3830
G00 X52.7460 Y0.3830
G01 F60.00
G01 Z-1.2000
G01 F120.00
G01 X8.4020 Y0.3830
G01 X8.3431 Y0.3815
G01 X8.2357 Y0.3709
G01 X8.1202 Y0.3479
G01 X8.0123 Y0.3149
G01 X7.9125 Y0.2736
G01 X7.8129 Y0.2206
G01 X7.7150 Y0.1552
G01 X7.6279 Y0.0834
G01 X7.5516 Y0.0071
G01 X7.4769 Y-0.0839
G01 X7.4144 Y-0.1779
G01 X7.3614 Y-0.2775
G01 X7.3201 Y-0.3773
G01 X7.2871 Y-0.4852
G01 X7.2641 Y-0.6007
G01 X7.2535 Y-0.7081
G01 X7.2520 Y-0.7670
G01 X7.2520 Y-26.8770
G00 X7.2520 Y-26.8770
G01 F60.00
G01 Z-1.8000
G01 F120.00
G01 X7.2520 Y-0.7670
G01 X7.2535 Y-0.7081
G01 X7.2641 Y-0.6007
G01 X7.2871 Y-0.4852
G01 X7.3201 Y-0.3773
G01 X7.3614 Y-0.2775
G01 X7.4144 Y-0.1779
G01 X7.4769 Y-0.0839
G01 X7.5516 Y0.0071
G01 X7.6279 Y0.0834
G01 X7.7150 Y0.1552
G01 X7.8129 Y0.2206
G01 X7.9125 Y0.2736
G01 X8.0123 Y0.3149
G01 X8.1202 Y0.3479
G01 X8.2357 Y0.3709
G01 X8.3431 Y0.3815
G01 X8.4020 Y0.3830
G01 X52.7460 Y0.3830
G00 X52.7460 Y0.3830
G01 F60.00
G01 Z-2.0000
G01 F120.00
G01 X8.4020 Y0.3830
G01 X8.3431 Y0.3815
G01 X8.2357 Y0.3709
G01 X8.1202 Y0.3479
G01 X8.0123 Y0.3149
G01 X7.9125 Y0.2736
G01 X7.8129 Y0.2206
G01 X7.7150 Y0.1552
G01 X7.6279 Y0.0834
G01 X7.5516 Y0.0071
G01 X7.4769 Y-0.0839
G01 X7.4144 Y-0.1779
G01 X7.3614 Y-0.2775
G01 X7.3201 Y-0.3773
G01 X7.2871 Y-0.4852
G01 X7.2641 Y-0.6007
G01 X7.2535 Y-0.7081
G01 X7.2520 Y-0.7670
G01 X7.2520 Y-26.8770
G00 Z2.0000
G00 X58.7460 Y0.3830
G01 F60.00
G01 Z-0.6000
G01 F120.00
G01 X102.8900 Y0.3830
G01 X102.9489 Y0.3815
G01 X103.0563 Y0.3709
G01 X103.1718 Y0.3479
G01 X103.2797 Y0.3149
G01 X103.3795 Y0.2736
G01 X103.4833 Y0.2181
G01 X103.5770 Y0.1552
G01 X103.6641 Y0.0834
G01 X103.7404 Y0.0071
G01 X103.8122 Y-0.0800
G01 X103.8776 Y-0.1779
G01 X103.9306 Y-0.2775
G01 X103.9719 Y-0.3773
G01 X104.0049 Y-0.4852
G01 X104.0279 Y-0.6007
G01 X104.0385 Y-0.7081
G01 X104.0400 Y-0.7670
G01 X104.0400 Y-26.8770
G00 X104.0400 Y-26.8770
G01 F60.00
G01 Z-1.2000
G01 F120.00
G01 X104.0400 Y-0.7670
G01 X104.0385 Y-0.7081
G01 X104.0279 Y-0.6007
G01 X104.0049 Y-0.4852
G01 X103.9719 Y-0.3773
G01 X103.9306 Y-0.2775
G01 X103.8776 Y-0.1779
G01 X103.8122 Y-0.0800
G01 X103.7404 Y0.0071
G01 X103.6641 Y0.0834
G01 X103.5770 Y0.1552
G01 X103.4833 Y0.2181
G01 X103.3795 Y0.2736
G01 X103.2797 Y0.3149
G01 X103.1718 Y0.3479
G01 X103.0563 Y0.3709
G01 X102.9489 Y0.3815
G01 X102.8900 Y0.3830
G01 X58.7460 Y0.3830
G00 X58.7460 Y0.3830
G01 F60.00
G01 Z-1.8000
G01 F120.00
G01 X102.8900 Y0.3830
G01 X102.9489 Y0.3815
G01 X103.0563 Y0.3709
G01 X103.1718 Y0.3479
G01 X103.2797 Y0.3149
G01 X103.3795 Y0.2736
G01 X103.4833 Y0.2181
G01 X103.5770 Y0.1552
G01 X103.6641 Y0.0834
G01 X103.7404 Y0.0071
G01 X103.8122 Y-0.0800
G01 X103.8776 Y-0.1779
G01 X103.9306 Y-0.2775
G01 X103.9719 Y-0.3773
G01 X104.0049 Y-0.4852
G01 X104.0279 Y-0.6007
G01 X104.0385 Y-0.7081
G01 X104.0400 Y-0.7670
G01 X104.0400 Y-26.8770
G00 X104.0400 Y-26.8770
G01 F60.00
G01 Z-2.0000
G01 F120.00
G01 X104.0400 Y-0.7670
G01 X104.0385 Y-0.7081
G01 X104.0279 Y-0.6007
G01 X104.0049 Y-0.4852
G01 X103.9719 Y-0.3773
G01 X103.9306 Y-0.2775
G01 X103.8776 Y-0.1779
G01 X103.8122 Y-0.0800
G01 X103.7404 Y0.0071
G01 X103.6641 Y0.0834
G01 X103.5770 Y0.1552
G01 X103.4833 Y0.2181
G01 X103.3795 Y0.2736
G01 X103.2797 Y0.3149
G01 X103.1718 Y0.3479
G01 X103.0563 Y0.3709
G01 X102.9489 Y0.3815
G01 X102.8900 Y0.3830
G01 X58.7460 Y0.3830
G00 Z2.0000
G00 X104.0400 Y-32.8770
G01 F60.00
G01 Z-0.6000
G01 F120.00
G01 X104.0400 Y-59.1870
G01 X104.0385 Y-59.2459
G01 X104.0279 Y-59.3533
G01 X104.0049 Y-59.4688
G01 X103.9719 Y-59.5767
G01 X103.9306 Y-59.6765
G01 X103.8776 Y-59.7761
G01 X103.8151 Y-59.8701
G01 X103.7404 Y-59.9611
G01 X103.6605 Y-60.0407
G01 X103.5731 Y-60.1121
G01 X103.4833 Y-60.1721
G01 X103.3795 Y-60.2276
G01 X103.2751 Y-60.2706
G01 X103.1718 Y-60.3019
G01 X103.0563 Y-60.3249
G01 X102.9489 Y-60.3355
G01 X102.8900 Y-60.3370
G01 X58.7460 Y-60.3370
G00 X58.7460 Y-60.3370
G01 F60.00
G01 Z-1.2000
G01 F120.00
G01 X102.8900 Y-60.3370
G01 X102.9489 Y-60.3355
G01 X103.0563 Y-60.3249
G01 X103.1718 Y-60.3019
G01 X103.2751 Y-60.2706
G01 X103.3795 Y-60.2276
G01 X103.4833 Y-60.1721
G01 X103.5731 Y-60.1121
G01 X103.6605 Y-60.0407
G01 X103.7404 Y-59.9611
G01 X103.8151 Y-59.8701
G01 X103.8776 Y-59.7761
G01 X103.9306 Y-59.6765
G01 X103.9719 Y-59.5767
G01 X104.0049 Y-59.4688
G01 X104.0279 Y-59.3533
G01 X104.0385 Y-59.2459
G01 X104.0400 Y-59.1870
G01 X104.0400 Y-32.8770
G00 X104.0400 Y-32.8770
G01 F60.00
G01 Z-1.8000
G01 F120.00
G01 X104.0400 Y-59.1870
G01 X104.0385 Y-59.2459
G01 X104.0279 Y-59.3533
G01 X104.0049 Y-59.4688
G01 X103.9719 Y-59.5767
G01 X103.9306 Y-59.6765
G01 X103.8776 Y-59.7761
G01 X103.8151 Y-59.8701
G01 X103.7404 Y-59.9611
G01 X103.6605 Y-60.0407
G01 X103.5731 Y-60.1121
G01 X103.4833 Y-60.1721
G01 X103.3795 Y-60.2276
G01 X103.2751 Y-60.2706
G01 X103.1718 Y-60.3019
G01 X103.0563 Y-60.3249
G01 X102.9489 Y-60.3355
G01 X102.8900 Y-60.3370
G01 X58.7460 Y-60.3370
G00 X58.7460 Y-60.3370
G01 F60.00
G01 Z-2.0000
G01 F120.00
G01 X102.8900 Y-60.3370
G01 X102.9489 Y-60.3355
G01 X103.0563 Y-60.3249
G01 X103.1718 Y-60.3019
G01 X103.2751 Y-60.2706
G01 X103.3795 Y-60.2276
G01 X103.4833 Y-60.1721
G01 X103.5731 Y-60.1121
G01 X103.6605 Y-60.0407
G01 X103.7404 Y-59.9611
G01 X103.8151 Y-59.8701
G01 X103.8776 Y-59.7761
G01 X103.9306 Y-59.6765
G01 X103.9719 Y-59.5767
G01 X104.0049 Y-59.4688
G01 X104.0279 Y-59.3533
G01 X104.0385 Y-59.2459
G01 X104.0400 Y-59.1870
G01 X104.0400 Y-32.8770
G00 Z2.0000
G00 X52.7460 Y-60.3370
G01 F60.00
G01 Z-0.6000
G01 F120.00
G01 X8.4020 Y-60.3370
G01 X8.3431 Y-60.3355
G01 X8.2357 Y-60.3249
G01 X8.1202 Y-60.3019
G01 X8.0169 Y-60.2706
G01 X7.9125 Y-60.2276
G01 X7.8087 Y-60.1721
G01 X7.7150 Y-60.1092
G01 X7.6315 Y-60.0407
G01 X7.5516 Y-59.9611
G01 X7.4769 Y-59.8701
G01 X7.4144 Y-59.7761
G01 X7.3635 Y-59.6809
G01 X7.3201 Y-59.5767
G01 X7.2871 Y-59.4688
G01 X7.2641 Y-59.3533
G01 X7.2535 Y-59.2459
G01 X7.2520 Y-59.1870
G01 X7.2520 Y-32.8770
G00 X7.2520 Y-32.8770
G01 F60.00
G01 Z-1.2000
G01 F120.00
G01 X7.2520 Y-59.1870
G01 X7.2535 Y-59.2459
G01 X7.2641 Y-59.3533
G01 X7.2871 Y-59.4688
G01 X7.3201 Y-59.5767
G01 X7.3635 Y-59.6809
G01 X7.4144 Y-59.7761
G01 X7.4769 Y-59.8701
G01 X7.5516 Y-59.9611
G01 X7.6315 Y-60.0407
G01 X7.7150 Y-60.1092
G01 X7.8087 Y-60.1721
G01 X7.9125 Y-60.2276
G01 X8.0169 Y-60.2706
G01 X8.1202 Y-60.3019
G01 X8.2357 Y-60.3249
G01 X8.3431 Y-60.3355
G01 X8.4020 Y-60.3370
G01 X52.7460 Y-60.3370
G00 X52.7460 Y-60.3370
G01 F60.00
G01 Z-1.8000
G01 F120.00
G01 X8.4020 Y-60.3370
G01 X8.3431 Y-60.3355
G01 X8.2357 Y-60.3249
G01 X8.1202 Y-60.3019
G01 X8.0169 Y-60.2706
G01 X7.9125 Y-60.2276
G01 X7.8087 Y-60.1721
G01 X7.7150 Y-60.1092
G01 X7.6315 Y-60.0407
G01 X7.5516 Y-59.9611
G01 X7.4769 Y-59.8701
G01 X7.4144 Y-59.7761
G01 X7.3635 Y-59.6809
G01 X7.3201 Y-59.5767
G01 X7.2871 Y-59.4688
G01 X7.2641 Y-59.3533
G01 X7.2535 Y-59.2459
G01 X7.2520 Y-59.1870
G01 X7.2520 Y-32.8770
G00 X7.2520 Y-32.8770
G01 F60.00
G01 Z-2.0000
G01 F120.00
G01 X7.2520 Y-59.1870
G01 X7.2535 Y-59.2459
G01 X7.2641 Y-59.3533
G01 X7.2871 Y-59.4688
G01 X7.3201 Y-59.5767
G01 X7.3635 Y-59.6809
G01 X7.4144 Y-59.7761
G01 X7.4769 Y-59.8701
G01 X7.5516 Y-59.9611
G01 X7.6315 Y-60.0407
G01 X7.7150 Y-60.1092
G01 X7.8087 Y-60.1721
G01 X7.9125 Y-60.2276
G01 X8.0169 Y-60.2706
G01 X8.1202 Y-60.3019
G01 X8.2357 Y-60.3249
G01 X8.3431 Y-60.3355
G01 X8.4020 Y-60.3370
G01 X52.7460 Y-60.3370
G00 Z2.0000
M05
G00 Z2.0000
G00 Z15.00


