(G-CODE GENERATED BY FLATCAM v8.994 - www.flatcam.org - Version Date: 2020/11/7)

(Name: bms test circuit-F_Cu.gbr_iso_combined_cnc)
(Type: G-code from Geometry)
(Units: MM)

(Created on Wednesday, 10 July 2024 at 16:52)

(This preprocessor is the default preprocessor used by FlatCAM.)
(It is made to work with MACH3 compatible motion controllers.)

(TOOL DIAMETER: 0.39 mm)
(Feedrate_XY: 120.0 mm/min)
(Feedrate_Z: 60.0 mm/min)
(Feedrate rapids 1500.0 mm/min)

(Z_Cut: -0.05 mm)
(Z_Move: 2.0 mm)
(Z Start: None mm)
(Z End: 15.0 mm)
(X,Y End: None mm)
(Steps per circle: 64)
(Preprocessor Geometry: default)

(X range:   11.8939 ...  101.4475  mm)
(Y range:  -59.5051 ...   -1.1920  mm)

(Spindle Speed: 8000.0 RPM)
G21
G90
G94

G01 F120.00

M5
G00 Z15.0000
G00 X0.0000 Y0.0000
T1
M6    
(MSG, Change to Tool Dia = 0.3900)
M0
G00 Z15.0000

M03 S8000.0
G01 F120.00
G00 X21.6910 Y-4.7198
G01 F60.00
G01 Z-0.0500
G01 F120.00
G01 X21.7434 Y-4.6445
G01 X21.6828 Y-4.5588
G01 X21.6858 Y-4.5889
G01 X21.6889 Y-4.6329
G01 X21.6905 Y-4.6749
G01 X21.6910 Y-4.7198
G00 Z2.0000
G00 X21.5870 Y-5.4060
G01 F60.00
G01 Z-0.0500
G01 F120.00
G01 X21.9307 Y-5.4059
G01 X21.9451 Y-5.4050
G01 X21.9594 Y-5.4031
G01 X21.9736 Y-5.4001
G01 X21.9875 Y-5.3960
G01 X21.9965 Y-5.3927
G01 X22.0098 Y-5.3870
G01 X22.0184 Y-5.3826
G01 X22.0309 Y-5.3753
G01 X22.0389 Y-5.3699
G01 X22.0503 Y-5.3611
G01 X22.0611 Y-5.3515
G01 X22.0679 Y-5.3446
G01 X22.0774 Y-5.3337
G01 X22.0861 Y-5.3222
G01 X22.1498 Y-5.2254
G01 X22.2153 Y-5.3255
G01 X22.2275 Y-5.3406
G01 X22.2410 Y-5.3544
G01 X22.2521 Y-5.3638
G01 X22.2638 Y-5.3724
G01 X22.2761 Y-5.3801
G01 X22.2889 Y-5.3869
G01 X22.3022 Y-5.3926
G01 X22.3160 Y-5.3974
G01 X22.3300 Y-5.4012
G01 X22.3442 Y-5.4038
G01 X22.3587 Y-5.4055
G01 X22.3732 Y-5.4060
G01 X22.7286 Y-5.4060
G01 X22.7381 Y-5.4058
G01 X22.7524 Y-5.4045
G01 X22.7712 Y-5.4013
G01 X22.7851 Y-5.3976
G01 X22.8030 Y-5.3912
G01 X22.8203 Y-5.3831
G01 X22.8367 Y-5.3733
G01 X22.8521 Y-5.3619
G01 X22.8662 Y-5.3491
G01 X22.8760 Y-5.3386
G01 X22.8850 Y-5.3274
G01 X22.8931 Y-5.3156
G01 X22.8980 Y-5.3075
G01 X22.9046 Y-5.2948
G01 X22.9103 Y-5.2816
G01 X22.9150 Y-5.2681
G01 X22.9187 Y-5.2542
G01 X22.9214 Y-5.2401
G01 X22.9230 Y-5.2259
G01 X22.9235 Y-5.2164
G01 X22.9233 Y-5.2020
G01 X22.9222 Y-5.1878
G01 X22.9199 Y-5.1736
G01 X22.9167 Y-5.1597
G01 X22.9124 Y-5.1460
G01 X22.9071 Y-5.1327
G01 X22.8986 Y-5.1156
G01 X22.8884 Y-5.0994
G01 X22.5622 Y-4.6320
G01 X22.8535 Y-4.2219
G01 X22.8614 Y-4.2099
G01 X22.8661 Y-4.2015
G01 X22.8705 Y-4.1930
G01 X22.8762 Y-4.1798
G01 X22.8809 Y-4.1662
G01 X22.8846 Y-4.1523
G01 X22.8873 Y-4.1382
G01 X22.8892 Y-4.1191
G01 X22.8894 Y-4.1047
G01 X22.8886 Y-4.0904
G01 X22.8867 Y-4.0761
G01 X22.8837 Y-4.0620
G01 X22.8798 Y-4.0482
G01 X22.8748 Y-4.0347
G01 X22.8688 Y-4.0216
G01 X22.8619 Y-4.0090
G01 X22.8513 Y-3.9931
G01 X22.8423 Y-3.9818
G01 X22.8326 Y-3.9713
G01 X22.8220 Y-3.9615
G01 X22.8108 Y-3.9525
G01 X22.7990 Y-3.9443
G01 X22.7866 Y-3.9371
G01 X22.7736 Y-3.9308
G01 X22.7603 Y-3.9254
G01 X22.7466 Y-3.9211
G01 X22.7326 Y-3.9177
G01 X22.7136 Y-3.9149
G01 X22.6945 Y-3.9140
G01 X22.3545 Y-3.9140
G01 X22.3402 Y-3.9145
G01 X22.3260 Y-3.9161
G01 X22.3166 Y-3.9177
G01 X22.3027 Y-3.9210
G01 X22.2890 Y-3.9253
G01 X22.2758 Y-3.9306
G01 X22.2629 Y-3.9368
G01 X22.2546 Y-3.9415
G01 X22.2426 Y-3.9493
G01 X22.2312 Y-3.9579
G01 X22.2170 Y-3.9707
G01 X22.2072 Y-3.9811
G01 X22.2012 Y-3.9885
G01 X22.1928 Y-4.0000
G01 X22.1546 Y-4.0566
G01 X22.1209 Y-4.0039
G01 X22.1128 Y-3.9922
G01 X22.1006 Y-3.9775
G01 X22.0871 Y-3.9641
G01 X22.0799 Y-3.9579
G01 X22.0685 Y-3.9492
G01 X22.0565 Y-3.9415
G01 X22.0482 Y-3.9368
G01 X22.0396 Y-3.9325
G01 X22.0265 Y-3.9269
G01 X22.0130 Y-3.9223
G01 X22.0038 Y-3.9198
G01 X21.9945 Y-3.9177
G01 X21.9804 Y-3.9154
G01 X21.9614 Y-3.9140
G01 X21.5939 Y-3.9142
G01 X21.5796 Y-3.9154
G01 X21.5654 Y-3.9177
G01 X21.5514 Y-3.9211
G01 X21.5422 Y-3.9238
G01 X21.5288 Y-3.9288
G01 X21.5157 Y-3.9348
G01 X21.5031 Y-3.9418
G01 X21.4911 Y-3.9496
G01 X21.4796 Y-3.9583
G01 X21.4689 Y-3.9678
G01 X21.4589 Y-3.9781
G01 X21.4496 Y-3.9891
G01 X21.4412 Y-4.0008
G01 X21.4337 Y-4.0130
G01 X21.4271 Y-4.0258
G01 X21.4222 Y-4.0371
G01 X21.4085 Y-4.0264
G01 X21.3783 Y-4.0048
G01 X21.3519 Y-3.9880
G01 X21.3205 Y-3.9703
G01 X21.2862 Y-3.9535
G01 X21.2571 Y-3.9412
G01 X21.2469 Y-3.9373
G01 X21.2119 Y-3.9252
G01 X21.1813 Y-3.9162
G01 X21.1450 Y-3.9075
G01 X21.1081 Y-3.9007
G01 X21.0708 Y-3.8957
G01 X21.0307 Y-3.8922
G01 X20.9968 Y-3.8908
G01 X20.9711 Y-3.8906
G01 X20.9352 Y-3.8916
G01 X20.9042 Y-3.8938
G01 X20.8689 Y-3.8979
G01 X20.8341 Y-3.9038
G01 X20.7996 Y-3.9115
G01 X20.7656 Y-3.9209
G01 X20.7323 Y-3.9322
G01 X20.6996 Y-3.9452
G01 X20.6677 Y-3.9600
G01 X20.6366 Y-3.9765
G01 X20.6065 Y-3.9947
G01 X20.5774 Y-4.0146
G01 X20.5534 Y-4.0328
G01 X20.5225 Y-4.0588
G01 X20.5001 Y-4.0797
G01 X20.4752 Y-4.1053
G01 X20.4594 Y-4.1231
G01 X20.4594 Y-3.6869
G01 X20.4589 Y-3.6726
G01 X20.4573 Y-3.6583
G01 X20.4546 Y-3.6442
G01 X20.4495 Y-3.6258
G01 X20.4445 Y-3.6123
G01 X20.4386 Y-3.5992
G01 X20.4316 Y-3.5867
G01 X20.4238 Y-3.5746
G01 X20.4151 Y-3.5632
G01 X20.4023 Y-3.5490
G01 X20.3881 Y-3.5362
G01 X20.3767 Y-3.5275
G01 X20.3605 Y-3.5173
G01 X20.3434 Y-3.5087
G01 X20.3301 Y-3.5033
G01 X20.3118 Y-3.4978
G01 X20.2930 Y-3.4940
G01 X20.2787 Y-3.4925
G01 X20.2644 Y-3.4919
G01 X19.9746 Y-3.4919
G01 X19.9555 Y-3.4929
G01 X19.9365 Y-3.4957
G01 X19.9226 Y-3.4990
G01 X19.9089 Y-3.5033
G01 X19.8956 Y-3.5087
G01 X19.8785 Y-3.5173
G01 X19.8663 Y-3.5248
G01 X19.8546 Y-3.5332
G01 X19.8436 Y-3.5424
G01 X19.8334 Y-3.5525
G01 X19.8239 Y-3.5632
G01 X19.8125 Y-3.5786
G01 X19.8049 Y-3.5908
G01 X19.7983 Y-3.6036
G01 X19.7927 Y-3.6167
G01 X19.7880 Y-3.6303
G01 X19.7843 Y-3.6442
G01 X19.7817 Y-3.6583
G01 X19.7801 Y-3.6726
G01 X19.7796 Y-3.6869
G01 X19.7796 Y-4.5714
G01 X19.4000 Y-3.6150
G01 X19.3943 Y-3.6020
G01 X19.3852 Y-3.5853
G01 X19.3745 Y-3.5696
G01 X19.3656 Y-3.5585
G01 X19.3558 Y-3.5482
G01 X19.3417 Y-3.5355
G01 X19.3263 Y-3.5243
G01 X19.3100 Y-3.5146
G01 X19.2928 Y-3.5065
G01 X19.2795 Y-3.5016
G01 X19.2612 Y-3.4966
G01 X19.2425 Y-3.4934
G01 X19.2283 Y-3.4922
G01 X19.2188 Y-3.4919
G01 X18.8964 Y-3.4919
G01 X18.8820 Y-3.4925
G01 X18.8725 Y-3.4934
G01 X18.8583 Y-3.4957
G01 X18.8490 Y-3.4978
G01 X18.8307 Y-3.5033
G01 X18.8218 Y-3.5068
G01 X18.8087 Y-3.5127
G01 X18.8003 Y-3.5172
G01 X18.7881 Y-3.5248
G01 X18.7764 Y-3.5332
G01 X18.7690 Y-3.5392
G01 X18.7585 Y-3.5490
G01 X18.7519 Y-3.5559
G01 X18.7398 Y-3.5707
G01 X18.7343 Y-3.5786
G01 X18.7267 Y-3.5908
G01 X18.7181 Y-3.6079
G01 X18.1261 Y-5.1408
G01 X18.1214 Y-5.1543
G01 X18.1177 Y-5.1682
G01 X18.1145 Y-5.1871
G01 X18.1132 Y-5.2014
G01 X18.1132 Y-5.2205
G01 X18.1145 Y-5.2348
G01 X18.1167 Y-5.2490
G01 X18.1201 Y-5.2630
G01 X18.1244 Y-5.2767
G01 X18.1297 Y-5.2900
G01 X18.1360 Y-5.3029
G01 X18.1432 Y-5.3153
G01 X18.1514 Y-5.3271
G01 X18.1603 Y-5.3384
G01 X18.1735 Y-5.3522
G01 X18.1843 Y-5.3617
G01 X18.1957 Y-5.3704
G01 X18.2077 Y-5.3782
G01 X18.2246 Y-5.3873
G01 X18.2378 Y-5.3929
G01 X18.2514 Y-5.3976
G01 X18.2700 Y-5.4023
G01 X18.2889 Y-5.4051
G01 X18.3032 Y-5.4059
G01 X18.6315 Y-5.4060
G01 X18.6411 Y-5.4058
G01 X18.6554 Y-5.4045
G01 X18.6743 Y-5.4012
G01 X18.6882 Y-5.3976
G01 X18.6974 Y-5.3945
G01 X18.7151 Y-5.3872
G01 X18.7278 Y-5.3805
G01 X18.7361 Y-5.3756
G01 X18.7517 Y-5.3645
G01 X18.7662 Y-5.3520
G01 X18.7730 Y-5.3452
G01 X18.7825 Y-5.3344
G01 X18.7939 Y-5.3189
G01 X18.8037 Y-5.3024
G01 X18.8080 Y-5.2938
G01 X18.8137 Y-5.2806
G01 X18.8939 Y-5.0543
G01 X19.2251 Y-5.0543
G01 X19.3113 Y-5.2840
G01 X19.3193 Y-5.3015
G01 X19.3240 Y-5.3099
G01 X19.3318 Y-5.3221
G01 X19.3436 Y-5.3374
G01 X19.3534 Y-5.3480
G01 X19.3603 Y-5.3547
G01 X19.3751 Y-5.3670
G01 X19.3911 Y-5.3778
G01 X19.4081 Y-5.3870
G01 X19.4259 Y-5.3944
G01 X19.4443 Y-5.4001
G01 X19.4633 Y-5.4039
G01 X19.4776 Y-5.4055
G01 X19.4921 Y-5.4060
G01 X19.8285 Y-5.4059
G01 X19.8476 Y-5.4045
G01 X19.8666 Y-5.4012
G01 X19.8851 Y-5.3961
G01 X19.8991 Y-5.3908
G01 X19.9134 Y-5.3962
G01 X19.9319 Y-5.4013
G01 X19.9507 Y-5.4045
G01 X19.9698 Y-5.4059
G01 X20.2644 Y-5.4060
G01 X20.2835 Y-5.4051
G01 X20.3024 Y-5.4023
G01 X20.3210 Y-5.3976
G01 X20.3390 Y-5.3912
G01 X20.3521 Y-5.3852
G01 X20.3687 Y-5.3757
G01 X20.3805 Y-5.3676
G01 X20.3953 Y-5.3555
G01 X20.4089 Y-5.3420
G01 X20.4181 Y-5.3310
G01 X20.4265 Y-5.3193
G01 X20.4364 Y-5.3029
G01 X20.4445 Y-5.2856
G01 X20.4495 Y-5.2722
G01 X20.4546 Y-5.2537
G01 X20.4573 Y-5.2396
G01 X20.4589 Y-5.2253
G01 X20.4594 Y-5.2059
G01 X20.4784 Y-5.2270
G01 X20.5045 Y-5.2527
G01 X20.5388 Y-5.2823
G01 X20.5646 Y-5.3018
G01 X20.5752 Y-5.3092
G01 X20.6060 Y-5.3291
G01 X20.6344 Y-5.3451
G01 X20.6455 Y-5.3509
G01 X20.6787 Y-5.3667
G01 X20.7136 Y-5.3809
G01 X20.7317 Y-5.3874
G01 X20.7514 Y-5.3938
G01 X20.7766 Y-5.4011
G01 X20.8117 Y-5.4097
G01 X20.8373 Y-5.4148
G01 X20.8738 Y-5.4207
G01 X20.8948 Y-5.4234
G01 X20.9160 Y-5.4256
G01 X20.9589 Y-5.4284
G01 X21.0024 Y-5.4294
G01 X21.0349 Y-5.4290
G01 X21.0567 Y-5.4281
G01 X21.0837 Y-5.4262
G01 X21.1166 Y-5.4229
G01 X21.1371 Y-5.4201
G01 X21.1633 Y-5.4158
G01 X21.1960 Y-5.4092
G01 X21.2150 Y-5.4047
G01 X21.2404 Y-5.3977
G01 X21.2691 Y-5.3887
G01 X21.2974 Y-5.3783
G01 X21.3181 Y-5.3698
G01 X21.3384 Y-5.3606
G01 X21.3654 Y-5.3470
G01 X21.3918 Y-5.3320
G01 X21.4106 Y-5.3204
G01 X21.4210 Y-5.3134
G01 X21.4278 Y-5.3237
G01 X21.4365 Y-5.3351
G01 X21.4428 Y-5.3423
G01 X21.4528 Y-5.3525
G01 X21.4635 Y-5.3620
G01 X21.4711 Y-5.3678
G01 X21.4829 Y-5.3759
G01 X21.4911 Y-5.3808
G01 X21.4995 Y-5.3853
G01 X21.5125 Y-5.3912
G01 X21.5260 Y-5.3962
G01 X21.5397 Y-5.4002
G01 X21.5490 Y-5.4023
G01 X21.5632 Y-5.4045
G01 X21.5774 Y-5.4058
G01 X21.5870 Y-5.4060
G00 Z2.0000
G00 X22.9226 Y-4.6296
G01 F60.00
G01 Z-0.0500
G01 F120.00
G01 X22.9199 Y-4.6335
G01 X22.9215 Y-4.6358
G01 X22.9226 Y-4.6296
G00 Z2.0000
G00 X23.9210 Y-4.7459
G01 F60.00
G01 Z-0.0500
G01 F120.00
G01 X23.9271 Y-4.7537
G01 X23.9311 Y-4.7577
G01 X23.9399 Y-4.7640
G01 X23.9510 Y-4.7695
G01 X23.9583 Y-4.7722
G01 X23.9679 Y-4.7750
G01 X23.9807 Y-4.7778
G01 X23.9888 Y-4.7790
G01 X24.0071 Y-4.7808
G01 X24.0286 Y-4.7815
G01 X24.0514 Y-4.7809
G01 X23.9857 Y-4.7630
G01 X23.9210 Y-4.7459
G00 Z2.0000
G00 X26.4251 Y-4.0256
G01 F60.00
G01 Z-0.0500
G01 F120.00
G01 X26.4008 Y-4.0080
G01 X26.3744 Y-3.9910
G01 X26.3647 Y-3.9851
G01 X26.3341 Y-3.9682
G01 X26.3040 Y-3.9535
G01 X26.2748 Y-3.9412
G01 X26.2646 Y-3.9373
G01 X26.2296 Y-3.9252
G01 X26.1990 Y-3.9162
G01 X26.1675 Y-3.9086
G01 X26.1211 Y-3.9000
G01 X26.0885 Y-3.8957
G01 X26.0550 Y-3.8927
G01 X26.0295 Y-3.8913
G01 X25.9888 Y-3.8906
G01 X25.9574 Y-3.8913
G01 X25.9219 Y-3.8938
G01 X25.8867 Y-3.8979
G01 X25.8567 Y-3.9029
G01 X25.8223 Y-3.9103
G01 X25.8124 Y-3.9128
G01 X25.7834 Y-3.9209
G01 X25.7550 Y-3.9304
G01 X25.7223 Y-3.9431
G01 X25.7124 Y-3.9474
G01 X25.6854 Y-3.9600
G01 X25.6543 Y-3.9765
G01 X25.6242 Y-3.9947
G01 X25.5994 Y-4.0116
G01 X25.5711 Y-4.0328
G01 X25.5612 Y-4.0409
G01 X25.5547 Y-4.0256
G01 X25.5481 Y-4.0129
G01 X25.5406 Y-4.0006
G01 X25.5322 Y-3.9890
G01 X25.5197 Y-3.9745
G01 X25.5094 Y-3.9645
G01 X25.4984 Y-3.9552
G01 X25.4868 Y-3.9468
G01 X25.4746 Y-3.9393
G01 X25.4618 Y-3.9327
G01 X25.4486 Y-3.9270
G01 X25.4351 Y-3.9224
G01 X25.4212 Y-3.9187
G01 X25.4071 Y-3.9161
G01 X25.3928 Y-3.9145
G01 X25.3756 Y-3.9140
G01 X25.3754 Y-3.7243
G01 X25.3735 Y-3.7052
G01 X25.3709 Y-3.6911
G01 X25.3658 Y-3.6727
G01 X25.3608 Y-3.6592
G01 X25.3548 Y-3.6462
G01 X25.3503 Y-3.6378
G01 X25.3428 Y-3.6255
G01 X25.3373 Y-3.6177
G01 X25.3283 Y-3.6065
G01 X25.3219 Y-3.5994
G01 X25.3152 Y-3.5927
G01 X25.3044 Y-3.5831
G01 X25.2930 Y-3.5745
G01 X25.2850 Y-3.5691
G01 X25.2768 Y-3.5642
G01 X25.2641 Y-3.5576
G01 X25.2509 Y-3.5519
G01 X25.2419 Y-3.5487
G01 X25.2281 Y-3.5447
G01 X25.2188 Y-3.5426
G01 X25.2047 Y-3.5403
G01 X25.1856 Y-3.5389
G01 X25.1665 Y-3.5393
G01 X25.1475 Y-3.5417
G01 X25.1288 Y-3.5458
G01 X25.1151 Y-3.5501
G01 X25.0975 Y-3.5574
G01 X25.0847 Y-3.5640
G01 X24.7942 Y-3.7282
G01 X24.7780 Y-3.7384
G01 X24.7665 Y-3.7471
G01 X24.7558 Y-3.7566
G01 X24.7457 Y-3.7669
G01 X24.7365 Y-3.7779
G01 X24.7280 Y-3.7895
G01 X24.7205 Y-3.8017
G01 X24.7139 Y-3.8145
G01 X24.7080 Y-3.8283
G01 X24.6933 Y-3.8014
G01 X24.6755 Y-3.7727
G01 X24.6563 Y-3.7450
G01 X24.6356 Y-3.7184
G01 X24.6135 Y-3.6929
G01 X24.5900 Y-3.6686
G01 X24.5661 Y-3.6463
G01 X24.5507 Y-3.6330
G01 X24.5236 Y-3.6117
G01 X24.4987 Y-3.5943
G01 X24.4892 Y-3.5881
G01 X24.4584 Y-3.5697
G01 X24.4321 Y-3.5556
G01 X24.3986 Y-3.5399
G01 X24.3649 Y-3.5262
G01 X24.3348 Y-3.5155
G01 X24.2952 Y-3.5035
G01 X24.2632 Y-3.4955
G01 X24.2390 Y-3.4901
G01 X24.2020 Y-3.4833
G01 X24.1643 Y-3.4778
G01 X24.1260 Y-3.4737
G01 X24.0869 Y-3.4707
G01 X24.0471 Y-3.4690
G01 X24.0060 Y-3.4685
G01 X23.9594 Y-3.4694
G01 X23.9305 Y-3.4708
G01 X23.8859 Y-3.4745
G01 X23.8619 Y-3.4773
G01 X23.8381 Y-3.4805
G01 X23.8098 Y-3.4852
G01 X23.7684 Y-3.4937
G01 X23.7404 Y-3.5007
G01 X23.7178 Y-3.5070
G01 X23.6955 Y-3.5140
G01 X23.6791 Y-3.5196
G01 X23.6575 Y-3.5276
G01 X23.6362 Y-3.5363
G01 X23.6152 Y-3.5456
G01 X23.5889 Y-3.5585
G01 X23.5688 Y-3.5693
G01 X23.5491 Y-3.5809
G01 X23.5357 Y-3.5892
G01 X23.5169 Y-3.6018
G01 X23.4928 Y-3.6194
G01 X23.4779 Y-3.6312
G01 X23.4607 Y-3.6459
G01 X23.4440 Y-3.6613
G01 X23.4306 Y-3.6746
G01 X23.4101 Y-3.6968
G01 X23.3978 Y-3.7111
G01 X23.3838 Y-3.7289
G01 X23.3704 Y-3.7472
G01 X23.3599 Y-3.7628
G01 X23.3503 Y-3.7780
G01 X23.3394 Y-3.7965
G01 X23.3299 Y-3.8138
G01 X23.3186 Y-3.8364
G01 X23.3036 Y-3.8705
G01 X23.2943 Y-3.8955
G01 X23.2830 Y-3.9312
G01 X23.2742 Y-3.9676
G01 X23.2692 Y-3.9938
G01 X23.2656 Y-4.0203
G01 X23.2624 Y-4.0575
G01 X23.2616 Y-4.0943
G01 X23.2623 Y-4.1216
G01 X23.2647 Y-4.1534
G01 X23.2695 Y-4.1902
G01 X23.2743 Y-4.2165
G01 X23.2803 Y-4.2423
G01 X23.2906 Y-4.2781
G01 X23.3034 Y-4.3131
G01 X23.3137 Y-4.3375
G01 X23.3252 Y-4.3614
G01 X23.3431 Y-4.3941
G01 X23.3601 Y-4.4210
G01 X23.3816 Y-4.4511
G01 X23.3983 Y-4.4722
G01 X23.4162 Y-4.4927
G01 X23.4420 Y-4.5198
G01 X23.3818 Y-4.5246
G01 X23.3676 Y-4.5267
G01 X23.3536 Y-4.5297
G01 X23.3398 Y-4.5338
G01 X23.3308 Y-4.5370
G01 X23.3177 Y-4.5427
G01 X23.3050 Y-4.5494
G01 X23.2928 Y-4.5570
G01 X23.2812 Y-4.5655
G01 X23.2668 Y-4.5780
G01 X23.2568 Y-4.5883
G01 X23.2476 Y-4.5994
G01 X23.2393 Y-4.6110
G01 X23.2318 Y-4.6233
G01 X23.2253 Y-4.6360
G01 X23.2197 Y-4.6493
G01 X23.2151 Y-4.6628
G01 X23.2126 Y-4.6721
G01 X23.2097 Y-4.6861
G01 X23.2083 Y-4.6956
G01 X23.2071 Y-4.7099
G01 X23.2070 Y-4.7242
G01 X23.2080 Y-4.7385
G01 X23.2105 Y-4.7590
G01 X23.2168 Y-4.7998
G01 X23.2232 Y-4.8330
G01 X23.2271 Y-4.8512
G01 X23.2366 Y-4.8889
G01 X23.2470 Y-4.9240
G01 X23.2574 Y-4.9543
G01 X23.2739 Y-4.9962
G01 X23.2869 Y-5.0250
G01 X23.3031 Y-5.0570
G01 X23.3209 Y-5.0881
G01 X23.3374 Y-5.1139
G01 X23.3579 Y-5.1430
G01 X23.3641 Y-5.1512
G01 X23.3832 Y-5.1750
G01 X23.4069 Y-5.2016
G01 X23.4320 Y-5.2269
G01 X23.4545 Y-5.2474
G01 X23.4629 Y-5.2546
G01 X23.4870 Y-5.2739
G01 X23.5212 Y-5.2982
G01 X23.5475 Y-5.3149
G01 X23.5794 Y-5.3329
G01 X23.6169 Y-5.3512
G01 X23.6462 Y-5.3638
G01 X23.6809 Y-5.3769
G01 X23.7163 Y-5.3884
G01 X23.7485 Y-5.3973
G01 X23.7690 Y-5.4023
G01 X23.7914 Y-5.4072
G01 X23.8253 Y-5.4136
G01 X23.8480 Y-5.4172
G01 X23.8831 Y-5.4217
G01 X23.9225 Y-5.4255
G01 X23.9456 Y-5.4271
G01 X23.9859 Y-5.4289
G01 X24.0241 Y-5.4294
G01 X24.0551 Y-5.4292
G01 X24.1060 Y-5.4273
G01 X24.1327 Y-5.4256
G01 X24.1590 Y-5.4233
G01 X24.1850 Y-5.4205
G01 X24.2152 Y-5.4165
G01 X24.2408 Y-5.4125
G01 X24.2610 Y-5.4088
G01 X24.2857 Y-5.4038
G01 X24.3100 Y-5.3981
G01 X24.3394 Y-5.3903
G01 X24.3632 Y-5.3832
G01 X24.3867 Y-5.3754
G01 X24.4098 Y-5.3669
G01 X24.4266 Y-5.3602
G01 X24.4488 Y-5.3505
G01 X24.4708 Y-5.3401
G01 X24.4923 Y-5.3289
G01 X24.5133 Y-5.3170
G01 X24.5370 Y-5.3023
G01 X24.5571 Y-5.2887
G01 X24.5766 Y-5.2743
G01 X24.5926 Y-5.2616
G01 X24.6139 Y-5.2434
G01 X24.6316 Y-5.2269
G01 X24.6486 Y-5.2097
G01 X24.6649 Y-5.1918
G01 X24.6805 Y-5.1733
G01 X24.6954 Y-5.1541
G01 X24.7095 Y-5.1345
G01 X24.7206 Y-5.1177
G01 X24.7270 Y-5.1391
G01 X24.7377 Y-5.1689
G01 X24.7471 Y-5.1909
G01 X24.7569 Y-5.2107
G01 X24.7630 Y-5.2220
G01 X24.7740 Y-5.2397
G01 X24.7808 Y-5.2500
G01 X24.7876 Y-5.2594
G01 X24.8006 Y-5.2755
G01 X24.8071 Y-5.2831
G01 X24.8139 Y-5.2903
G01 X24.8292 Y-5.3057
G01 X24.8361 Y-5.3119
G01 X24.8572 Y-5.3295
G01 X24.8816 Y-5.3469
G01 X24.9062 Y-5.3621
G01 X24.9351 Y-5.3772
G01 X24.9552 Y-5.3865
G01 X24.9864 Y-5.3986
G01 X25.0130 Y-5.4072
G01 X25.0350 Y-5.4132
G01 X25.0575 Y-5.4182
G01 X25.0673 Y-5.4201
G01 X25.0947 Y-5.4244
G01 X25.1177 Y-5.4269
G01 X25.1412 Y-5.4286
G01 X25.1755 Y-5.4294
G01 X25.2145 Y-5.4286
G01 X25.2491 Y-5.4266
G01 X25.2681 Y-5.4250
G01 X25.3058 Y-5.4205
G01 X25.3392 Y-5.4150
G01 X25.3603 Y-5.4109
G01 X25.3876 Y-5.4047
G01 X25.4216 Y-5.3954
G01 X25.4448 Y-5.3881
G01 X25.4675 Y-5.3801
G01 X25.4852 Y-5.3728
G01 X25.5022 Y-5.3638
G01 X25.5142 Y-5.3560
G01 X25.5220 Y-5.3503
G01 X25.5294 Y-5.3442
G01 X25.5399 Y-5.3344
G01 X25.5498 Y-5.3239
G01 X25.5559 Y-5.3165
G01 X25.5643 Y-5.3049
G01 X25.5713 Y-5.2935
G01 X25.5898 Y-5.3071
G01 X25.6237 Y-5.3291
G01 X25.6595 Y-5.3491
G01 X25.6927 Y-5.3651
G01 X25.7313 Y-5.3809
G01 X25.7549 Y-5.3892
G01 X25.7745 Y-5.3954
G01 X25.7943 Y-5.4011
G01 X25.8144 Y-5.4062
G01 X25.8346 Y-5.4108
G01 X25.8707 Y-5.4176
G01 X25.8915 Y-5.4207
G01 X25.9126 Y-5.4234
G01 X25.9338 Y-5.4256
G01 X25.9551 Y-5.4272
G01 X25.9983 Y-5.4292
G01 X26.0202 Y-5.4294
G01 X26.0471 Y-5.4291
G01 X26.0801 Y-5.4277
G01 X26.1015 Y-5.4262
G01 X26.1282 Y-5.4236
G01 X26.1611 Y-5.4192
G01 X26.1876 Y-5.4146
G01 X26.2138 Y-5.4092
G01 X26.2327 Y-5.4047
G01 X26.2581 Y-5.3977
G01 X26.2903 Y-5.3874
G01 X26.3115 Y-5.3797
G01 X26.3359 Y-5.3698
G01 X26.3597 Y-5.3589
G01 X26.3795 Y-5.3489
G01 X26.4060 Y-5.3342
G01 X26.4283 Y-5.3204
G01 X26.4466 Y-5.3081
G01 X26.4740 Y-5.2877
G01 X26.4909 Y-5.2739
G01 X26.5104 Y-5.2568
G01 X26.5291 Y-5.2388
G01 X26.5442 Y-5.2230
G01 X26.5667 Y-5.1974
G01 X26.5804 Y-5.1804
G01 X26.5959 Y-5.1595
G01 X26.6110 Y-5.1374
G01 X26.6224 Y-5.1192
G01 X26.6390 Y-5.0901
G01 X26.6510 Y-5.0669
G01 X26.6592 Y-5.0497
G01 X26.6698 Y-5.0255
G01 X26.6783 Y-5.0043
G01 X26.7630 Y-5.2740
G01 X26.7663 Y-5.2829
G01 X26.7721 Y-5.2959
G01 X26.7811 Y-5.3126
G01 X26.7863 Y-5.3206
G01 X26.7947 Y-5.3320
G01 X26.8072 Y-5.3463
G01 X26.8210 Y-5.3594
G01 X26.8322 Y-5.3682
G01 X26.8400 Y-5.3736
G01 X26.8481 Y-5.3787
G01 X26.8606 Y-5.3855
G01 X26.8735 Y-5.3914
G01 X26.8824 Y-5.3948
G01 X26.9006 Y-5.4002
G01 X26.9099 Y-5.4023
G01 X26.9239 Y-5.4046
G01 X26.9334 Y-5.4055
G01 X26.9476 Y-5.4060
G01 X27.2337 Y-5.4059
G01 X27.2432 Y-5.4055
G01 X27.2574 Y-5.4039
G01 X27.2714 Y-5.4013
G01 X27.2806 Y-5.3990
G01 X27.2942 Y-5.3948
G01 X27.3030 Y-5.3914
G01 X27.3160 Y-5.3855
G01 X27.3285 Y-5.3787
G01 X27.3405 Y-5.3710
G01 X27.3481 Y-5.3653
G01 X27.3591 Y-5.3562
G01 X27.3660 Y-5.3497
G01 X27.3758 Y-5.3394
G01 X27.3818 Y-5.3321
G01 X27.3876 Y-5.3245
G01 X27.3954 Y-5.3126
G01 X27.4024 Y-5.3002
G01 X27.4065 Y-5.2916
G01 X27.4119 Y-5.2784
G01 X27.4160 Y-5.2662
G01 X27.4205 Y-5.2795
G01 X27.4260 Y-5.2929
G01 X27.4326 Y-5.3058
G01 X27.4375 Y-5.3141
G01 X27.4428 Y-5.3221
G01 X27.4515 Y-5.3337
G01 X27.4610 Y-5.3446
G01 X27.4678 Y-5.3515
G01 X27.4785 Y-5.3611
G01 X27.4861 Y-5.3671
G01 X27.4980 Y-5.3753
G01 X27.5105 Y-5.3826
G01 X27.5234 Y-5.3890
G01 X27.5323 Y-5.3927
G01 X27.5414 Y-5.3960
G01 X27.5553 Y-5.4001
G01 X27.5742 Y-5.4039
G01 X27.5838 Y-5.4050
G01 X27.5982 Y-5.4059
G01 X27.8811 Y-5.4060
G01 X27.8956 Y-5.4055
G01 X27.9052 Y-5.4045
G01 X27.9194 Y-5.4022
G01 X27.9335 Y-5.3988
G01 X27.9473 Y-5.3944
G01 X27.9651 Y-5.3870
G01 X27.9821 Y-5.3778
G01 X27.9981 Y-5.3670
G01 X28.0129 Y-5.3547
G01 X28.0265 Y-5.3410
G01 X28.0386 Y-5.3260
G01 X28.0492 Y-5.3099
G01 X28.0581 Y-5.2928
G01 X28.0653 Y-5.2749
G01 X28.1301 Y-5.0722
G01 X28.1346 Y-5.0859
G01 X28.1421 Y-5.1057
G01 X28.1548 Y-5.1346
G01 X28.1693 Y-5.1626
G01 X28.1800 Y-5.1808
G01 X28.1915 Y-5.1986
G01 X28.2099 Y-5.2241
G01 X28.2298 Y-5.2481
G01 X28.2441 Y-5.2639
G01 X28.2593 Y-5.2791
G01 X28.2830 Y-5.3008
G01 X28.3043 Y-5.3180
G01 X28.3309 Y-5.3370
G01 X28.3495 Y-5.3489
G01 X28.3688 Y-5.3599
G01 X28.3977 Y-5.3747
G01 X28.4228 Y-5.3856
G01 X28.4528 Y-5.3968
G01 X28.4742 Y-5.4036
G01 X28.4961 Y-5.4096
G01 X28.5271 Y-5.4166
G01 X28.5539 Y-5.4214
G01 X28.5810 Y-5.4250
G01 X28.6084 Y-5.4275
G01 X28.6324 Y-5.4288
G01 X28.6602 Y-5.4294
G01 X28.6839 Y-5.4291
G01 X28.7053 Y-5.4282
G01 X28.7339 Y-5.4258
G01 X28.7550 Y-5.4232
G01 X28.7796 Y-5.4193
G01 X28.8041 Y-5.4145
G01 X28.8320 Y-5.4077
G01 X28.8523 Y-5.4019
G01 X28.8796 Y-5.3929
G01 X28.9029 Y-5.3841
G01 X28.9311 Y-5.3720
G01 X28.9408 Y-5.3783
G01 X28.9534 Y-5.3852
G01 X28.9664 Y-5.3912
G01 X28.9799 Y-5.3962
G01 X28.9936 Y-5.4002
G01 X29.0077 Y-5.4031
G01 X29.0171 Y-5.4045
G01 X29.0314 Y-5.4058
G01 X29.3271 Y-5.4060
G01 X29.3415 Y-5.4055
G01 X29.3511 Y-5.4045
G01 X29.3653 Y-5.4022
G01 X29.3746 Y-5.4001
G01 X29.3885 Y-5.3961
G01 X29.3975 Y-5.3929
G01 X29.4107 Y-5.3872
G01 X29.4193 Y-5.3828
G01 X29.4295 Y-5.3769
G01 X29.4400 Y-5.3830
G01 X29.4486 Y-5.3873
G01 X29.4618 Y-5.3929
G01 X29.4708 Y-5.3962
G01 X29.4799 Y-5.3989
G01 X29.4939 Y-5.4023
G01 X29.5081 Y-5.4045
G01 X29.5176 Y-5.4055
G01 X29.5319 Y-5.4060
G01 X29.8309 Y-5.4058
G01 X29.8500 Y-5.4039
G01 X29.8641 Y-5.4013
G01 X29.8780 Y-5.3976
G01 X29.8915 Y-5.3929
G01 X29.9047 Y-5.3873
G01 X29.9175 Y-5.3807
G01 X29.9297 Y-5.3731
G01 X29.9451 Y-5.3617
G01 X29.9558 Y-5.3522
G01 X29.9658 Y-5.3420
G01 X29.9780 Y-5.3272
G01 X29.9861 Y-5.3153
G01 X29.9955 Y-5.2987
G01 X30.0015 Y-5.2856
G01 X30.0065 Y-5.2722
G01 X30.0105 Y-5.2584
G01 X30.0126 Y-5.2490
G01 X30.0149 Y-5.2349
G01 X30.0163 Y-5.2158
G01 X30.0165 Y-4.8466
G01 X30.0172 Y-4.7867
G01 X30.0186 Y-4.7329
G01 X30.0207 Y-4.6859
G01 X30.0220 Y-4.6649
G01 X30.0249 Y-4.6286
G01 X30.0265 Y-4.6133
G01 X30.0297 Y-4.5898
G01 X30.0335 Y-4.5712
G01 X30.0561 Y-4.5848
G01 X30.0688 Y-4.5913
G01 X30.0864 Y-4.5985
G01 X30.1047 Y-4.6039
G01 X30.1234 Y-4.6075
G01 X30.1423 Y-4.6093
G01 X30.1614 Y-4.6093
G01 X30.1788 Y-4.6075
G01 X30.1790 Y-4.8511
G01 X30.1802 Y-4.9199
G01 X30.1819 Y-4.9643
G01 X30.1846 Y-5.0036
G01 X30.1879 Y-5.0348
G01 X30.1931 Y-5.0677
G01 X30.1974 Y-5.0892
G01 X30.2034 Y-5.1143
G01 X30.2107 Y-5.1391
G01 X30.2174 Y-5.1585
G01 X30.2289 Y-5.1867
G01 X30.2447 Y-5.2183
G01 X30.2577 Y-5.2397
G01 X30.2645 Y-5.2501
G01 X30.2714 Y-5.2594
G01 X30.2875 Y-5.2793
G01 X30.2942 Y-5.2868
G01 X30.3130 Y-5.3057
G01 X30.3233 Y-5.3149
G01 X30.3410 Y-5.3295
G01 X30.3492 Y-5.3356
G01 X30.3694 Y-5.3496
G01 X30.3900 Y-5.3621
G01 X30.4140 Y-5.3749
G01 X30.4389 Y-5.3865
G01 X30.4651 Y-5.3968
G01 X30.4917 Y-5.4058
G01 X30.5187 Y-5.4132
G01 X30.5461 Y-5.4192
G01 X30.5689 Y-5.4230
G01 X30.6015 Y-5.4269
G01 X30.6249 Y-5.4286
G01 X30.6531 Y-5.4294
G01 X30.6751 Y-5.4293
G01 X30.7137 Y-5.4279
G01 X30.7368 Y-5.4263
G01 X30.7708 Y-5.4229
G01 X30.7949 Y-5.4197
G01 X30.8230 Y-5.4150
G01 X30.8508 Y-5.4095
G01 X30.8782 Y-5.4029
G01 X30.9018 Y-5.3965
G01 X30.9285 Y-5.3881
G01 X30.9602 Y-5.3767
G01 X30.9775 Y-5.3685
G01 X30.9900 Y-5.3613
G01 X31.0019 Y-5.3532
G01 X31.0167 Y-5.3411
G01 X31.0303 Y-5.3275
G01 X31.0425 Y-5.3127
G01 X31.0532 Y-5.2968
G01 X31.0622 Y-5.2798
G01 X31.0696 Y-5.2621
G01 X31.0752 Y-5.2438
G01 X31.0781 Y-5.2297
G01 X31.0805 Y-5.2106
G01 X31.0810 Y-5.1915
G01 X31.0795 Y-5.1723
G01 X31.0532 Y-4.9621
G01 X31.0502 Y-4.9481
G01 X31.0463 Y-4.9344
G01 X31.0413 Y-4.9210
G01 X31.0374 Y-4.9122
G01 X31.0308 Y-4.8995
G01 X31.0233 Y-4.8873
G01 X31.0149 Y-4.8757
G01 X31.0089 Y-4.8683
G01 X30.9991 Y-4.8578
G01 X30.9887 Y-4.8481
G01 X30.9775 Y-4.8391
G01 X30.9657 Y-4.8310
G01 X30.9534 Y-4.8238
G01 X30.9405 Y-4.8175
G01 X30.9272 Y-4.8121
G01 X30.9136 Y-4.8078
G01 X30.8997 Y-4.8044
G01 X30.8856 Y-4.8021
G01 X30.8713 Y-4.8008
G01 X30.8594 Y-4.8006
G01 X30.8594 Y-4.5150
G01 X30.8765 Y-4.5145
G01 X30.8908 Y-4.5129
G01 X30.9049 Y-4.5103
G01 X30.9234 Y-4.5052
G01 X30.9412 Y-4.4983
G01 X30.9541 Y-4.4920
G01 X30.9665 Y-4.4847
G01 X30.9822 Y-4.4737
G01 X30.9932 Y-4.4645
G01 X31.0067 Y-4.4510
G01 X31.0159 Y-4.4400
G01 X31.0243 Y-4.4283
G01 X31.0342 Y-4.4119
G01 X31.0405 Y-4.3990
G01 X31.0458 Y-4.3857
G01 X31.0514 Y-4.3674
G01 X31.0543 Y-4.3533
G01 X31.0557 Y-4.3439
G01 X31.0570 Y-4.3296
G01 X31.0572 Y-4.3200
G01 X31.0571 Y-4.1042
G01 X31.0557 Y-4.0851
G01 X31.0525 Y-4.0663
G01 X31.0474 Y-4.0478
G01 X31.0424 Y-4.0344
G01 X31.0364 Y-4.0213
G01 X31.0270 Y-4.0047
G01 X31.0159 Y-3.9890
G01 X31.0067 Y-3.9780
G01 X30.9932 Y-3.9645
G01 X30.9822 Y-3.9552
G01 X30.9705 Y-3.9468
G01 X30.9541 Y-3.9370
G01 X30.9368 Y-3.9288
G01 X30.9234 Y-3.9238
G01 X30.9049 Y-3.9187
G01 X30.8908 Y-3.9161
G01 X30.8765 Y-3.9145
G01 X30.8594 Y-3.9140
G01 X30.8591 Y-3.7243
G01 X30.8579 Y-3.7100
G01 X30.8556 Y-3.6958
G01 X30.8523 Y-3.6818
G01 X30.8463 Y-3.6637
G01 X30.8427 Y-3.6548
G01 X30.8364 Y-3.6419
G01 X30.8317 Y-3.6336
G01 X30.8238 Y-3.6216
G01 X30.8152 Y-3.6102
G01 X30.8089 Y-3.6029
G01 X30.7989 Y-3.5927
G01 X30.7918 Y-3.5862
G01 X30.7806 Y-3.5773
G01 X30.7728 Y-3.5717
G01 X30.7606 Y-3.5642
G01 X30.7521 Y-3.5597
G01 X30.7347 Y-3.5519
G01 X30.7211 Y-3.5473
G01 X30.7119 Y-3.5447
G01 X30.6979 Y-3.5417
G01 X30.6789 Y-3.5394
G01 X30.6598 Y-3.5389
G01 X30.6454 Y-3.5397
G01 X30.6265 Y-3.5425
G01 X30.6126 Y-3.5458
G01 X30.5989 Y-3.5501
G01 X30.5855 Y-3.5555
G01 X30.5685 Y-3.5640
G01 X30.2779 Y-3.7282
G01 X30.2657 Y-3.7357
G01 X30.2578 Y-3.7412
G01 X30.2466 Y-3.7502
G01 X30.2361 Y-3.7599
G01 X30.2295 Y-3.7669
G01 X30.2202 Y-3.7779
G01 X30.2145 Y-3.7856
G01 X30.2066 Y-3.7976
G01 X30.1997 Y-3.8102
G01 X30.1956 Y-3.8188
G01 X30.1903 Y-3.8322
G01 X30.1859 Y-3.8459
G01 X30.1836 Y-3.8552
G01 X30.1817 Y-3.8646
G01 X30.1798 Y-3.8788
G01 X30.1789 Y-3.8932
G01 X30.1788 Y-3.9068
G01 X30.1674 Y-3.9039
G01 X30.1385 Y-3.8981
G01 X30.1093 Y-3.8939
G01 X30.0799 Y-3.8914
G01 X30.0501 Y-3.8905
G01 X30.0228 Y-3.8913
G01 X29.9975 Y-3.8936
G01 X29.9846 Y-3.8952
G01 X29.9593 Y-3.8996
G01 X29.9344 Y-3.9055
G01 X29.9100 Y-3.9129
G01 X29.8967 Y-3.9176
G01 X29.8723 Y-3.9275
G01 X29.8575 Y-3.9224
G01 X29.8389 Y-3.9177
G01 X29.8200 Y-3.9149
G01 X29.8056 Y-3.9140
G01 X29.5319 Y-3.9140
G01 X29.5128 Y-3.9149
G01 X29.4939 Y-3.9177
G01 X29.4799 Y-3.9210
G01 X29.4662 Y-3.9254
G01 X29.4529 Y-3.9307
G01 X29.4400 Y-3.9370
G01 X29.4276 Y-3.9442
G01 X29.4158 Y-3.9524
G01 X29.4046 Y-3.9613
G01 X29.3940 Y-3.9711
G01 X29.3843 Y-3.9816
G01 X29.3753 Y-3.9928
G01 X29.3672 Y-4.0047
G01 X29.3600 Y-4.0171
G01 X29.3537 Y-4.0300
G01 X29.3483 Y-4.0433
G01 X29.3440 Y-4.0570
G01 X29.3399 Y-4.0753
G01 X29.3314 Y-4.0661
G01 X29.3158 Y-4.0504
G01 X29.2948 Y-4.0316
G01 X29.2729 Y-4.0141
G01 X29.2459 Y-3.9951
G01 X29.2267 Y-3.9829
G01 X29.2063 Y-3.9712
G01 X29.1768 Y-3.9559
G01 X29.1488 Y-3.9435
G01 X29.1203 Y-3.9329
G01 X29.0898 Y-3.9233
G01 X29.0682 Y-3.9175
G01 X29.0521 Y-3.9138
G01 X29.0240 Y-3.9080
G01 X28.9829 Y-3.9014
G01 X28.9547 Y-3.8980
G01 X28.9099 Y-3.8940
G01 X28.8810 Y-3.8923
G01 X28.8324 Y-3.8908
G01 X28.8054 Y-3.8905
G01 X28.7756 Y-3.8908
G01 X28.7456 Y-3.8918
G01 X28.7161 Y-3.8935
G01 X28.6872 Y-3.8959
G01 X28.6588 Y-3.8991
G01 X28.6308 Y-3.9031
G01 X28.6033 Y-3.9078
G01 X28.5762 Y-3.9135
G01 X28.5459 Y-3.9211
G01 X28.5195 Y-3.9288
G01 X28.4936 Y-3.9376
G01 X28.4723 Y-3.9459
G01 X28.4431 Y-3.9587
G01 X28.4231 Y-3.9687
G01 X28.3994 Y-3.9820
G01 X28.3870 Y-3.9896
G01 X28.3767 Y-3.9774
G01 X28.3632 Y-3.9640
G01 X28.3484 Y-3.9520
G01 X28.3326 Y-3.9414
G01 X28.3158 Y-3.9325
G01 X28.2982 Y-3.9253
G01 X28.2799 Y-3.9198
G01 X28.2613 Y-3.9161
G01 X28.2471 Y-3.9145
G01 X28.2328 Y-3.9140
G01 X27.9470 Y-3.9140
G01 X27.9281 Y-3.9149
G01 X27.9140 Y-3.9168
G01 X27.9001 Y-3.9197
G01 X27.8819 Y-3.9252
G01 X27.8687 Y-3.9304
G01 X27.8559 Y-3.9366
G01 X27.8435 Y-3.9437
G01 X27.8280 Y-3.9545
G01 X27.8170 Y-3.9636
G01 X27.8068 Y-3.9735
G01 X27.7973 Y-3.9841
G01 X27.7886 Y-3.9953
G01 X27.7807 Y-4.0072
G01 X27.7716 Y-4.0238
G01 X27.7677 Y-4.0325
G01 X27.7626 Y-4.0458
G01 X27.7509 Y-4.0853
G01 X27.7436 Y-4.0566
G01 X27.7408 Y-4.0475
G01 X27.7339 Y-4.0296
G01 X27.7276 Y-4.0168
G01 X27.7177 Y-4.0004
G01 X27.7093 Y-3.9888
G01 X27.6968 Y-3.9743
G01 X27.6866 Y-3.9643
G01 X27.6718 Y-3.9522
G01 X27.6599 Y-3.9441
G01 X27.6433 Y-3.9347
G01 X27.6303 Y-3.9288
G01 X27.6168 Y-3.9238
G01 X27.5984 Y-3.9187
G01 X27.5796 Y-3.9154
G01 X27.5653 Y-3.9142
G01 X27.2718 Y-3.9140
G01 X27.2576 Y-3.9149
G01 X27.2388 Y-3.9177
G01 X27.2250 Y-3.9209
G01 X27.2114 Y-3.9252
G01 X27.2025 Y-3.9286
G01 X27.1895 Y-3.9345
G01 X27.1770 Y-3.9413
G01 X27.1651 Y-3.9490
G01 X27.1537 Y-3.9576
G01 X27.1430 Y-3.9670
G01 X27.1330 Y-3.9771
G01 X27.1237 Y-3.9879
G01 X27.1153 Y-3.9994
G01 X27.1077 Y-4.0115
G01 X27.1010 Y-4.0241
G01 X27.0971 Y-4.0327
G01 X27.0936 Y-4.0416
G01 X27.0892 Y-4.0551
G01 X27.0800 Y-4.0899
G01 X27.0675 Y-4.0466
G01 X27.0624 Y-4.0332
G01 X27.0564 Y-4.0203
G01 X27.0495 Y-4.0078
G01 X27.0416 Y-3.9959
G01 X27.0298 Y-3.9809
G01 X27.0201 Y-3.9705
G01 X27.0096 Y-3.9608
G01 X26.9945 Y-3.9492
G01 X26.9825 Y-3.9414
G01 X26.9657 Y-3.9325
G01 X26.9481 Y-3.9253
G01 X26.9345 Y-3.9210
G01 X26.9159 Y-3.9168
G01 X26.9018 Y-3.9149
G01 X26.8828 Y-3.9140
G01 X26.6014 Y-3.9140
G01 X26.5822 Y-3.9149
G01 X26.5679 Y-3.9169
G01 X26.5584 Y-3.9188
G01 X26.5491 Y-3.9211
G01 X26.5354 Y-3.9255
G01 X26.5176 Y-3.9329
G01 X26.5048 Y-3.9396
G01 X26.4966 Y-3.9445
G01 X26.4809 Y-3.9557
G01 X26.4664 Y-3.9683
G01 X26.4596 Y-3.9751
G01 X26.4501 Y-3.9860
G01 X26.4442 Y-3.9936
G01 X26.4361 Y-4.0055
G01 X26.4312 Y-4.0138
G01 X26.4251 Y-4.0256
G00 Z2.0000
G00 X25.1750 Y-11.2370
G01 F60.00
G01 Z-0.0500
G01 F120.00
G01 X25.1748 Y-10.0179
G01 X25.1729 Y-9.9796
G01 X25.1691 Y-9.9415
G01 X25.1666 Y-9.9226
G01 X25.1600 Y-9.8848
G01 X25.1560 Y-9.8661
G01 X25.1467 Y-9.8290
G01 X25.1356 Y-9.7923
G01 X25.1227 Y-9.7563
G01 X25.1156 Y-9.7385
G01 X25.1001 Y-9.7035
G01 X25.0829 Y-9.6693
G01 X25.0737 Y-9.6525
G01 X25.0540 Y-9.6197
G01 X25.0435 Y-9.6037
G01 X25.0215 Y-9.5724
G01 X25.0099 Y-9.5571
G01 X24.9856 Y-9.5275
G01 X24.9599 Y-9.4992
G01 X24.9465 Y-9.4855
G01 X24.9188 Y-9.4591
G01 X24.8898 Y-9.4341
G01 X24.8749 Y-9.4221
G01 X24.8441 Y-9.3993
G01 X24.8123 Y-9.3780
G01 X24.7960 Y-9.3680
G01 X24.7627 Y-9.3491
G01 X24.7285 Y-9.3319
G01 X24.7111 Y-9.3239
G01 X24.6757 Y-9.3093
G01 X24.6397 Y-9.2964
G01 X24.6030 Y-9.2853
G01 X24.5659 Y-9.2760
G01 X24.5472 Y-9.2720
G01 X24.5094 Y-9.2654
G01 X24.4905 Y-9.2629
G01 X24.4524 Y-9.2591
G01 X24.4333 Y-9.2579
G01 X24.3950 Y-9.2570
G01 X21.3950 Y-9.2570
G01 X21.3567 Y-9.2579
G01 X21.3376 Y-9.2591
G01 X21.2995 Y-9.2629
G01 X21.2616 Y-9.2685
G01 X21.2428 Y-9.2720
G01 X21.2241 Y-9.2760
G01 X21.1870 Y-9.2853
G01 X21.1503 Y-9.2964
G01 X21.1322 Y-9.3026
G01 X21.0965 Y-9.3164
G01 X21.0789 Y-9.3239
G01 X21.0443 Y-9.3403
G01 X21.0273 Y-9.3491
G01 X20.9940 Y-9.3680
G01 X20.9617 Y-9.3885
G01 X20.9459 Y-9.3993
G01 X20.9304 Y-9.4105
G01 X20.9002 Y-9.4341
G01 X20.8712 Y-9.4591
G01 X20.8572 Y-9.4721
G01 X20.8301 Y-9.4992
G01 X20.8171 Y-9.5132
G01 X20.8044 Y-9.5275
G01 X20.7801 Y-9.5571
G01 X20.7685 Y-9.5724
G01 X20.7465 Y-9.6037
G01 X20.7260 Y-9.6360
G01 X20.7163 Y-9.6525
G01 X20.6983 Y-9.6863
G01 X20.6899 Y-9.7035
G01 X20.6819 Y-9.7209
G01 X20.6673 Y-9.7563
G01 X20.6544 Y-9.7923
G01 X20.6486 Y-9.8106
G01 X20.6384 Y-9.8475
G01 X20.6340 Y-9.8661
G01 X20.6265 Y-9.9036
G01 X20.6209 Y-9.9415
G01 X20.6188 Y-9.9605
G01 X20.6171 Y-9.9796
G01 X20.6152 Y-10.0179
G01 X20.6152 Y-11.2561
G01 X20.6171 Y-11.2944
G01 X20.6209 Y-11.3325
G01 X20.6265 Y-11.3704
G01 X20.6340 Y-11.4079
G01 X20.6433 Y-11.4450
G01 X20.6486 Y-11.4634
G01 X20.6606 Y-11.4998
G01 X20.6673 Y-11.5177
G01 X20.6819 Y-11.5531
G01 X20.6983 Y-11.5877
G01 X20.7163 Y-11.6215
G01 X20.7260 Y-11.6380
G01 X20.7360 Y-11.6543
G01 X20.7573 Y-11.6861
G01 X20.7801 Y-11.7169
G01 X20.7921 Y-11.7318
G01 X20.8171 Y-11.7608
G01 X20.8435 Y-11.7885
G01 X20.8572 Y-11.8019
G01 X20.8855 Y-11.8276
G01 X20.9151 Y-11.8519
G01 X20.9304 Y-11.8635
G01 X20.9617 Y-11.8855
G01 X20.9777 Y-11.8960
G01 X20.9940 Y-11.9060
G01 X21.0273 Y-11.9249
G01 X21.0615 Y-11.9421
G01 X21.0789 Y-11.9501
G01 X21.1143 Y-11.9647
G01 X21.1503 Y-11.9776
G01 X21.1686 Y-11.9834
G01 X21.2055 Y-11.9936
G01 X21.2428 Y-12.0020
G01 X21.2806 Y-12.0086
G01 X21.2995 Y-12.0111
G01 X21.3376 Y-12.0149
G01 X21.3567 Y-12.0161
G01 X21.3950 Y-12.0170
G01 X24.3950 Y-12.0170
G01 X24.4333 Y-12.0161
G01 X24.4715 Y-12.0132
G01 X24.4905 Y-12.0111
G01 X24.5284 Y-12.0055
G01 X24.5659 Y-11.9980
G01 X24.6030 Y-11.9887
G01 X24.6397 Y-11.9776
G01 X24.6578 Y-11.9714
G01 X24.6757 Y-11.9647
G01 X24.7111 Y-11.9501
G01 X24.7457 Y-11.9337
G01 X24.7795 Y-11.9157
G01 X24.8123 Y-11.8960
G01 X24.8283 Y-11.8855
G01 X24.8596 Y-11.8635
G01 X24.8898 Y-11.8399
G01 X24.9188 Y-11.8149
G01 X24.9465 Y-11.7885
G01 X24.9599 Y-11.7748
G01 X24.9856 Y-11.7465
G01 X24.9979 Y-11.7318
G01 X25.0215 Y-11.7016
G01 X25.0435 Y-11.6703
G01 X25.0640 Y-11.6380
G01 X25.0737 Y-11.6215
G01 X25.0917 Y-11.5877
G01 X25.1081 Y-11.5531
G01 X25.1227 Y-11.5177
G01 X25.1356 Y-11.4817
G01 X25.1414 Y-11.4634
G01 X25.1516 Y-11.4265
G01 X25.1600 Y-11.3892
G01 X25.1666 Y-11.3514
G01 X25.1712 Y-11.3135
G01 X25.1741 Y-11.2753
G01 X25.1750 Y-11.2370
G00 Z2.0000
G00 X24.8825 Y-11.2370
G01 F60.00
G01 Z-0.0500
G01 F120.00
G01 X24.8825 Y-10.0370
G01 X24.8819 Y-10.0131
G01 X24.8802 Y-9.9892
G01 X24.8772 Y-9.9655
G01 X24.8731 Y-9.9419
G01 X24.8707 Y-9.9302
G01 X24.8648 Y-9.9070
G01 X24.8579 Y-9.8841
G01 X24.8498 Y-9.8616
G01 X24.8454 Y-9.8504
G01 X24.8407 Y-9.8394
G01 X24.8304 Y-9.8178
G01 X24.8192 Y-9.7967
G01 X24.8069 Y-9.7762
G01 X24.8003 Y-9.7662
G01 X24.7866 Y-9.7466
G01 X24.7793 Y-9.7371
G01 X24.7641 Y-9.7186
G01 X24.7562 Y-9.7096
G01 X24.7397 Y-9.6923
G01 X24.7224 Y-9.6758
G01 X24.7043 Y-9.6602
G01 X24.6854 Y-9.6454
G01 X24.6757 Y-9.6384
G01 X24.6558 Y-9.6251
G01 X24.6456 Y-9.6189
G01 X24.6248 Y-9.6071
G01 X24.6034 Y-9.5963
G01 X24.5926 Y-9.5913
G01 X24.5816 Y-9.5866
G01 X24.5592 Y-9.5780
G01 X24.5365 Y-9.5705
G01 X24.5135 Y-9.5641
G01 X24.4901 Y-9.5589
G01 X24.4783 Y-9.5567
G01 X24.4547 Y-9.5532
G01 X24.4309 Y-9.5508
G01 X24.4189 Y-9.5501
G01 X24.3950 Y-9.5495
G01 X21.3950 Y-9.5495
G01 X21.3711 Y-9.5501
G01 X21.3591 Y-9.5508
G01 X21.3353 Y-9.5532
G01 X21.3235 Y-9.5548
G01 X21.3117 Y-9.5567
G01 X21.2882 Y-9.5613
G01 X21.2765 Y-9.5641
G01 X21.2535 Y-9.5705
G01 X21.2421 Y-9.5741
G01 X21.2196 Y-9.5822
G01 X21.1974 Y-9.5913
G01 X21.1866 Y-9.5963
G01 X21.1758 Y-9.6016
G01 X21.1547 Y-9.6128
G01 X21.1342 Y-9.6251
G01 X21.1242 Y-9.6317
G01 X21.1143 Y-9.6384
G01 X21.0951 Y-9.6527
G01 X21.0766 Y-9.6679
G01 X21.0588 Y-9.6839
G01 X21.0503 Y-9.6923
G01 X21.0338 Y-9.7096
G01 X21.0259 Y-9.7186
G01 X21.0182 Y-9.7277
G01 X21.0034 Y-9.7466
G01 X20.9897 Y-9.7662
G01 X20.9831 Y-9.7762
G01 X20.9708 Y-9.7967
G01 X20.9651 Y-9.8072
G01 X20.9596 Y-9.8178
G01 X20.9493 Y-9.8394
G01 X20.9446 Y-9.8504
G01 X20.9360 Y-9.8728
G01 X20.9321 Y-9.8841
G01 X20.9252 Y-9.9070
G01 X20.9193 Y-9.9302
G01 X20.9169 Y-9.9419
G01 X20.9128 Y-9.9655
G01 X20.9112 Y-9.9773
G01 X20.9088 Y-10.0011
G01 X20.9076 Y-10.0250
G01 X20.9075 Y-11.2370
G01 X20.9081 Y-11.2609
G01 X20.9088 Y-11.2729
G01 X20.9112 Y-11.2967
G01 X20.9147 Y-11.3203
G01 X20.9169 Y-11.3321
G01 X20.9221 Y-11.3555
G01 X20.9285 Y-11.3785
G01 X20.9321 Y-11.3899
G01 X20.9360 Y-11.4012
G01 X20.9446 Y-11.4236
G01 X20.9543 Y-11.4454
G01 X20.9651 Y-11.4668
G01 X20.9769 Y-11.4876
G01 X20.9831 Y-11.4978
G01 X20.9964 Y-11.5177
G01 X21.0034 Y-11.5274
G01 X21.0107 Y-11.5369
G01 X21.0259 Y-11.5554
G01 X21.0419 Y-11.5732
G01 X21.0588 Y-11.5901
G01 X21.0676 Y-11.5982
G01 X21.0766 Y-11.6061
G01 X21.0951 Y-11.6213
G01 X21.1046 Y-11.6286
G01 X21.1242 Y-11.6423
G01 X21.1444 Y-11.6551
G01 X21.1652 Y-11.6669
G01 X21.1758 Y-11.6724
G01 X21.1974 Y-11.6827
G01 X21.2084 Y-11.6874
G01 X21.2308 Y-11.6960
G01 X21.2421 Y-11.6999
G01 X21.2650 Y-11.7068
G01 X21.2882 Y-11.7127
G01 X21.3117 Y-11.7173
G01 X21.3353 Y-11.7208
G01 X21.3591 Y-11.7232
G01 X21.3830 Y-11.7244
G01 X21.3950 Y-11.7245
G01 X24.3950 Y-11.7245
G01 X24.4070 Y-11.7244
G01 X24.4309 Y-11.7232
G01 X24.4547 Y-11.7208
G01 X24.4783 Y-11.7173
G01 X24.4901 Y-11.7151
G01 X24.5135 Y-11.7099
G01 X24.5365 Y-11.7035
G01 X24.5592 Y-11.6960
G01 X24.5816 Y-11.6874
G01 X24.5926 Y-11.6827
G01 X24.6142 Y-11.6724
G01 X24.6353 Y-11.6612
G01 X24.6558 Y-11.6489
G01 X24.6757 Y-11.6356
G01 X24.6949 Y-11.6213
G01 X24.7134 Y-11.6061
G01 X24.7312 Y-11.5901
G01 X24.7397 Y-11.5817
G01 X24.7562 Y-11.5644
G01 X24.7718 Y-11.5463
G01 X24.7793 Y-11.5369
G01 X24.7936 Y-11.5177
G01 X24.8069 Y-11.4978
G01 X24.8192 Y-11.4773
G01 X24.8304 Y-11.4562
G01 X24.8407 Y-11.4346
G01 X24.8498 Y-11.4124
G01 X24.8579 Y-11.3899
G01 X24.8615 Y-11.3785
G01 X24.8679 Y-11.3555
G01 X24.8731 Y-11.3321
G01 X24.8772 Y-11.3085
G01 X24.8802 Y-11.2848
G01 X24.8819 Y-11.2609
G01 X24.8825 Y-11.2370
G00 Z2.0000
G00 X24.5900 Y-11.2370
G01 F60.00
G01 Z-0.0500
G01 F120.00
G01 X24.5900 Y-10.0370
G01 X24.5891 Y-10.0179
G01 X24.5879 Y-10.0084
G01 X24.5853 Y-9.9943
G01 X24.5816 Y-9.9804
G01 X24.5769 Y-9.9668
G01 X24.5733 Y-9.9580
G01 X24.5670 Y-9.9451
G01 X24.5597 Y-9.9327
G01 X24.5516 Y-9.9208
G01 X24.5427 Y-9.9096
G01 X24.5329 Y-9.8991
G01 X24.5224 Y-9.8893
G01 X24.5112 Y-9.8804
G01 X24.4993 Y-9.8723
G01 X24.4869 Y-9.8650
G01 X24.4740 Y-9.8587
G01 X24.4652 Y-9.8551
G01 X24.4470 Y-9.8491
G01 X24.4283 Y-9.8449
G01 X24.4093 Y-9.8425
G01 X24.3950 Y-9.8420
G01 X21.3902 Y-9.8421
G01 X21.3759 Y-9.8429
G01 X21.3617 Y-9.8449
G01 X21.3476 Y-9.8478
G01 X21.3338 Y-9.8518
G01 X21.3204 Y-9.8568
G01 X21.3073 Y-9.8628
G01 X21.2948 Y-9.8697
G01 X21.2827 Y-9.8776
G01 X21.2713 Y-9.8863
G01 X21.2605 Y-9.8958
G01 X21.2505 Y-9.9060
G01 X21.2413 Y-9.9170
G01 X21.2329 Y-9.9287
G01 X21.2253 Y-9.9409
G01 X21.2187 Y-9.9536
G01 X21.2131 Y-9.9668
G01 X21.2071 Y-9.9850
G01 X21.2029 Y-10.0037
G01 X21.2005 Y-10.0227
G01 X21.2000 Y-10.0370
G01 X21.2000 Y-11.2370
G01 X21.2005 Y-11.2513
G01 X21.2021 Y-11.2656
G01 X21.2047 Y-11.2797
G01 X21.2084 Y-11.2936
G01 X21.2114 Y-11.3027
G01 X21.2167 Y-11.3160
G01 X21.2230 Y-11.3289
G01 X21.2303 Y-11.3413
G01 X21.2384 Y-11.3532
G01 X21.2473 Y-11.3644
G01 X21.2571 Y-11.3749
G01 X21.2676 Y-11.3847
G01 X21.2788 Y-11.3936
G01 X21.2907 Y-11.4017
G01 X21.3031 Y-11.4090
G01 X21.3160 Y-11.4153
G01 X21.3248 Y-11.4189
G01 X21.3430 Y-11.4249
G01 X21.3617 Y-11.4291
G01 X21.3807 Y-11.4315
G01 X21.3950 Y-11.4320
G01 X24.4046 Y-11.4318
G01 X24.4236 Y-11.4299
G01 X24.4377 Y-11.4273
G01 X24.4562 Y-11.4222
G01 X24.4740 Y-11.4153
G01 X24.4911 Y-11.4067
G01 X24.5073 Y-11.3964
G01 X24.5224 Y-11.3847
G01 X24.5362 Y-11.3715
G01 X24.5487 Y-11.3570
G01 X24.5571 Y-11.3453
G01 X24.5670 Y-11.3289
G01 X24.5752 Y-11.3116
G01 X24.5816 Y-11.2936
G01 X24.5863 Y-11.2750
G01 X24.5891 Y-11.2561
G01 X24.5900 Y-11.2370
G00 Z2.0000
G00 X31.0400 Y-14.0821
G01 F60.00
G01 Z-0.0500
G01 F120.00
G01 X31.6478 Y-14.0821
G01 X31.6915 Y-14.0798
G01 X31.7302 Y-14.0743
G01 X31.7443 Y-14.0716
G01 X31.7867 Y-14.0608
G01 X31.8325 Y-14.0445
G01 X31.8764 Y-14.0237
G01 X31.9178 Y-13.9989
G01 X31.9571 Y-13.9698
G01 X31.9931 Y-13.9371
G01 X32.0258 Y-13.9011
G01 X32.0547 Y-13.8621
G01 X32.0750 Y-13.8287
G01 X32.0840 Y-13.8119
G01 X32.1005 Y-13.7765
G01 X32.1168 Y-13.7307
G01 X32.1265 Y-13.6929
G01 X32.1303 Y-13.6742
G01 X32.1358 Y-13.6355
G01 X32.1381 Y-13.5918
G01 X32.1381 Y-11.1321
G01 X34.6421 Y-8.6281
G01 X42.6920 Y-8.6281
G01 X42.7358 Y-8.6262
G01 X42.7500 Y-8.6246
G01 X42.7792 Y-8.6203
G01 X42.7979 Y-8.6165
G01 X42.8357 Y-8.6068
G01 X42.8815 Y-8.5905
G01 X42.9169 Y-8.5740
G01 X42.9337 Y-8.5650
G01 X42.9668 Y-8.5449
G01 X43.0024 Y-8.5187
G01 X43.0134 Y-8.5095
G01 X43.0421 Y-8.4831
G01 X43.4540 Y-8.0712
G01 X43.8659 Y-8.4831
G01 X43.8946 Y-8.5095
G01 X43.9056 Y-8.5187
G01 X43.9409 Y-8.5447
G01 X43.9743 Y-8.5650
G01 X43.9911 Y-8.5740
G01 X44.0265 Y-8.5905
G01 X44.0723 Y-8.6068
G01 X44.1101 Y-8.6165
G01 X44.1288 Y-8.6203
G01 X44.1675 Y-8.6258
G01 X44.2160 Y-8.6281
G01 X50.4879 Y-8.6281
G01 X50.5789 Y-8.7191
G01 X50.5788 Y-9.0550
G01 X50.2692 Y-9.0551
G01 X50.2597 Y-9.0555
G01 X50.2454 Y-9.0571
G01 X50.2360 Y-9.0587
G01 X50.2220 Y-9.0621
G01 X50.2083 Y-9.0664
G01 X50.1994 Y-9.0698
G01 X50.1863 Y-9.0758
G01 X50.1779 Y-9.0803
G01 X50.1657 Y-9.0879
G01 X50.1578 Y-9.0934
G01 X50.1503 Y-9.0993
G01 X50.1395 Y-9.1088
G01 X50.1295 Y-9.1190
G01 X50.1233 Y-9.1263
G01 X50.1146 Y-9.1377
G01 X50.1067 Y-9.1498
G01 X50.1020 Y-9.1581
G01 X50.0957 Y-9.1710
G01 X50.0904 Y-9.1843
G01 X50.0874 Y-9.1934
G01 X50.0837 Y-9.2073
G01 X50.0811 Y-9.2214
G01 X50.0795 Y-9.2357
G01 X50.0790 Y-9.2500
G01 X50.0790 Y-10.3049
G01 X46.7870 Y-10.3049
G01 X46.7385 Y-10.3072
G01 X46.6951 Y-10.3135
G01 X46.6811 Y-10.3165
G01 X46.6525 Y-10.3236
G01 X46.6387 Y-10.3276
G01 X46.5975 Y-10.3425
G01 X46.5621 Y-10.3590
G01 X46.5453 Y-10.3680
G01 X46.5119 Y-10.3883
G01 X46.4804 Y-10.4114
G01 X46.4692 Y-10.4203
G01 X46.4369 Y-10.4499
G01 X45.7711 Y-11.1156
G01 X45.7596 Y-11.1133
G01 X45.7356 Y-11.1097
G01 X45.7260 Y-11.1088
G01 X45.7018 Y-11.1076
G01 X45.3970 Y-11.1075
G01 X45.3727 Y-11.1085
G01 X45.3584 Y-11.1097
G01 X45.3297 Y-11.1141
G01 X45.3061 Y-11.1198
G01 X45.2923 Y-11.1238
G01 X45.2650 Y-11.1338
G01 X45.2386 Y-11.1460
G01 X45.2260 Y-11.1530
G01 X45.2053 Y-11.1656
G01 X45.1781 Y-11.1858
G01 X45.1530 Y-11.2085
G01 X45.1303 Y-11.2336
G01 X45.1101 Y-11.2608
G01 X45.0927 Y-11.2899
G01 X45.0783 Y-11.3205
G01 X45.0670 Y-11.3519
G01 X45.0643 Y-11.3616
G01 X45.0586 Y-11.3852
G01 X45.0548 Y-11.4092
G01 X45.0533 Y-11.4235
G01 X45.0520 Y-11.4525
G01 X45.0520 Y-12.6275
G01 X45.0530 Y-12.6518
G01 X45.0542 Y-12.6661
G01 X45.0586 Y-12.6948
G01 X45.0669 Y-12.7276
G01 X45.0783 Y-12.7595
G01 X45.0927 Y-12.7901
G01 X45.1101 Y-12.8192
G01 X45.1274 Y-12.8427
G01 X45.1336 Y-12.8503
G01 X45.1497 Y-12.8680
G01 X45.1565 Y-12.8748
G01 X45.1709 Y-12.8879
G01 X45.1857 Y-12.9001
G01 X45.2014 Y-12.9116
G01 X45.2134 Y-12.9195
G01 X45.2300 Y-12.9294
G01 X45.2382 Y-12.9337
G01 X45.2606 Y-12.9444
G01 X45.2694 Y-12.9480
G01 X45.2969 Y-12.9576
G01 X45.3297 Y-12.9659
G01 X45.3632 Y-12.9708
G01 X45.3922 Y-12.9724
G01 X45.7018 Y-12.9724
G01 X45.7308 Y-12.9708
G01 X45.7643 Y-12.9659
G01 X45.7926 Y-12.9590
G01 X45.8062 Y-12.9546
G01 X45.8290 Y-12.9462
G01 X45.8596 Y-12.9318
G01 X45.8887 Y-12.9144
G01 X45.9083 Y-12.9001
G01 X45.9231 Y-12.8879
G01 X45.9375 Y-12.8748
G01 X45.9443 Y-12.8680
G01 X45.9637 Y-12.8464
G01 X45.9811 Y-12.8231
G01 X45.9890 Y-12.8111
G01 X45.9989 Y-12.7945
G01 X46.0032 Y-12.7863
G01 X46.0157 Y-12.7595
G01 X46.0257 Y-12.7322
G01 X46.0285 Y-12.7231
G01 X46.0333 Y-12.7041
G01 X46.0370 Y-12.6854
G01 X46.0403 Y-12.6613
G01 X46.0420 Y-12.6275
G01 X46.0420 Y-12.2452
G01 X46.9921 Y-11.2951
G01 X50.0790 Y-11.2952
G01 X50.0790 Y-12.3500
G01 X50.0795 Y-12.3643
G01 X50.0805 Y-12.3739
G01 X50.0827 Y-12.3880
G01 X50.0848 Y-12.3974
G01 X50.0888 Y-12.4112
G01 X50.0921 Y-12.4202
G01 X50.0977 Y-12.4334
G01 X50.1067 Y-12.4502
G01 X50.1146 Y-12.4623
G01 X50.1203 Y-12.4700
G01 X50.1295 Y-12.4810
G01 X50.1361 Y-12.4879
G01 X50.1430 Y-12.4945
G01 X50.1540 Y-12.5037
G01 X50.1697 Y-12.5147
G01 X50.1821 Y-12.5220
G01 X50.1950 Y-12.5283
G01 X50.2083 Y-12.5336
G01 X50.2220 Y-12.5379
G01 X50.2360 Y-12.5413
G01 X50.2501 Y-12.5435
G01 X50.2597 Y-12.5445
G01 X50.2740 Y-12.5450
G01 X51.8788 Y-12.5449
G01 X51.8883 Y-12.5445
G01 X51.9026 Y-12.5429
G01 X51.9120 Y-12.5413
G01 X51.9260 Y-12.5379
G01 X51.9397 Y-12.5336
G01 X51.9486 Y-12.5302
G01 X51.9574 Y-12.5263
G01 X51.9701 Y-12.5197
G01 X51.9823 Y-12.5121
G01 X51.9902 Y-12.5066
G01 X51.9977 Y-12.5007
G01 X52.0085 Y-12.4912
G01 X52.0185 Y-12.4810
G01 X52.0277 Y-12.4700
G01 X52.0334 Y-12.4623
G01 X52.0413 Y-12.4502
G01 X52.0460 Y-12.4419
G01 X52.0523 Y-12.4290
G01 X52.0559 Y-12.4202
G01 X52.0606 Y-12.4066
G01 X52.0632 Y-12.3974
G01 X52.0661 Y-12.3833
G01 X52.0681 Y-12.3691
G01 X52.0689 Y-12.3548
G01 X52.0690 Y-9.2500
G01 X52.0688 Y-9.2404
G01 X52.0675 Y-9.2261
G01 X52.0643 Y-9.2073
G01 X52.0606 Y-9.1934
G01 X52.0576 Y-9.1843
G01 X52.0542 Y-9.1754
G01 X52.0482 Y-9.1623
G01 X52.0437 Y-9.1539
G01 X52.0361 Y-9.1417
G01 X52.0277 Y-9.1300
G01 X52.0185 Y-9.1190
G01 X52.0085 Y-9.1088
G01 X52.0014 Y-9.1023
G01 X51.9902 Y-9.0934
G01 X51.9783 Y-9.0853
G01 X51.9659 Y-9.0780
G01 X51.9530 Y-9.0717
G01 X51.9397 Y-9.0664
G01 X51.9306 Y-9.0634
G01 X51.9214 Y-9.0608
G01 X51.9073 Y-9.0579
G01 X51.8931 Y-9.0559
G01 X51.8788 Y-9.0551
G01 X51.5691 Y-9.0550
G01 X51.5691 Y-8.5140
G01 X51.5672 Y-8.4702
G01 X51.5656 Y-8.4560
G01 X51.5596 Y-8.4174
G01 X51.5478 Y-8.3703
G01 X51.5315 Y-8.3245
G01 X51.5150 Y-8.2891
G01 X51.5084 Y-8.2764
G01 X51.4883 Y-8.2429
G01 X51.4802 Y-8.2311
G01 X51.4568 Y-8.1999
G01 X51.4275 Y-8.1673
G01 X51.0431 Y-7.7829
G01 X51.0108 Y-7.7533
G01 X50.9996 Y-7.7444
G01 X50.9681 Y-7.7213
G01 X50.9347 Y-7.7010
G01 X50.9179 Y-7.6920
G01 X50.8824 Y-7.6755
G01 X50.8458 Y-7.6622
G01 X50.8275 Y-7.6566
G01 X50.7896 Y-7.6474
G01 X50.7415 Y-7.6402
G01 X50.6930 Y-7.6379
G01 X44.4211 Y-7.6379
G01 X43.9491 Y-7.1659
G01 X43.9492 Y-6.9832
G01 X44.0383 Y-6.9510
G01 X44.1358 Y-6.9052
G01 X44.1526 Y-6.8962
G01 X44.2368 Y-6.8457
G01 X44.2527 Y-6.8351
G01 X44.3391 Y-6.7707
G01 X44.4191 Y-6.6986
G01 X44.4326 Y-6.6851
G01 X44.5047 Y-6.6051
G01 X44.5746 Y-6.5109
G01 X44.6349 Y-6.4103
G01 X44.6812 Y-6.3131
G01 X44.6885 Y-6.2954
G01 X44.7245 Y-6.1939
G01 X44.7530 Y-6.0801
G01 X44.7702 Y-5.9641
G01 X44.7760 Y-5.8470
G01 X44.7702 Y-5.7299
G01 X44.7530 Y-5.6139
G01 X44.7245 Y-5.5001
G01 X44.6885 Y-5.3986
G01 X44.6812 Y-5.3809
G01 X44.6349 Y-5.2837
G01 X44.5797 Y-5.1912
G01 X44.5691 Y-5.1753
G01 X44.5106 Y-5.0964
G01 X44.4985 Y-5.0817
G01 X44.4260 Y-5.0020
G01 X44.3391 Y-4.9233
G01 X44.2449 Y-4.8534
G01 X44.1443 Y-4.7931
G01 X44.0383 Y-4.7430
G01 X43.9279 Y-4.7035
G01 X43.8141 Y-4.6750
G01 X43.7076 Y-4.6589
G01 X43.6886 Y-4.6571
G01 X43.5906 Y-4.6522
G01 X43.5714 Y-4.6522
G01 X43.4639 Y-4.6578
G01 X43.3573 Y-4.6733
G01 X43.3432 Y-4.6760
G01 X43.2341 Y-4.7035
G01 X43.1326 Y-4.7395
G01 X43.1149 Y-4.7468
G01 X43.0177 Y-4.7931
G01 X42.9252 Y-4.8483
G01 X42.9093 Y-4.8589
G01 X42.8229 Y-4.9233
G01 X42.7429 Y-4.9954
G01 X42.7294 Y-5.0089
G01 X42.6573 Y-5.0889
G01 X42.5929 Y-5.1753
G01 X42.5823 Y-5.1912
G01 X42.5271 Y-5.2837
G01 X42.4808 Y-5.3809
G01 X42.4735 Y-5.3986
G01 X42.4405 Y-5.4910
G01 X42.4361 Y-5.5047
G01 X42.4090 Y-5.6139
G01 X42.3918 Y-5.7299
G01 X42.3860 Y-5.8470
G01 X42.3911 Y-5.9546
G01 X42.3929 Y-5.9736
G01 X42.4073 Y-6.0707
G01 X42.4111 Y-6.0895
G01 X42.4373 Y-6.1935
G01 X42.4752 Y-6.2999
G01 X42.4808 Y-6.3131
G01 X42.5271 Y-6.4103
G01 X42.5823 Y-6.5028
G01 X42.5929 Y-6.5187
G01 X42.6514 Y-6.5976
G01 X42.6603 Y-6.6088
G01 X42.7360 Y-6.6920
G01 X42.8192 Y-6.7677
G01 X42.8304 Y-6.7766
G01 X42.9131 Y-6.8379
G01 X42.9252 Y-6.8457
G01 X42.9589 Y-6.8659
G01 X42.9589 Y-7.1659
G01 X42.4869 Y-7.6379
G01 X34.4370 Y-7.6379
G01 X34.3885 Y-7.6402
G01 X34.3498 Y-7.6457
G01 X34.3311 Y-7.6495
G01 X34.3025 Y-7.6566
G01 X34.2887 Y-7.6606
G01 X34.2520 Y-7.6738
G01 X34.2388 Y-7.6794
G01 X34.2036 Y-7.6963
G01 X34.1700 Y-7.7162
G01 X34.1541 Y-7.7268
G01 X34.1229 Y-7.7502
G01 X34.0869 Y-7.7829
G01 X31.2929 Y-10.5769
G01 X31.2665 Y-10.6056
G01 X31.2544 Y-10.6204
G01 X31.2313 Y-10.6519
G01 X31.2086 Y-10.6894
G01 X31.2020 Y-10.7021
G01 X31.1855 Y-10.7377
G01 X31.1706 Y-10.7787
G01 X31.1666 Y-10.7925
G01 X31.1574 Y-10.8304
G01 X31.1514 Y-10.8690
G01 X31.1498 Y-10.8832
G01 X31.1479 Y-10.9222
G01 X31.1478 Y-13.0918
G01 X31.0400 Y-13.0918
G01 X31.0399 Y-12.9822
G01 X31.0395 Y-12.9727
G01 X31.0379 Y-12.9584
G01 X31.0342 Y-12.9396
G01 X31.0286 Y-12.9213
G01 X31.0213 Y-12.9036
G01 X31.0170 Y-12.8951
G01 X31.0097 Y-12.8827
G01 X31.0016 Y-12.8708
G01 X30.9957 Y-12.8633
G01 X30.9895 Y-12.8560
G01 X30.9795 Y-12.8458
G01 X30.9724 Y-12.8393
G01 X30.9612 Y-12.8304
G01 X30.9493 Y-12.8223
G01 X30.9411 Y-12.8173
G01 X30.9284 Y-12.8107
G01 X30.9196 Y-12.8068
G01 X30.9107 Y-12.8034
G01 X30.8970 Y-12.7991
G01 X30.8877 Y-12.7967
G01 X30.8736 Y-12.7941
G01 X30.8593 Y-12.7925
G01 X30.8498 Y-12.7921
G01 X26.3402 Y-12.7921
G01 X26.3259 Y-12.7929
G01 X26.3070 Y-12.7957
G01 X26.2930 Y-12.7991
G01 X26.2748 Y-12.8051
G01 X26.2616 Y-12.8107
G01 X26.2489 Y-12.8173
G01 X26.2327 Y-12.8276
G01 X26.2213 Y-12.8363
G01 X26.2071 Y-12.8491
G01 X26.1973 Y-12.8596
G01 X26.1884 Y-12.8708
G01 X26.1777 Y-12.8868
G01 X26.1708 Y-12.8993
G01 X26.1648 Y-12.9124
G01 X26.1598 Y-12.9258
G01 X26.1547 Y-12.9443
G01 X26.1515 Y-12.9631
G01 X26.1502 Y-12.9774
G01 X26.1500 Y-12.9870
G01 X26.1500 Y-14.1870
G01 X26.1509 Y-14.2061
G01 X26.1529 Y-14.2203
G01 X26.1558 Y-14.2344
G01 X26.1598 Y-14.2482
G01 X26.1648 Y-14.2616
G01 X26.1708 Y-14.2747
G01 X26.1777 Y-14.2872
G01 X26.1884 Y-14.3032
G01 X26.1973 Y-14.3144
G01 X26.2071 Y-14.3249
G01 X26.2176 Y-14.3347
G01 X26.2288 Y-14.3436
G01 X26.2448 Y-14.3543
G01 X26.2573 Y-14.3612
G01 X26.2748 Y-14.3689
G01 X26.2884 Y-14.3736
G01 X26.3023 Y-14.3773
G01 X26.3211 Y-14.3805
G01 X26.3307 Y-14.3815
G01 X26.3450 Y-14.3820
G01 X30.8450 Y-14.3820
G01 X30.8593 Y-14.3815
G01 X30.8783 Y-14.3791
G01 X30.8877 Y-14.3773
G01 X30.9016 Y-14.3736
G01 X30.9107 Y-14.3706
G01 X30.9240 Y-14.3653
G01 X30.9369 Y-14.3590
G01 X30.9452 Y-14.3543
G01 X30.9573 Y-14.3464
G01 X30.9650 Y-14.3407
G01 X30.9760 Y-14.3315
G01 X30.9829 Y-14.3249
G01 X30.9895 Y-14.3180
G01 X30.9987 Y-14.3070
G01 X31.0044 Y-14.2993
G01 X31.0123 Y-14.2872
G01 X31.0213 Y-14.2704
G01 X31.0286 Y-14.2527
G01 X31.0316 Y-14.2436
G01 X31.0353 Y-14.2297
G01 X31.0385 Y-14.2109
G01 X31.0398 Y-14.1966
G01 X31.0400 Y-14.1870
G01 X31.0400 Y-14.0821
G00 Z2.0000
G00 X31.2761 Y-14.8370
G01 F60.00
G01 Z-0.0500
G01 F120.00
G01 X31.2941 Y-14.8493
G01 X31.3249 Y-14.8721
G01 X31.3545 Y-14.8964
G01 X31.3688 Y-14.9091
G01 X31.3965 Y-14.9355
G01 X31.4099 Y-14.9492
G01 X31.4356 Y-14.9775
G01 X31.4597 Y-15.0068
G01 X34.2821 Y-15.0071
G01 X34.3307 Y-15.0092
G01 X34.3689 Y-15.0121
G01 X34.3879 Y-15.0142
G01 X34.4360 Y-15.0211
G01 X34.4549 Y-15.0241
G01 X34.4925 Y-15.0316
G01 X34.5582 Y-15.0480
G01 X34.5948 Y-15.0591
G01 X34.6129 Y-15.0654
G01 X34.6581 Y-15.0818
G01 X34.6760 Y-15.0889
G01 X34.7114 Y-15.1046
G01 X34.7552 Y-15.1256
G01 X34.7722 Y-15.1344
G01 X34.7890 Y-15.1436
G01 X34.8308 Y-15.1684
G01 X34.8631 Y-15.1889
G01 X34.8789 Y-15.1997
G01 X34.9181 Y-15.2285
G01 X34.9482 Y-15.2520
G01 X34.9629 Y-15.2644
G01 X34.9991 Y-15.2968
G01 X35.0268 Y-15.3232
G01 X35.8314 Y-16.1278
G01 X35.8314 Y-14.1433
G01 X35.8151 Y-14.1251
G01 X35.7908 Y-14.0955
G01 X35.7534 Y-14.0450
G01 X35.7321 Y-14.0132
G01 X35.7221 Y-13.9969
G01 X35.6999 Y-13.9593
G01 X35.6906 Y-13.9425
G01 X35.6818 Y-13.9255
G01 X35.6629 Y-13.8862
G01 X35.6549 Y-13.8688
G01 X35.6403 Y-13.8334
G01 X35.6191 Y-13.7742
G01 X35.6134 Y-13.7560
G01 X35.6041 Y-13.7227
G01 X35.5599 Y-13.6905
G01 X35.5298 Y-13.6670
G01 X35.5151 Y-13.6546
G01 X35.4789 Y-13.6222
G01 X35.4512 Y-13.5958
G01 X34.9298 Y-13.0741
G01 X34.8970 Y-13.0382
G01 X34.8720 Y-13.0092
G01 X34.8601 Y-12.9943
G01 X34.8292 Y-12.9531
G01 X34.8185 Y-12.9381
G01 X34.7981 Y-12.9074
G01 X34.7636 Y-12.8500
G01 X34.7456 Y-12.8162
G01 X34.7372 Y-12.7990
G01 X34.7166 Y-12.7550
G01 X34.7091 Y-12.7374
G01 X34.6953 Y-12.7016
G01 X34.6791 Y-12.6558
G01 X34.6734 Y-12.6376
G01 X34.6680 Y-12.6192
G01 X34.6560 Y-12.5721
G01 X34.6476 Y-12.5347
G01 X34.6441 Y-12.5159
G01 X34.6367 Y-12.4679
G01 X34.6321 Y-12.4299
G01 X34.6292 Y-12.3917
G01 X34.6271 Y-12.3431
G01 X34.6269 Y-12.3240
G01 X34.6269 Y-9.6570
G01 X34.6271 Y-9.6379
G01 X34.6292 Y-9.5893
G01 X34.6321 Y-9.5511
G01 X34.6367 Y-9.5131
G01 X34.6411 Y-9.4840
G01 X34.6468 Y-9.4508
G01 X32.7231 Y-11.3744
G01 X32.7231 Y-13.5870
G01 X32.7229 Y-13.6061
G01 X32.7208 Y-13.6547
G01 X32.7179 Y-13.6929
G01 X32.7158 Y-13.7119
G01 X32.7089 Y-13.7600
G01 X32.7024 Y-13.7977
G01 X32.6984 Y-13.8165
G01 X32.6868 Y-13.8637
G01 X32.6820 Y-13.8822
G01 X32.6709 Y-13.9188
G01 X32.6547 Y-13.9646
G01 X32.6409 Y-14.0004
G01 X32.6334 Y-14.0180
G01 X32.6128 Y-14.0620
G01 X32.6044 Y-14.0792
G01 X32.5864 Y-14.1130
G01 X32.5516 Y-14.1711
G01 X32.5303 Y-14.2029
G01 X32.5191 Y-14.2184
G01 X32.4899 Y-14.2573
G01 X32.4780 Y-14.2722
G01 X32.4530 Y-14.3012
G01 X32.4202 Y-14.3371
G01 X32.3931 Y-14.3642
G01 X32.3791 Y-14.3772
G01 X32.3429 Y-14.4096
G01 X32.3282 Y-14.4220
G01 X32.2981 Y-14.4455
G01 X32.2571 Y-14.4755
G01 X32.2419 Y-14.4859
G01 X32.2108 Y-14.5056
G01 X32.1690 Y-14.5304
G01 X32.1522 Y-14.5396
G01 X32.1180 Y-14.5568
G01 X32.0740 Y-14.5774
G01 X32.0386 Y-14.5920
G01 X31.9929 Y-14.6086
G01 X31.9566 Y-14.6206
G01 X31.9197 Y-14.6308
G01 X31.8725 Y-14.6424
G01 X31.8349 Y-14.6499
G01 X31.7869 Y-14.6573
G01 X31.7489 Y-14.6619
G01 X31.7298 Y-14.6636
G01 X31.6813 Y-14.6662
G01 X31.6430 Y-14.6671
G01 X31.4597 Y-14.6671
G01 X31.4356 Y-14.6965
G01 X31.4099 Y-14.7248
G01 X31.3965 Y-14.7385
G01 X31.3688 Y-14.7649
G01 X31.3398 Y-14.7899
G01 X31.3249 Y-14.8019
G01 X31.2941 Y-14.8247
G01 X31.2761 Y-14.8370
G00 Z2.0000
G00 X32.0426 Y-17.1671
G01 F60.00
G01 Z-0.0500
G01 F120.00
G01 X31.4597 Y-17.1671
G01 X31.4356 Y-17.1965
G01 X31.4099 Y-17.2248
G01 X31.3965 Y-17.2385
G01 X31.3688 Y-17.2649
G01 X31.3398 Y-17.2899
G01 X31.3249 Y-17.3019
G01 X31.2941 Y-17.3247
G01 X31.2761 Y-17.3370
G01 X31.2941 Y-17.3493
G01 X31.3249 Y-17.3721
G01 X31.3545 Y-17.3964
G01 X31.3688 Y-17.4091
G01 X31.3965 Y-17.4355
G01 X31.4099 Y-17.4492
G01 X31.4356 Y-17.4775
G01 X31.4597 Y-17.5069
G01 X31.7238 Y-17.5069
G01 X31.7675 Y-17.4480
G01 X31.7910 Y-17.4178
G01 X31.8160 Y-17.3888
G01 X31.8950 Y-17.3021
G01 X31.9084 Y-17.2884
G01 X31.9361 Y-17.2620
G01 X32.0088 Y-17.1960
G01 X32.0231 Y-17.1834
G01 X32.0426 Y-17.1671
G00 Z2.0000
G00 X31.0400 Y-19.1870
G01 F60.00
G01 Z-0.0500
G01 F120.00
G01 X31.0400 Y-19.0821
G01 X32.0995 Y-19.0821
G01 X32.1109 Y-19.1061
G01 X32.1154 Y-19.1145
G01 X32.1683 Y-19.2028
G01 X32.1761 Y-19.2149
G01 X32.2433 Y-19.3051
G01 X32.3154 Y-19.3851
G01 X32.3254 Y-19.3953
G01 X32.4089 Y-19.4707
G01 X32.5031 Y-19.5406
G01 X32.6037 Y-19.6009
G01 X32.7053 Y-19.6492
G01 X32.7186 Y-19.6545
G01 X32.8201 Y-19.6905
G01 X32.9245 Y-19.7169
G01 X32.9433 Y-19.7207
G01 X33.0404 Y-19.7351
G01 X33.0594 Y-19.7369
G01 X33.1670 Y-19.7420
G01 X33.2841 Y-19.7362
G01 X33.4001 Y-19.7190
G01 X33.5135 Y-19.6907
G01 X33.5230 Y-19.6875
G01 X33.6243 Y-19.6510
G01 X33.7303 Y-19.6009
G01 X33.8309 Y-19.5406
G01 X33.9251 Y-19.4707
G01 X34.0120 Y-19.3920
G01 X34.0907 Y-19.3051
G01 X34.1606 Y-19.2109
G01 X34.2209 Y-19.1103
G01 X34.2711 Y-19.0042
G01 X34.3105 Y-18.8939
G01 X34.3390 Y-18.7801
G01 X34.3562 Y-18.6641
G01 X34.3620 Y-18.5470
G01 X34.3562 Y-18.4299
G01 X34.3390 Y-18.3139
G01 X34.3105 Y-18.2001
G01 X34.2745 Y-18.0986
G01 X34.2672 Y-18.0809
G01 X34.2209 Y-17.9837
G01 X34.1606 Y-17.8831
G01 X34.0907 Y-17.7889
G01 X34.0186 Y-17.7089
G01 X34.0051 Y-17.6954
G01 X33.9323 Y-17.6295
G01 X33.9176 Y-17.6174
G01 X33.8309 Y-17.5534
G01 X33.7303 Y-17.4931
G01 X33.6243 Y-17.4430
G01 X33.5230 Y-17.4065
G01 X33.5047 Y-17.4009
G01 X33.4095 Y-17.3771
G01 X33.3907 Y-17.3733
G01 X33.2841 Y-17.3578
G01 X33.1718 Y-17.3521
G01 X33.1574 Y-17.3522
G01 X33.0594 Y-17.3571
G01 X33.0404 Y-17.3589
G01 X32.9339 Y-17.3750
G01 X32.8201 Y-17.4035
G01 X32.7186 Y-17.4395
G01 X32.7009 Y-17.4468
G01 X32.6037 Y-17.4931
G01 X32.5031 Y-17.5534
G01 X32.4089 Y-17.6233
G01 X32.3289 Y-17.6954
G01 X32.3154 Y-17.7089
G01 X32.2433 Y-17.7889
G01 X32.1734 Y-17.8831
G01 X32.1178 Y-17.9754
G01 X32.1088 Y-17.9922
G01 X32.0668 Y-18.0809
G01 X32.0621 Y-18.0919
G01 X31.0400 Y-18.0918
G01 X31.0399 Y-17.9822
G01 X31.0395 Y-17.9727
G01 X31.0379 Y-17.9584
G01 X31.0342 Y-17.9396
G01 X31.0286 Y-17.9213
G01 X31.0213 Y-17.9036
G01 X31.0147 Y-17.8909
G01 X31.0097 Y-17.8827
G01 X31.0016 Y-17.8708
G01 X30.9957 Y-17.8633
G01 X30.9895 Y-17.8560
G01 X30.9795 Y-17.8458
G01 X30.9724 Y-17.8393
G01 X30.9612 Y-17.8304
G01 X30.9533 Y-17.8249
G01 X30.9411 Y-17.8173
G01 X30.9284 Y-17.8107
G01 X30.9196 Y-17.8068
G01 X30.9107 Y-17.8034
G01 X30.8970 Y-17.7991
G01 X30.8877 Y-17.7967
G01 X30.8736 Y-17.7941
G01 X30.8593 Y-17.7925
G01 X30.8498 Y-17.7921
G01 X26.3402 Y-17.7921
G01 X26.3259 Y-17.7929
G01 X26.3117 Y-17.7949
G01 X26.2976 Y-17.7978
G01 X26.2793 Y-17.8034
G01 X26.2660 Y-17.8087
G01 X26.2531 Y-17.8150
G01 X26.2367 Y-17.8249
G01 X26.2250 Y-17.8333
G01 X26.2105 Y-17.8458
G01 X26.2005 Y-17.8560
G01 X26.1913 Y-17.8670
G01 X26.1829 Y-17.8787
G01 X26.1730 Y-17.8951
G01 X26.1667 Y-17.9080
G01 X26.1614 Y-17.9213
G01 X26.1558 Y-17.9396
G01 X26.1529 Y-17.9537
G01 X26.1515 Y-17.9631
G01 X26.1502 Y-17.9774
G01 X26.1500 Y-17.9870
G01 X26.1500 Y-19.1870
G01 X26.1509 Y-19.2061
G01 X26.1529 Y-19.2203
G01 X26.1558 Y-19.2344
G01 X26.1598 Y-19.2482
G01 X26.1648 Y-19.2616
G01 X26.1708 Y-19.2747
G01 X26.1777 Y-19.2872
G01 X26.1884 Y-19.3032
G01 X26.1973 Y-19.3144
G01 X26.2071 Y-19.3249
G01 X26.2176 Y-19.3347
G01 X26.2288 Y-19.3436
G01 X26.2407 Y-19.3517
G01 X26.2531 Y-19.3590
G01 X26.2660 Y-19.3653
G01 X26.2838 Y-19.3722
G01 X26.2976 Y-19.3762
G01 X26.3117 Y-19.3791
G01 X26.3211 Y-19.3805
G01 X26.3354 Y-19.3818
G01 X26.3450 Y-19.3820
G01 X30.8546 Y-19.3818
G01 X30.8736 Y-19.3799
G01 X30.8877 Y-19.3773
G01 X30.9062 Y-19.3722
G01 X30.9240 Y-19.3653
G01 X30.9411 Y-19.3567
G01 X30.9573 Y-19.3464
G01 X30.9724 Y-19.3347
G01 X30.9862 Y-19.3215
G01 X30.9987 Y-19.3070
G01 X31.0097 Y-19.2913
G01 X31.0192 Y-19.2747
G01 X31.0252 Y-19.2616
G01 X31.0316 Y-19.2436
G01 X31.0363 Y-19.2250
G01 X31.0391 Y-19.2061
G01 X31.0400 Y-19.1870
G00 Z2.0000
G00 X31.2761 Y-19.8370
G01 F60.00
G01 Z-0.0500
G01 F120.00
G01 X31.2941 Y-19.8493
G01 X31.3249 Y-19.8721
G01 X31.3545 Y-19.8964
G01 X31.3688 Y-19.9091
G01 X31.3965 Y-19.9355
G01 X31.4099 Y-19.9492
G01 X31.4356 Y-19.9775
G01 X31.4597 Y-20.0069
G01 X32.0506 Y-20.0069
G01 X32.0868 Y-19.9987
G01 X32.1056 Y-19.9952
G01 X32.1287 Y-19.9916
G01 X32.0680 Y-19.9465
G01 X32.0378 Y-19.9230
G01 X32.0088 Y-19.8980
G01 X31.9221 Y-19.8190
G01 X31.9084 Y-19.8056
G01 X31.8820 Y-19.7779
G01 X31.8160 Y-19.7052
G01 X31.8034 Y-19.6909
G01 X31.7838 Y-19.6671
G01 X31.4597 Y-19.6671
G01 X31.4356 Y-19.6965
G01 X31.4099 Y-19.7248
G01 X31.3965 Y-19.7385
G01 X31.3688 Y-19.7649
G01 X31.3398 Y-19.7899
G01 X31.3249 Y-19.8019
G01 X31.2941 Y-19.8247
G01 X31.2761 Y-19.8370
G00 Z2.0000
G00 X31.0400 Y-21.6870
G01 F60.00
G01 Z-0.0500
G01 F120.00
G01 X31.0400 Y-21.5821
G01 X31.9775 Y-21.5821
G01 X31.9789 Y-21.5946
G01 X31.9950 Y-21.7011
G01 X32.0233 Y-21.8145
G01 X32.0265 Y-21.8240
G01 X32.0630 Y-21.9253
G01 X32.1131 Y-22.0313
G01 X32.1734 Y-22.1319
G01 X32.2433 Y-22.2261
G01 X32.3220 Y-22.3130
G01 X32.4089 Y-22.3917
G01 X32.5031 Y-22.4616
G01 X32.6037 Y-22.5219
G01 X32.7098 Y-22.5721
G01 X32.8201 Y-22.6115
G01 X32.9339 Y-22.6400
G01 X33.0499 Y-22.6572
G01 X33.1670 Y-22.6630
G01 X33.2841 Y-22.6572
G01 X33.4001 Y-22.6400
G01 X33.5135 Y-22.6117
G01 X33.5230 Y-22.6085
G01 X33.6243 Y-22.5720
G01 X33.7303 Y-22.5219
G01 X33.8309 Y-22.4616
G01 X33.9251 Y-22.3917
G01 X34.0120 Y-22.3130
G01 X34.0907 Y-22.2261
G01 X34.1606 Y-22.1319
G01 X34.2209 Y-22.0313
G01 X34.2711 Y-21.9252
G01 X34.3105 Y-21.8149
G01 X34.3390 Y-21.7011
G01 X34.3562 Y-21.5851
G01 X34.3620 Y-21.4680
G01 X34.3562 Y-21.3509
G01 X34.3390 Y-21.2349
G01 X34.3131 Y-21.1303
G01 X34.3075 Y-21.1120
G01 X34.2745 Y-21.0196
G01 X34.2672 Y-21.0019
G01 X34.2209 Y-20.9047
G01 X34.1606 Y-20.8041
G01 X34.0907 Y-20.7099
G01 X34.0120 Y-20.6230
G01 X33.9251 Y-20.5443
G01 X33.8387 Y-20.4799
G01 X33.8228 Y-20.4693
G01 X33.7386 Y-20.4188
G01 X33.7218 Y-20.4098
G01 X33.6243 Y-20.3640
G01 X33.5139 Y-20.3245
G01 X33.4001 Y-20.2960
G01 X33.2889 Y-20.2793
G01 X33.2746 Y-20.2781
G01 X33.1670 Y-20.2730
G01 X33.0499 Y-20.2788
G01 X32.9339 Y-20.2960
G01 X32.8247 Y-20.3231
G01 X32.8110 Y-20.3275
G01 X32.7097 Y-20.3640
G01 X32.6122 Y-20.4098
G01 X32.5995 Y-20.4164
G01 X32.5112 Y-20.4693
G01 X32.4991 Y-20.4771
G01 X32.4126 Y-20.5413
G01 X32.4052 Y-20.5473
G01 X32.3858 Y-20.5649
G01 X32.2732 Y-20.5650
G01 X32.2393 Y-20.5668
G01 X32.2056 Y-20.5716
G01 X32.1916 Y-20.5746
G01 X32.1633 Y-20.5819
G01 X32.1349 Y-20.5919
G01 X31.0400 Y-20.5918
G01 X31.0399 Y-20.4822
G01 X31.0395 Y-20.4727
G01 X31.0379 Y-20.4584
G01 X31.0342 Y-20.4396
G01 X31.0286 Y-20.4213
G01 X31.0213 Y-20.4036
G01 X31.0147 Y-20.3909
G01 X31.0097 Y-20.3827
G01 X31.0016 Y-20.3708
G01 X30.9957 Y-20.3633
G01 X30.9895 Y-20.3560
G01 X30.9795 Y-20.3458
G01 X30.9724 Y-20.3393
G01 X30.9612 Y-20.3304
G01 X30.9533 Y-20.3249
G01 X30.9411 Y-20.3173
G01 X30.9284 Y-20.3107
G01 X30.9196 Y-20.3068
G01 X30.9107 Y-20.3034
G01 X30.8970 Y-20.2991
G01 X30.8877 Y-20.2967
G01 X30.8736 Y-20.2941
G01 X30.8593 Y-20.2925
G01 X30.8498 Y-20.2921
G01 X26.3402 Y-20.2921
G01 X26.3259 Y-20.2929
G01 X26.3117 Y-20.2949
G01 X26.2976 Y-20.2978
G01 X26.2793 Y-20.3034
G01 X26.2660 Y-20.3087
G01 X26.2531 Y-20.3150
G01 X26.2367 Y-20.3249
G01 X26.2250 Y-20.3333
G01 X26.2105 Y-20.3458
G01 X26.2005 Y-20.3560
G01 X26.1913 Y-20.3670
G01 X26.1829 Y-20.3787
G01 X26.1730 Y-20.3951
G01 X26.1667 Y-20.4080
G01 X26.1614 Y-20.4213
G01 X26.1558 Y-20.4396
G01 X26.1529 Y-20.4537
G01 X26.1515 Y-20.4631
G01 X26.1502 Y-20.4774
G01 X26.1500 Y-20.4870
G01 X26.1500 Y-21.6870
G01 X26.1509 Y-21.7061
G01 X26.1529 Y-21.7203
G01 X26.1558 Y-21.7344
G01 X26.1598 Y-21.7482
G01 X26.1648 Y-21.7616
G01 X26.1708 Y-21.7747
G01 X26.1777 Y-21.7872
G01 X26.1884 Y-21.8032
G01 X26.1973 Y-21.8144
G01 X26.2071 Y-21.8249
G01 X26.2176 Y-21.8347
G01 X26.2288 Y-21.8436
G01 X26.2407 Y-21.8517
G01 X26.2531 Y-21.8590
G01 X26.2660 Y-21.8653
G01 X26.2838 Y-21.8722
G01 X26.2976 Y-21.8762
G01 X26.3117 Y-21.8791
G01 X26.3211 Y-21.8805
G01 X26.3354 Y-21.8818
G01 X26.3450 Y-21.8820
G01 X30.8546 Y-21.8818
G01 X30.8736 Y-21.8799
G01 X30.8877 Y-21.8773
G01 X30.9062 Y-21.8722
G01 X30.9240 Y-21.8653
G01 X30.9411 Y-21.8567
G01 X30.9573 Y-21.8464
G01 X30.9724 Y-21.8347
G01 X30.9862 Y-21.8215
G01 X30.9987 Y-21.8070
G01 X31.0097 Y-21.7913
G01 X31.0192 Y-21.7747
G01 X31.0252 Y-21.7616
G01 X31.0316 Y-21.7436
G01 X31.0363 Y-21.7250
G01 X31.0391 Y-21.7061
G01 X31.0400 Y-21.6870
G00 Z2.0000
G00 X34.5384 Y-20.8919
G01 F60.00
G01 Z-0.0500
G01 F120.00
G01 X34.5384 Y-19.1231
G01 X34.5316 Y-19.1381
G01 X34.4844 Y-19.2376
G01 X34.4789 Y-19.2482
G01 X34.4671 Y-19.2690
G01 X34.4166 Y-19.3532
G01 X34.4038 Y-19.3734
G01 X34.3900 Y-19.3930
G01 X34.3316 Y-19.4718
G01 X34.3169 Y-19.4907
G01 X34.3012 Y-19.5088
G01 X34.2353 Y-19.5815
G01 X34.2188 Y-19.5988
G01 X34.2015 Y-19.6153
G01 X34.1288 Y-19.6812
G01 X34.1107 Y-19.6969
G01 X34.0918 Y-19.7116
G01 X34.0130 Y-19.7700
G01 X33.9934 Y-19.7838
G01 X33.9732 Y-19.7966
G01 X33.8890 Y-19.8471
G01 X33.8682 Y-19.8589
G01 X33.8468 Y-19.8696
G01 X33.7581 Y-19.9116
G01 X33.7362 Y-19.9213
G01 X33.7139 Y-19.9299
G01 X33.6197 Y-19.9636
G01 X33.5979 Y-19.9707
G01 X33.5757 Y-19.9768
G01 X33.4805 Y-20.0007
G01 X33.4689 Y-20.0034
G01 X33.4487 Y-20.0075
G01 X33.4689 Y-20.0116
G01 X33.4805 Y-20.0143
G01 X33.5757 Y-20.0382
G01 X33.5988 Y-20.0446
G01 X33.6215 Y-20.0521
G01 X33.7139 Y-20.0851
G01 X33.7362 Y-20.0937
G01 X33.7581 Y-20.1034
G01 X33.8468 Y-20.1454
G01 X33.8682 Y-20.1561
G01 X33.8890 Y-20.1679
G01 X33.9732 Y-20.2184
G01 X33.9934 Y-20.2312
G01 X34.0130 Y-20.2450
G01 X34.0918 Y-20.3034
G01 X34.1107 Y-20.3181
G01 X34.1288 Y-20.3338
G01 X34.2015 Y-20.3997
G01 X34.2188 Y-20.4162
G01 X34.2353 Y-20.4335
G01 X34.3012 Y-20.5062
G01 X34.3169 Y-20.5243
G01 X34.3316 Y-20.5432
G01 X34.3900 Y-20.6220
G01 X34.4038 Y-20.6416
G01 X34.4166 Y-20.6618
G01 X34.4671 Y-20.7460
G01 X34.4789 Y-20.7668
G01 X34.4844 Y-20.7774
G01 X34.5316 Y-20.8769
G01 X34.5384 Y-20.8919
G00 Z2.0000
G00 X34.2459 Y-20.0535
G01 F60.00
G01 Z-0.0500
G01 F120.00
G01 X34.2459 Y-19.9615
G01 X34.1837 Y-20.0075
G01 X34.2459 Y-20.0535
G00 Z2.0000
G00 X34.9199 Y-12.3479
G01 F60.00
G01 Z-0.0500
G01 F120.00
G01 X34.9214 Y-12.3773
G01 X34.9231 Y-12.4012
G01 X34.9261 Y-12.4250
G01 X34.9323 Y-12.4659
G01 X34.9345 Y-12.4777
G01 X34.9397 Y-12.5010
G01 X34.9499 Y-12.5412
G01 X34.9569 Y-12.5640
G01 X34.9707 Y-12.6031
G01 X34.9793 Y-12.6254
G01 X34.9890 Y-12.6473
G01 X35.0068 Y-12.6847
G01 X35.0181 Y-12.7058
G01 X35.0393 Y-12.7414
G01 X35.0516 Y-12.7608
G01 X35.0648 Y-12.7797
G01 X35.0834 Y-12.8048
G01 X35.0981 Y-12.8237
G01 X35.1138 Y-12.8418
G01 X35.1417 Y-12.8724
G01 X35.6666 Y-13.3973
G01 X35.6972 Y-13.4252
G01 X35.7153 Y-13.4409
G01 X35.7342 Y-13.4556
G01 X35.7675 Y-13.4801
G01 X35.7874 Y-13.4934
G01 X35.8229 Y-13.5149
G01 X35.8437 Y-13.5266
G01 X35.8660 Y-13.5378
G01 X35.8716 Y-13.5773
G01 X35.8757 Y-13.6009
G01 X35.8809 Y-13.6242
G01 X35.8869 Y-13.6480
G01 X35.8933 Y-13.6711
G01 X35.9008 Y-13.6938
G01 X35.9090 Y-13.7169
G01 X35.9176 Y-13.7392
G01 X35.9273 Y-13.7611
G01 X35.9378 Y-13.7833
G01 X35.9486 Y-13.8047
G01 X35.9604 Y-13.8255
G01 X35.9730 Y-13.8465
G01 X35.9858 Y-13.8667
G01 X35.9996 Y-13.8863
G01 X36.0142 Y-13.9060
G01 X36.0289 Y-13.9249
G01 X36.0445 Y-13.9430
G01 X36.0610 Y-13.9612
G01 X36.0775 Y-13.9785
G01 X36.0948 Y-13.9950
G01 X36.1239 Y-14.0210
G01 X36.1239 Y-17.6580
G01 X36.1244 Y-17.6819
G01 X36.1266 Y-17.7233
G01 X36.1290 Y-17.7471
G01 X36.1349 Y-17.7881
G01 X36.1390 Y-17.8117
G01 X36.1442 Y-17.8350
G01 X36.1514 Y-17.8636
G01 X36.1578 Y-17.8866
G01 X36.1653 Y-17.9094
G01 X36.1794 Y-17.9483
G01 X36.1885 Y-17.9704
G01 X36.2061 Y-18.0079
G01 X36.2169 Y-18.0293
G01 X36.2286 Y-18.0501
G01 X36.2498 Y-18.0852
G01 X36.2626 Y-18.1043
G01 X36.2952 Y-18.1483
G01 X36.3096 Y-18.1660
G01 X36.2952 Y-18.1837
G01 X36.2704 Y-18.2168
G01 X36.2566 Y-18.2364
G01 X36.2438 Y-18.2566
G01 X36.2226 Y-18.2922
G01 X36.2113 Y-18.3133
G01 X36.1935 Y-18.3507
G01 X36.1836 Y-18.3731
G01 X36.1752 Y-18.3949
G01 X36.1653 Y-18.4226
G01 X36.1578 Y-18.4454
G01 X36.1514 Y-18.4684
G01 X36.1415 Y-18.5086
G01 X36.1368 Y-18.5321
G01 X36.1306 Y-18.5730
G01 X36.1276 Y-18.5968
G01 X36.1259 Y-18.6207
G01 X36.1244 Y-18.6501
G01 X36.1239 Y-18.6740
G01 X36.1240 Y-21.6685
G01 X36.1259 Y-21.7098
G01 X36.1276 Y-21.7337
G01 X36.1306 Y-21.7575
G01 X36.1349 Y-21.7866
G01 X36.1390 Y-21.8102
G01 X36.1442 Y-21.8335
G01 X36.1514 Y-21.8621
G01 X36.1578 Y-21.8851
G01 X36.1653 Y-21.9079
G01 X36.1794 Y-21.9468
G01 X36.1885 Y-21.9689
G01 X36.2113 Y-22.0172
G01 X36.2226 Y-22.0383
G01 X36.2438 Y-22.0739
G01 X36.2561 Y-22.0933
G01 X36.2704 Y-22.1137
G01 X36.2952 Y-22.1468
G01 X36.3026 Y-22.1562
G01 X36.3174 Y-22.1733
G01 X36.3092 Y-22.2023
G01 X36.2853 Y-22.2975
G01 X36.2801 Y-22.3208
G01 X36.2760 Y-22.3444
G01 X36.2616 Y-22.4415
G01 X36.2587 Y-22.4652
G01 X36.2569 Y-22.4891
G01 X36.2521 Y-22.5871
G01 X36.2515 Y-22.6110
G01 X36.2521 Y-22.6349
G01 X36.2569 Y-22.7329
G01 X36.2587 Y-22.7568
G01 X36.2616 Y-22.7805
G01 X36.2760 Y-22.8776
G01 X36.2801 Y-22.9012
G01 X36.2853 Y-22.9245
G01 X36.3092 Y-23.0197
G01 X36.3121 Y-23.0308
G01 X36.3187 Y-23.0528
G01 X36.3561 Y-23.1579
G01 X36.3647 Y-23.1802
G01 X36.3744 Y-23.2021
G01 X36.4164 Y-23.2908
G01 X36.4216 Y-23.3016
G01 X36.4329 Y-23.3227
G01 X36.4957 Y-23.4274
G01 X36.5022 Y-23.4374
G01 X36.5160 Y-23.4570
G01 X36.5744 Y-23.5358
G01 X36.5891 Y-23.5547
G01 X36.6048 Y-23.5728
G01 X36.6707 Y-23.6455
G01 X36.6872 Y-23.6628
G01 X36.7045 Y-23.6793
G01 X36.7772 Y-23.7452
G01 X36.7953 Y-23.7609
G01 X36.8142 Y-23.7756
G01 X36.8930 Y-23.8340
G01 X36.9126 Y-23.8478
G01 X36.9328 Y-23.8606
G01 X37.0170 Y-23.9111
G01 X37.0378 Y-23.9229
G01 X37.0592 Y-23.9336
G01 X37.1479 Y-23.9756
G01 X37.1700 Y-23.9854
G01 X37.1921 Y-23.9939
G01 X37.2845 Y-24.0269
G01 X37.3072 Y-24.0344
G01 X37.3303 Y-24.0408
G01 X37.4255 Y-24.0647
G01 X37.4371 Y-24.0674
G01 X37.4606 Y-24.0721
G01 X37.5695 Y-24.0884
G01 X37.5932 Y-24.0913
G01 X37.6171 Y-24.0931
G01 X37.7151 Y-24.0979
G01 X37.7390 Y-24.0985
G01 X37.7629 Y-24.0979
G01 X37.8609 Y-24.0931
G01 X37.8848 Y-24.0913
G01 X37.8967 Y-24.0900
G01 X38.0056 Y-24.0740
G01 X38.0292 Y-24.0699
G01 X38.0525 Y-24.0647
G01 X38.1477 Y-24.0408
G01 X38.1699 Y-24.0347
G01 X38.1935 Y-24.0269
G01 X38.2859 Y-23.9939
G01 X38.3082 Y-23.9853
G01 X38.3301 Y-23.9756
G01 X38.4188 Y-23.9336
G01 X38.4402 Y-23.9229
G01 X38.4610 Y-23.9111
G01 X38.5452 Y-23.8606
G01 X38.5654 Y-23.8478
G01 X38.5850 Y-23.8340
G01 X38.6638 Y-23.7756
G01 X38.6827 Y-23.7609
G01 X38.7008 Y-23.7452
G01 X38.7735 Y-23.6793
G01 X38.7908 Y-23.6628
G01 X38.8073 Y-23.6455
G01 X38.8732 Y-23.5728
G01 X38.8889 Y-23.5547
G01 X38.9036 Y-23.5358
G01 X38.9620 Y-23.4570
G01 X38.9758 Y-23.4374
G01 X38.9886 Y-23.4172
G01 X39.0391 Y-23.3330
G01 X39.0509 Y-23.3122
G01 X39.0616 Y-23.2908
G01 X39.1036 Y-23.2021
G01 X39.1134 Y-23.1800
G01 X39.1219 Y-23.1579
G01 X39.1549 Y-23.0655
G01 X39.1624 Y-23.0428
G01 X39.1688 Y-23.0197
G01 X39.1927 Y-22.9245
G01 X39.1979 Y-22.9012
G01 X39.2020 Y-22.8776
G01 X39.2164 Y-22.7805
G01 X39.2193 Y-22.7568
G01 X39.2211 Y-22.7329
G01 X39.2259 Y-22.6349
G01 X39.2265 Y-22.6110
G01 X39.2259 Y-22.5871
G01 X39.2211 Y-22.4891
G01 X39.2193 Y-22.4652
G01 X39.2164 Y-22.4415
G01 X39.2020 Y-22.3444
G01 X39.1979 Y-22.3208
G01 X39.1927 Y-22.2975
G01 X39.1688 Y-22.2023
G01 X39.1624 Y-22.1792
G01 X39.1549 Y-22.1565
G01 X39.1219 Y-22.0641
G01 X39.1133 Y-22.0418
G01 X39.1036 Y-22.0199
G01 X39.0616 Y-21.9312
G01 X39.0509 Y-21.9098
G01 X39.0391 Y-21.8890
G01 X38.9886 Y-21.8048
G01 X38.9758 Y-21.7846
G01 X38.9620 Y-21.7650
G01 X38.9036 Y-21.6862
G01 X38.8889 Y-21.6673
G01 X38.8732 Y-21.6492
G01 X38.8073 Y-21.5765
G01 X38.7908 Y-21.5592
G01 X38.7735 Y-21.5427
G01 X38.6918 Y-21.4689
G01 X38.6827 Y-21.4611
G01 X38.6638 Y-21.4464
G01 X38.5850 Y-21.3880
G01 X38.5654 Y-21.3742
G01 X38.5452 Y-21.3614
G01 X38.4610 Y-21.3109
G01 X38.4402 Y-21.2991
G01 X38.4188 Y-21.2884
G01 X38.3301 Y-21.2464
G01 X38.3082 Y-21.2367
G01 X38.2859 Y-21.2281
G01 X38.1935 Y-21.1951
G01 X38.1822 Y-21.1912
G01 X38.1593 Y-21.1842
G01 X38.0409 Y-21.1546
G01 X38.0174 Y-21.1499
G01 X38.0056 Y-21.1480
G01 X37.9085 Y-21.1336
G01 X37.8848 Y-21.1307
G01 X37.8729 Y-21.1296
G01 X37.7629 Y-21.1241
G01 X37.7390 Y-21.1235
G01 X37.7270 Y-21.1236
G01 X37.6991 Y-21.1249
G01 X37.6992 Y-19.5285
G01 X37.7440 Y-19.5284
G01 X37.7924 Y-19.5260
G01 X37.8162 Y-19.5236
G01 X37.8641 Y-19.5165
G01 X37.8876 Y-19.5119
G01 X37.9346 Y-19.5001
G01 X37.9575 Y-19.4931
G01 X38.0031 Y-19.4768
G01 X38.0252 Y-19.4676
G01 X38.0690 Y-19.4469
G01 X38.0901 Y-19.4356
G01 X38.1317 Y-19.4107
G01 X38.1516 Y-19.3974
G01 X38.1905 Y-19.3686
G01 X38.2090 Y-19.3534
G01 X38.2449 Y-19.3208
G01 X38.2618 Y-19.3039
G01 X38.2944 Y-19.2680
G01 X38.3096 Y-19.2495
G01 X38.3384 Y-19.2106
G01 X38.3517 Y-19.1907
G01 X38.3766 Y-19.1491
G01 X38.3879 Y-19.1280
G01 X38.4086 Y-19.0842
G01 X38.4178 Y-19.0621
G01 X38.4341 Y-19.0165
G01 X38.4411 Y-18.9936
G01 X38.4529 Y-18.9466
G01 X38.4575 Y-18.9231
G01 X38.4647 Y-18.8744
G01 X38.4672 Y-18.8489
G01 X38.4694 Y-18.8030
G01 X38.4694 Y-17.5290
G01 X38.4677 Y-17.4926
G01 X38.4659 Y-17.4687
G01 X38.4630 Y-17.4450
G01 X38.4594 Y-17.4207
G01 X38.4553 Y-17.3971
G01 X38.4501 Y-17.3738
G01 X38.4441 Y-17.3500
G01 X38.4377 Y-17.3269
G01 X38.4302 Y-17.3042
G01 X38.4178 Y-17.2699
G01 X38.4086 Y-17.2478
G01 X38.3932 Y-17.2147
G01 X38.3824 Y-17.1933
G01 X38.3706 Y-17.1725
G01 X38.3517 Y-17.1413
G01 X38.3384 Y-17.1214
G01 X38.3168 Y-17.0920
G01 X38.3021 Y-17.0731
G01 X38.2865 Y-17.0550
G01 X38.2618 Y-17.0281
G01 X38.2449 Y-17.0112
G01 X38.2180 Y-16.9865
G01 X38.1999 Y-16.9709
G01 X38.1810 Y-16.9562
G01 X38.1516 Y-16.9346
G01 X38.1317 Y-16.9213
G01 X38.1005 Y-16.9024
G01 X38.0797 Y-16.8906
G01 X38.0583 Y-16.8798
G01 X38.0252 Y-16.8644
G01 X38.0031 Y-16.8552
G01 X37.9688 Y-16.8428
G01 X37.9461 Y-16.8353
G01 X37.9346 Y-16.8319
G01 X37.8992 Y-16.8229
G01 X37.8759 Y-16.8177
G01 X37.8523 Y-16.8136
G01 X37.8162 Y-16.8084
G01 X37.7924 Y-16.8060
G01 X37.7559 Y-16.8041
G01 X37.7320 Y-16.8035
G01 X37.6991 Y-16.8035
G01 X37.6992 Y-14.0210
G01 X37.7282 Y-13.9950
G01 X37.7455 Y-13.9785
G01 X37.7620 Y-13.9612
G01 X37.7785 Y-13.9430
G01 X37.7941 Y-13.9249
G01 X37.8088 Y-13.9060
G01 X37.8234 Y-13.8863
G01 X37.8372 Y-13.8667
G01 X37.8500 Y-13.8465
G01 X37.8626 Y-13.8255
G01 X37.8744 Y-13.8047
G01 X37.8852 Y-13.7833
G01 X37.8957 Y-13.7611
G01 X37.9054 Y-13.7392
G01 X37.9140 Y-13.7169
G01 X37.9261 Y-13.6825
G01 X37.9331 Y-13.6596
G01 X37.9449 Y-13.6126
G01 X37.9495 Y-13.5891
G01 X37.9550 Y-13.5530
G01 X37.9581 Y-13.5276
G01 X37.9592 Y-13.5149
G01 X37.9609 Y-13.4809
G01 X37.9615 Y-13.4570
G01 X37.9615 Y-12.2070
G01 X37.9609 Y-12.1831
G01 X37.9597 Y-12.1586
G01 X37.9579 Y-12.1347
G01 X37.9550 Y-12.1110
G01 X37.9495 Y-12.0749
G01 X37.9449 Y-12.0514
G01 X37.9421 Y-12.0398
G01 X37.9361 Y-12.0160
G01 X37.9297 Y-11.9929
G01 X37.9222 Y-11.9702
G01 X37.9098 Y-11.9359
G01 X37.9054 Y-11.9248
G01 X37.8957 Y-11.9029
G01 X37.8852 Y-11.8807
G01 X37.8744 Y-11.8593
G01 X37.8626 Y-11.8385
G01 X37.8437 Y-11.8073
G01 X37.8372 Y-11.7973
G01 X37.8234 Y-11.7777
G01 X37.8088 Y-11.7580
G01 X37.7941 Y-11.7391
G01 X37.7785 Y-11.7210
G01 X37.7538 Y-11.6941
G01 X37.7369 Y-11.6772
G01 X37.7282 Y-11.6690
G01 X37.7100 Y-11.6525
G01 X37.6919 Y-11.6369
G01 X37.6730 Y-11.6222
G01 X37.6436 Y-11.6006
G01 X37.6237 Y-11.5873
G01 X37.6135 Y-11.5810
G01 X37.5925 Y-11.5684
G01 X37.5717 Y-11.5566
G01 X37.5503 Y-11.5458
G01 X37.5172 Y-11.5304
G01 X37.4951 Y-11.5212
G01 X37.4495 Y-11.5049
G01 X37.4266 Y-11.4979
G01 X37.3912 Y-11.4889
G01 X37.3679 Y-11.4837
G01 X37.3443 Y-11.4796
G01 X37.3082 Y-11.4744
G01 X37.2963 Y-11.4731
G01 X37.2724 Y-11.4713
G01 X37.2479 Y-11.4701
G01 X37.2240 Y-11.4695
G01 X36.5990 Y-11.4695
G01 X36.5751 Y-11.4701
G01 X36.5386 Y-11.4720
G01 X36.5148 Y-11.4744
G01 X36.4946 Y-11.4772
G01 X36.4946 Y-10.1906
G01 X43.5087 Y-10.1906
G01 X43.8095 Y-10.4914
G01 X43.8095 Y-10.7525
G01 X43.8096 Y-10.7645
G01 X43.8108 Y-10.7911
G01 X43.8126 Y-10.8153
G01 X43.7970 Y-10.8150
G01 X43.4970 Y-10.8150
G01 X43.4731 Y-10.8156
G01 X43.4464 Y-10.8170
G01 X43.4345 Y-10.8181
G01 X43.4226 Y-10.8194
G01 X43.3962 Y-10.8232
G01 X43.3844 Y-10.8251
G01 X43.3609 Y-10.8297
G01 X43.3234 Y-10.8391
G01 X43.3005 Y-10.8461
G01 X43.2754 Y-10.8549
G01 X43.2530 Y-10.8635
G01 X43.2312 Y-10.8732
G01 X43.2071 Y-10.8848
G01 X43.1860 Y-10.8960
G01 X43.1630 Y-10.9096
G01 X43.1428 Y-10.9224
G01 X43.1233 Y-10.9362
G01 X43.1019 Y-10.9522
G01 X43.0834 Y-10.9674
G01 X43.0745 Y-10.9753
G01 X43.0548 Y-10.9934
G01 X43.0379 Y-11.0103
G01 X43.0198 Y-11.0300
G01 X43.0042 Y-11.0481
G01 X42.9967 Y-11.0574
G01 X42.9807 Y-11.0788
G01 X42.9669 Y-11.0983
G01 X42.9604 Y-11.1084
G01 X42.9405 Y-11.1415
G01 X42.9348 Y-11.1520
G01 X42.9240 Y-11.1734
G01 X42.9127 Y-11.1975
G01 X42.9080 Y-11.2085
G01 X42.9036 Y-11.2196
G01 X42.8945 Y-11.2447
G01 X42.8873 Y-11.2662
G01 X42.8841 Y-11.2771
G01 X42.8742 Y-11.3164
G01 X42.8696 Y-11.3399
G01 X42.8639 Y-11.3781
G01 X42.8615 Y-11.4019
G01 X42.8601 Y-11.4286
G01 X42.8595 Y-11.4525
G01 X42.8595 Y-11.7136
G01 X42.5287 Y-12.0444
G01 X40.8682 Y-12.0443
G01 X40.8611 Y-12.0160
G01 X40.8547 Y-11.9929
G01 X40.8472 Y-11.9702
G01 X40.8390 Y-11.9471
G01 X40.8304 Y-11.9248
G01 X40.8256 Y-11.9138
G01 X40.8049 Y-11.8700
G01 X40.7936 Y-11.8489
G01 X40.7876 Y-11.8385
G01 X40.7750 Y-11.8175
G01 X40.7622 Y-11.7973
G01 X40.7484 Y-11.7777
G01 X40.7338 Y-11.7580
G01 X40.7266 Y-11.7485
G01 X40.7114 Y-11.7300
G01 X40.6788 Y-11.6941
G01 X40.6619 Y-11.6772
G01 X40.6532 Y-11.6690
G01 X40.6350 Y-11.6525
G01 X40.6169 Y-11.6369
G01 X40.5980 Y-11.6222
G01 X40.5783 Y-11.6076
G01 X40.5587 Y-11.5938
G01 X40.5487 Y-11.5873
G01 X40.5071 Y-11.5624
G01 X40.4967 Y-11.5566
G01 X40.4753 Y-11.5458
G01 X40.4531 Y-11.5353
G01 X40.4312 Y-11.5256
G01 X40.4089 Y-11.5170
G01 X40.3858 Y-11.5088
G01 X40.3631 Y-11.5013
G01 X40.3400 Y-11.4949
G01 X40.3046 Y-11.4861
G01 X40.2811 Y-11.4815
G01 X40.2450 Y-11.4760
G01 X40.2213 Y-11.4731
G01 X40.1974 Y-11.4713
G01 X40.1729 Y-11.4701
G01 X40.1490 Y-11.4695
G01 X39.5240 Y-11.4695
G01 X39.5001 Y-11.4701
G01 X39.4636 Y-11.4720
G01 X39.4398 Y-11.4744
G01 X39.3919 Y-11.4815
G01 X39.3684 Y-11.4861
G01 X39.3214 Y-11.4979
G01 X39.2985 Y-11.5049
G01 X39.2529 Y-11.5212
G01 X39.2308 Y-11.5304
G01 X39.1870 Y-11.5511
G01 X39.1659 Y-11.5624
G01 X39.1243 Y-11.5873
G01 X39.1044 Y-11.6006
G01 X39.0655 Y-11.6294
G01 X39.0470 Y-11.6446
G01 X39.0111 Y-11.6772
G01 X38.9942 Y-11.6941
G01 X38.9695 Y-11.7210
G01 X38.9539 Y-11.7391
G01 X38.9392 Y-11.7580
G01 X38.9246 Y-11.7777
G01 X38.9108 Y-11.7973
G01 X38.8980 Y-11.8175
G01 X38.8854 Y-11.8385
G01 X38.8736 Y-11.8593
G01 X38.8628 Y-11.8807
G01 X38.8523 Y-11.9029
G01 X38.8426 Y-11.9248
G01 X38.8340 Y-11.9471
G01 X38.8258 Y-11.9702
G01 X38.8183 Y-11.9929
G01 X38.8119 Y-12.0160
G01 X38.8059 Y-12.0398
G01 X38.8007 Y-12.0631
G01 X38.7966 Y-12.0867
G01 X38.7930 Y-12.1110
G01 X38.7901 Y-12.1347
G01 X38.7883 Y-12.1586
G01 X38.7871 Y-12.1831
G01 X38.7865 Y-12.2070
G01 X38.7865 Y-13.4570
G01 X38.7871 Y-13.4809
G01 X38.7883 Y-13.5054
G01 X38.7890 Y-13.5174
G01 X38.7914 Y-13.5412
G01 X38.7985 Y-13.5891
G01 X38.8031 Y-13.6126
G01 X38.8059 Y-13.6242
G01 X38.8119 Y-13.6480
G01 X38.8183 Y-13.6711
G01 X38.8258 Y-13.6938
G01 X38.8340 Y-13.7169
G01 X38.8426 Y-13.7392
G01 X38.8523 Y-13.7611
G01 X38.8628 Y-13.7833
G01 X38.8736 Y-13.8047
G01 X38.8794 Y-13.8151
G01 X38.9043 Y-13.8567
G01 X38.9176 Y-13.8766
G01 X38.9464 Y-13.9155
G01 X38.9616 Y-13.9340
G01 X38.9695 Y-13.9430
G01 X38.9860 Y-13.9612
G01 X39.0025 Y-13.9785
G01 X39.0198 Y-13.9950
G01 X39.0380 Y-14.0115
G01 X39.0561 Y-14.0271
G01 X39.0655 Y-14.0346
G01 X39.0977 Y-14.0586
G01 X39.1044 Y-14.0768
G01 X39.1135 Y-14.0989
G01 X39.1363 Y-14.1472
G01 X39.1476 Y-14.1683
G01 X39.1748 Y-14.2137
G01 X39.1876 Y-14.2328
G01 X39.2202 Y-14.2768
G01 X39.2353 Y-14.2953
G01 X39.2712 Y-14.3349
G01 X40.8884 Y-15.9523
G01 X40.8884 Y-16.8409
G01 X40.8711 Y-16.8353
G01 X40.8480 Y-16.8289
G01 X40.8126 Y-16.8201
G01 X40.7891 Y-16.8155
G01 X40.7530 Y-16.8100
G01 X40.7293 Y-16.8071
G01 X40.7054 Y-16.8053
G01 X40.6809 Y-16.8041
G01 X40.6570 Y-16.8035
G01 X40.0200 Y-16.8036
G01 X39.9836 Y-16.8053
G01 X39.9597 Y-16.8071
G01 X39.9360 Y-16.8100
G01 X39.9117 Y-16.8136
G01 X39.8999 Y-16.8155
G01 X39.8764 Y-16.8201
G01 X39.8294 Y-16.8319
G01 X39.8179 Y-16.8353
G01 X39.7952 Y-16.8428
G01 X39.7721 Y-16.8510
G01 X39.7498 Y-16.8596
G01 X39.7279 Y-16.8693
G01 X39.7057 Y-16.8798
G01 X39.6843 Y-16.8906
G01 X39.6635 Y-16.9024
G01 X39.6425 Y-16.9150
G01 X39.6223 Y-16.9278
G01 X39.6027 Y-16.9416
G01 X39.5830 Y-16.9562
G01 X39.5641 Y-16.9709
G01 X39.5550 Y-16.9786
G01 X39.5191 Y-17.0112
G01 X39.5022 Y-17.0281
G01 X39.4696 Y-17.0640
G01 X39.4619 Y-17.0731
G01 X39.4472 Y-17.0920
G01 X39.4326 Y-17.1117
G01 X39.4188 Y-17.1313
G01 X39.4060 Y-17.1515
G01 X39.3934 Y-17.1725
G01 X39.3816 Y-17.1933
G01 X39.3761 Y-17.2040
G01 X39.3554 Y-17.2478
G01 X39.3462 Y-17.2699
G01 X39.3299 Y-17.3155
G01 X39.3229 Y-17.3384
G01 X39.3111 Y-17.3854
G01 X39.3065 Y-17.4089
G01 X39.2994 Y-17.4568
G01 X39.2970 Y-17.4806
G01 X39.2951 Y-17.5171
G01 X39.2945 Y-17.5410
G01 X39.2946 Y-18.8030
G01 X39.2963 Y-18.8394
G01 X39.2981 Y-18.8633
G01 X39.3010 Y-18.8870
G01 X39.3046 Y-18.9113
G01 X39.3087 Y-18.9349
G01 X39.3111 Y-18.9466
G01 X39.3199 Y-18.9820
G01 X39.3263 Y-19.0051
G01 X39.3338 Y-19.0278
G01 X39.3462 Y-19.0621
G01 X39.3554 Y-19.0842
G01 X39.3603 Y-19.0951
G01 X39.3761 Y-19.1280
G01 X39.3874 Y-19.1491
G01 X39.4060 Y-19.1805
G01 X39.4188 Y-19.2007
G01 X39.4326 Y-19.2203
G01 X39.4472 Y-19.2400
G01 X39.4619 Y-19.2589
G01 X39.4775 Y-19.2770
G01 X39.4940 Y-19.2952
G01 X39.5105 Y-19.3125
G01 X39.5278 Y-19.3290
G01 X39.5460 Y-19.3455
G01 X39.5641 Y-19.3611
G01 X39.5830 Y-19.3758
G01 X39.6124 Y-19.3974
G01 X39.6323 Y-19.4107
G01 X39.6739 Y-19.4356
G01 X39.6950 Y-19.4469
G01 X39.7388 Y-19.4676
G01 X39.7609 Y-19.4768
G01 X39.8065 Y-19.4931
G01 X39.8294 Y-19.5001
G01 X39.8648 Y-19.5091
G01 X39.8764 Y-19.5119
G01 X39.8999 Y-19.5165
G01 X39.9486 Y-19.5237
G01 X39.9741 Y-19.5262
G01 X40.0200 Y-19.5284
G01 X40.6570 Y-19.5285
G01 X40.6809 Y-19.5279
G01 X40.7174 Y-19.5260
G01 X40.7412 Y-19.5236
G01 X40.7773 Y-19.5184
G01 X40.8009 Y-19.5143
G01 X40.8242 Y-19.5091
G01 X40.8596 Y-19.5001
G01 X40.8825 Y-19.4931
G01 X40.9169 Y-19.4810
G01 X40.9392 Y-19.4724
G01 X40.9611 Y-19.4627
G01 X40.9940 Y-19.4469
G01 X41.0151 Y-19.4356
G01 X41.0465 Y-19.4170
G01 X41.0667 Y-19.4042
G01 X41.0863 Y-19.3904
G01 X41.1155 Y-19.3686
G01 X41.1340 Y-19.3534
G01 X41.1612 Y-19.3290
G01 X41.1785 Y-19.3125
G01 X41.1950 Y-19.2952
G01 X41.2194 Y-19.2680
G01 X41.2346 Y-19.2495
G01 X41.2564 Y-19.2203
G01 X41.2702 Y-19.2007
G01 X41.2830 Y-19.1805
G01 X41.3016 Y-19.1491
G01 X41.3129 Y-19.1280
G01 X41.3287 Y-19.0951
G01 X41.3384 Y-19.0732
G01 X41.3470 Y-19.0509
G01 X41.3552 Y-19.0278
G01 X41.3627 Y-19.0051
G01 X41.3691 Y-18.9820
G01 X41.3762 Y-18.9536
G01 X42.3568 Y-18.9537
G01 X42.3639 Y-18.9820
G01 X42.3703 Y-19.0051
G01 X42.3778 Y-19.0278
G01 X42.3860 Y-19.0509
G01 X42.3946 Y-19.0732
G01 X42.3994 Y-19.0842
G01 X42.4201 Y-19.1280
G01 X42.4256 Y-19.1387
G01 X42.4374 Y-19.1595
G01 X42.4500 Y-19.1805
G01 X42.4628 Y-19.2007
G01 X42.4766 Y-19.2203
G01 X42.4912 Y-19.2400
G01 X42.5059 Y-19.2589
G01 X42.5136 Y-19.2680
G01 X42.5462 Y-19.3039
G01 X42.5631 Y-19.3208
G01 X42.5718 Y-19.3290
G01 X42.5900 Y-19.3455
G01 X42.6081 Y-19.3611
G01 X42.6270 Y-19.3758
G01 X42.6467 Y-19.3904
G01 X42.6663 Y-19.4042
G01 X42.6763 Y-19.4107
G01 X42.7179 Y-19.4356
G01 X42.7283 Y-19.4414
G01 X42.7497 Y-19.4522
G01 X42.7719 Y-19.4627
G01 X42.7938 Y-19.4724
G01 X42.8161 Y-19.4810
G01 X42.8505 Y-19.4931
G01 X42.8734 Y-19.5001
G01 X42.9088 Y-19.5091
G01 X42.9321 Y-19.5143
G01 X42.9557 Y-19.5184
G01 X42.9926 Y-19.5237
G01 X43.0181 Y-19.5262
G01 X43.0521 Y-19.5279
G01 X43.0760 Y-19.5285
G01 X43.7130 Y-19.5284
G01 X43.7494 Y-19.5267
G01 X43.7733 Y-19.5249
G01 X43.7970 Y-19.5220
G01 X43.8213 Y-19.5184
G01 X43.8449 Y-19.5143
G01 X43.8682 Y-19.5091
G01 X43.9036 Y-19.5001
G01 X43.9265 Y-19.4931
G01 X43.9609 Y-19.4810
G01 X43.9832 Y-19.4724
G01 X44.0051 Y-19.4627
G01 X44.0380 Y-19.4469
G01 X44.0591 Y-19.4356
G01 X44.0905 Y-19.4170
G01 X44.1107 Y-19.4042
G01 X44.1303 Y-19.3904
G01 X44.1595 Y-19.3686
G01 X44.1780 Y-19.3534
G01 X44.2052 Y-19.3290
G01 X44.2225 Y-19.3125
G01 X44.2390 Y-19.2952
G01 X44.2634 Y-19.2680
G01 X44.2786 Y-19.2495
G01 X44.3004 Y-19.2203
G01 X44.3142 Y-19.2007
G01 X44.3270 Y-19.1805
G01 X44.3456 Y-19.1491
G01 X44.3569 Y-19.1280
G01 X44.3727 Y-19.0951
G01 X44.3824 Y-19.0732
G01 X44.3910 Y-19.0509
G01 X44.4031 Y-19.0165
G01 X44.4101 Y-18.9936
G01 X44.4219 Y-18.9466
G01 X44.4243 Y-18.9349
G01 X44.4284 Y-18.9113
G01 X44.4337 Y-18.8744
G01 X44.4351 Y-18.8616
G01 X44.4367 Y-18.8394
G01 X44.4384 Y-18.8030
G01 X44.4384 Y-17.5290
G01 X44.4360 Y-17.4806
G01 X44.4336 Y-17.4568
G01 X44.4265 Y-17.4089
G01 X44.4243 Y-17.3971
G01 X44.4191 Y-17.3738
G01 X44.4101 Y-17.3384
G01 X44.4067 Y-17.3269
G01 X44.3992 Y-17.3042
G01 X44.3910 Y-17.2811
G01 X44.3824 Y-17.2588
G01 X44.3727 Y-17.2369
G01 X44.3622 Y-17.2147
G01 X44.3514 Y-17.1933
G01 X44.3456 Y-17.1829
G01 X44.3270 Y-17.1515
G01 X44.3142 Y-17.1313
G01 X44.3004 Y-17.1117
G01 X44.2786 Y-17.0825
G01 X44.2634 Y-17.0640
G01 X44.2555 Y-17.0550
G01 X44.2390 Y-17.0368
G01 X44.2225 Y-17.0195
G01 X44.2052 Y-17.0030
G01 X44.1780 Y-16.9786
G01 X44.1689 Y-16.9709
G01 X44.1500 Y-16.9562
G01 X44.1206 Y-16.9346
G01 X44.1007 Y-16.9213
G01 X44.0695 Y-16.9024
G01 X44.0487 Y-16.8906
G01 X44.0273 Y-16.8798
G01 X44.0051 Y-16.8693
G01 X43.9942 Y-16.8644
G01 X43.9721 Y-16.8552
G01 X43.9378 Y-16.8428
G01 X43.9151 Y-16.8353
G01 X43.8920 Y-16.8289
G01 X43.8682 Y-16.8229
G01 X43.8449 Y-16.8177
G01 X43.8331 Y-16.8155
G01 X43.7970 Y-16.8100
G01 X43.7733 Y-16.8071
G01 X43.7494 Y-16.8053
G01 X43.7249 Y-16.8041
G01 X43.7010 Y-16.8035
G01 X43.0640 Y-16.8036
G01 X43.0156 Y-16.8060
G01 X43.0037 Y-16.8071
G01 X42.9800 Y-16.8100
G01 X42.9557 Y-16.8136
G01 X42.9321 Y-16.8177
G01 X42.9088 Y-16.8229
G01 X42.8850 Y-16.8289
G01 X42.8619 Y-16.8353
G01 X42.8392 Y-16.8428
G01 X42.8049 Y-16.8552
G01 X42.7938 Y-16.8596
G01 X42.7719 Y-16.8693
G01 X42.7390 Y-16.8851
G01 X42.7179 Y-16.8964
G01 X42.6763 Y-16.9213
G01 X42.6564 Y-16.9346
G01 X42.6270 Y-16.9562
G01 X42.6081 Y-16.9709
G01 X42.5900 Y-16.9865
G01 X42.5718 Y-17.0030
G01 X42.5545 Y-17.0195
G01 X42.5380 Y-17.0368
G01 X42.5215 Y-17.0550
G01 X42.5059 Y-17.0731
G01 X42.4912 Y-17.0920
G01 X42.4766 Y-17.1117
G01 X42.4636 Y-17.1300
G01 X42.4635 Y-15.6140
G01 X42.4609 Y-15.5607
G01 X42.4585 Y-15.5369
G01 X42.4507 Y-15.4841
G01 X42.4460 Y-15.4606
G01 X42.4331 Y-15.4088
G01 X42.4261 Y-15.3860
G01 X42.4081 Y-15.3357
G01 X42.3990 Y-15.3136
G01 X42.3814 Y-15.2761
G01 X42.3706 Y-15.2547
G01 X42.3589 Y-15.2339
G01 X42.3437 Y-15.2086
G01 X42.3309 Y-15.1884
G01 X42.3171 Y-15.1688
G01 X42.2996 Y-15.1452
G01 X42.2849 Y-15.1263
G01 X42.2692 Y-15.1082
G01 X42.2413 Y-15.0776
G01 X40.8499 Y-13.6860
G01 X40.8581 Y-13.6596
G01 X40.8682 Y-13.6196
G01 X42.8550 Y-13.6196
G01 X42.8789 Y-13.6191
G01 X42.9203 Y-13.6169
G01 X42.9441 Y-13.6145
G01 X42.9560 Y-13.6129
G01 X42.9969 Y-13.6067
G01 X43.0204 Y-13.6020
G01 X43.0320 Y-13.5993
G01 X43.0606 Y-13.5921
G01 X43.0836 Y-13.5857
G01 X43.1064 Y-13.5782
G01 X43.1341 Y-13.5683
G01 X43.1564 Y-13.5597
G01 X43.1674 Y-13.5550
G01 X43.2157 Y-13.5322
G01 X43.2368 Y-13.5209
G01 X43.2724 Y-13.4997
G01 X43.2822 Y-13.4937
G01 X43.3013 Y-13.4809
G01 X43.3358 Y-13.4556
G01 X43.3547 Y-13.4409
G01 X43.3728 Y-13.4252
G01 X43.3946 Y-13.4055
G01 X43.4120 Y-13.3890
G01 X43.5359 Y-13.2650
G01 X43.8090 Y-13.2649
G01 X43.8356 Y-13.2637
G01 X43.8595 Y-13.2619
G01 X43.8832 Y-13.2590
G01 X43.9096 Y-13.2549
G01 X43.9331 Y-13.2503
G01 X43.9706 Y-13.2409
G01 X43.9935 Y-13.2339
G01 X44.0299 Y-13.2209
G01 X44.0520 Y-13.2118
G01 X44.0869 Y-13.1952
G01 X44.1080 Y-13.1840
G01 X44.1411 Y-13.1641
G01 X44.1610 Y-13.1508
G01 X44.1707 Y-13.1438
G01 X44.1923 Y-13.1276
G01 X44.2019 Y-13.1199
G01 X44.2113 Y-13.1120
G01 X44.2305 Y-13.0948
G01 X44.2478 Y-13.0783
G01 X44.2561 Y-13.0697
G01 X44.2742 Y-13.0500
G01 X44.2898 Y-13.0319
G01 X44.3045 Y-13.0131
G01 X44.3203 Y-12.9915
G01 X44.3271 Y-12.9817
G01 X44.3399 Y-12.9615
G01 X44.3588 Y-12.9288
G01 X44.3700 Y-12.9066
G01 X44.3813 Y-12.8825
G01 X44.3860 Y-12.8715
G01 X44.3946 Y-12.8491
G01 X44.4034 Y-12.8240
G01 X44.4070 Y-12.8126
G01 X44.4104 Y-12.8011
G01 X44.4170 Y-12.7752
G01 X44.4198 Y-12.7636
G01 X44.4244 Y-12.7401
G01 X44.4285 Y-12.7137
G01 X44.4314 Y-12.6900
G01 X44.4332 Y-12.6661
G01 X44.4344 Y-12.6395
G01 X44.4345 Y-12.6276
G01 X44.4345 Y-11.4525
G01 X44.4344 Y-11.4405
G01 X44.4332 Y-11.4139
G01 X44.4314 Y-11.3897
G01 X44.4470 Y-11.3900
G01 X44.7470 Y-11.3900
G01 X44.7626 Y-11.3897
G01 X44.7608 Y-11.4139
G01 X44.7596 Y-11.4405
G01 X44.7595 Y-11.4524
G01 X44.7596 Y-12.6395
G01 X44.7608 Y-12.6661
G01 X44.7626 Y-12.6900
G01 X44.7639 Y-12.7019
G01 X44.7677 Y-12.7283
G01 X44.7696 Y-12.7401
G01 X44.7742 Y-12.7636
G01 X44.7806 Y-12.7895
G01 X44.7870 Y-12.8126
G01 X44.7945 Y-12.8353
G01 X44.8036 Y-12.8604
G01 X44.8127 Y-12.8825
G01 X44.8240 Y-12.9066
G01 X44.8348 Y-12.9280
G01 X44.8405 Y-12.9385
G01 X44.8541 Y-12.9615
G01 X44.8669 Y-12.9817
G01 X44.8807 Y-13.0012
G01 X44.8969 Y-13.0228
G01 X44.9046 Y-13.0324
G01 X44.9198 Y-13.0500
G01 X44.9379 Y-13.0697
G01 X44.9462 Y-13.0783
G01 X44.9635 Y-13.0948
G01 X44.9834 Y-13.1126
G01 X44.9926 Y-13.1203
G01 X45.0114 Y-13.1350
G01 X45.0330 Y-13.1508
G01 X45.0529 Y-13.1641
G01 X45.0757 Y-13.1779
G01 X45.0957 Y-13.1893
G01 X45.1163 Y-13.1998
G01 X45.1420 Y-13.2118
G01 X45.1530 Y-13.2165
G01 X45.1754 Y-13.2251
G01 X45.2005 Y-13.2339
G01 X45.2234 Y-13.2409
G01 X45.2493 Y-13.2475
G01 X45.2726 Y-13.2528
G01 X45.2844 Y-13.2549
G01 X45.3108 Y-13.2590
G01 X45.3226 Y-13.2606
G01 X45.3464 Y-13.2630
G01 X45.3850 Y-13.2649
G01 X45.6970 Y-13.2650
G01 X45.7090 Y-13.2649
G01 X45.7356 Y-13.2637
G01 X45.7595 Y-13.2619
G01 X45.7832 Y-13.2590
G01 X45.8096 Y-13.2549
G01 X45.8214 Y-13.2528
G01 X45.8447 Y-13.2475
G01 X45.8706 Y-13.2409
G01 X45.8821 Y-13.2375
G01 X45.9048 Y-13.2300
G01 X45.9299 Y-13.2209
G01 X45.9410 Y-13.2165
G01 X45.9628 Y-13.2068
G01 X45.9869 Y-13.1952
G01 X46.0080 Y-13.1840
G01 X46.0183 Y-13.1779
G01 X46.0411 Y-13.1641
G01 X46.0610 Y-13.1508
G01 X46.0826 Y-13.1350
G01 X46.1019 Y-13.1199
G01 X46.1113 Y-13.1120
G01 X46.1305 Y-13.0948
G01 X46.1478 Y-13.0783
G01 X46.1561 Y-13.0697
G01 X46.1742 Y-13.0500
G01 X46.1898 Y-13.0319
G01 X46.2045 Y-13.0131
G01 X46.2203 Y-12.9915
G01 X46.2336 Y-12.9716
G01 X46.2399 Y-12.9615
G01 X46.2588 Y-12.9288
G01 X46.2693 Y-12.9082
G01 X46.2813 Y-12.8825
G01 X46.2904 Y-12.8604
G01 X46.2946 Y-12.8491
G01 X46.3034 Y-12.8240
G01 X46.3104 Y-12.8011
G01 X46.3198 Y-12.7636
G01 X46.3244 Y-12.7401
G01 X46.3301 Y-12.7019
G01 X46.3325 Y-12.6781
G01 X46.3332 Y-12.6661
G01 X46.3344 Y-12.6395
G01 X46.3345 Y-12.6275
G01 X46.3345 Y-12.3664
G01 X47.1133 Y-11.5876
G01 X49.7865 Y-11.5877
G01 X49.7866 Y-12.3620
G01 X49.7878 Y-12.3859
G01 X49.7888 Y-12.3978
G01 X49.7918 Y-12.4215
G01 X49.7937 Y-12.4333
G01 X49.7983 Y-12.4568
G01 X49.8011 Y-12.4685
G01 X49.8075 Y-12.4915
G01 X49.8111 Y-12.5029
G01 X49.8150 Y-12.5142
G01 X49.8236 Y-12.5366
G01 X49.8333 Y-12.5584
G01 X49.8386 Y-12.5692
G01 X49.8498 Y-12.5903
G01 X49.8621 Y-12.6108
G01 X49.8687 Y-12.6208
G01 X49.8754 Y-12.6307
G01 X49.8897 Y-12.6499
G01 X49.9049 Y-12.6684
G01 X49.9209 Y-12.6862
G01 X49.9293 Y-12.6947
G01 X49.9466 Y-12.7112
G01 X49.9556 Y-12.7191
G01 X49.9647 Y-12.7268
G01 X49.9836 Y-12.7416
G01 X50.0032 Y-12.7553
G01 X50.0234 Y-12.7681
G01 X50.0337 Y-12.7742
G01 X50.0442 Y-12.7799
G01 X50.0656 Y-12.7907
G01 X50.0874 Y-12.8004
G01 X50.0986 Y-12.8048
G01 X50.1211 Y-12.8129
G01 X50.1440 Y-12.8198
G01 X50.1555 Y-12.8229
G01 X50.1789 Y-12.8281
G01 X50.1907 Y-12.8303
G01 X50.2143 Y-12.8338
G01 X50.2381 Y-12.8362
G01 X50.2620 Y-12.8374
G01 X50.2740 Y-12.8375
G01 X51.8740 Y-12.8375
G01 X51.8860 Y-12.8374
G01 X51.9099 Y-12.8362
G01 X51.9337 Y-12.8338
G01 X51.9573 Y-12.8303
G01 X51.9691 Y-12.8281
G01 X51.9925 Y-12.8229
G01 X52.0040 Y-12.8198
G01 X52.0269 Y-12.8129
G01 X52.0382 Y-12.8090
G01 X52.0606 Y-12.8004
G01 X52.0716 Y-12.7957
G01 X52.0932 Y-12.7854
G01 X52.1143 Y-12.7742
G01 X52.1246 Y-12.7681
G01 X52.1348 Y-12.7619
G01 X52.1547 Y-12.7486
G01 X52.1739 Y-12.7343
G01 X52.1924 Y-12.7191
G01 X52.2014 Y-12.7112
G01 X52.2102 Y-12.7031
G01 X52.2271 Y-12.6862
G01 X52.2431 Y-12.6684
G01 X52.2508 Y-12.6593
G01 X52.2583 Y-12.6499
G01 X52.2726 Y-12.6307
G01 X52.2859 Y-12.6108
G01 X52.2921 Y-12.6006
G01 X52.2982 Y-12.5903
G01 X52.3094 Y-12.5692
G01 X52.3147 Y-12.5584
G01 X52.3244 Y-12.5366
G01 X52.3288 Y-12.5254
G01 X52.3369 Y-12.5029
G01 X52.3440 Y-12.4794
G01 X52.3511 Y-12.5029
G01 X52.3550 Y-12.5142
G01 X52.3636 Y-12.5366
G01 X52.3733 Y-12.5584
G01 X52.3786 Y-12.5692
G01 X52.3898 Y-12.5903
G01 X52.3959 Y-12.6006
G01 X52.4021 Y-12.6108
G01 X52.4154 Y-12.6307
G01 X52.4297 Y-12.6499
G01 X52.4372 Y-12.6593
G01 X52.4449 Y-12.6684
G01 X52.4609 Y-12.6862
G01 X52.4778 Y-12.7031
G01 X52.4866 Y-12.7112
G01 X52.4956 Y-12.7191
G01 X52.5141 Y-12.7343
G01 X52.5236 Y-12.7416
G01 X52.5432 Y-12.7553
G01 X52.5634 Y-12.7681
G01 X52.5737 Y-12.7742
G01 X52.5842 Y-12.7799
G01 X52.6056 Y-12.7907
G01 X52.6274 Y-12.8004
G01 X52.6386 Y-12.8048
G01 X52.6611 Y-12.8129
G01 X52.6725 Y-12.8165
G01 X52.6840 Y-12.8198
G01 X52.7072 Y-12.8257
G01 X52.7189 Y-12.8281
G01 X52.7425 Y-12.8322
G01 X52.7543 Y-12.8338
G01 X52.7781 Y-12.8362
G01 X52.8020 Y-12.8374
G01 X52.8140 Y-12.8375
G01 X54.4140 Y-12.8375
G01 X54.4379 Y-12.8369
G01 X54.4499 Y-12.8362
G01 X54.4737 Y-12.8338
G01 X54.4973 Y-12.8303
G01 X54.5208 Y-12.8257
G01 X54.5440 Y-12.8198
G01 X54.5555 Y-12.8165
G01 X54.5669 Y-12.8129
G01 X54.5894 Y-12.8048
G01 X54.6006 Y-12.8004
G01 X54.6224 Y-12.7907
G01 X54.6332 Y-12.7854
G01 X54.6543 Y-12.7742
G01 X54.6748 Y-12.7619
G01 X54.6848 Y-12.7553
G01 X54.6947 Y-12.7486
G01 X54.7139 Y-12.7343
G01 X54.7233 Y-12.7268
G01 X54.7414 Y-12.7112
G01 X54.7587 Y-12.6947
G01 X54.7671 Y-12.6862
G01 X54.7831 Y-12.6684
G01 X54.7908 Y-12.6593
G01 X54.8056 Y-12.6404
G01 X54.8193 Y-12.6208
G01 X54.8259 Y-12.6108
G01 X54.8321 Y-12.6006
G01 X54.8439 Y-12.5798
G01 X54.8547 Y-12.5584
G01 X54.8597 Y-12.5476
G01 X54.8644 Y-12.5366
G01 X54.8730 Y-12.5142
G01 X54.8769 Y-12.5029
G01 X54.8838 Y-12.4800
G01 X54.8897 Y-12.4568
G01 X54.8943 Y-12.4333
G01 X54.8978 Y-12.4097
G01 X54.9002 Y-12.3859
G01 X54.9014 Y-12.3620
G01 X54.9015 Y-12.3500
G01 X54.9015 Y-11.0796
G01 X56.3268 Y-11.0797
G01 X56.3339 Y-11.1080
G01 X56.3403 Y-11.1311
G01 X56.3478 Y-11.1538
G01 X56.3602 Y-11.1881
G01 X56.3694 Y-11.2102
G01 X56.3848 Y-11.2433
G01 X56.3956 Y-11.2647
G01 X56.4074 Y-11.2855
G01 X56.4263 Y-11.3167
G01 X56.4396 Y-11.3366
G01 X56.4612 Y-11.3660
G01 X56.4759 Y-11.3849
G01 X56.4915 Y-11.4030
G01 X56.5162 Y-11.4299
G01 X56.5331 Y-11.4468
G01 X56.5600 Y-11.4715
G01 X56.5781 Y-11.4871
G01 X56.5970 Y-11.5018
G01 X56.6264 Y-11.5234
G01 X56.6463 Y-11.5367
G01 X56.6775 Y-11.5556
G01 X56.6983 Y-11.5674
G01 X56.7197 Y-11.5782
G01 X56.7528 Y-11.5936
G01 X56.7749 Y-11.6028
G01 X56.7861 Y-11.6070
G01 X56.8205 Y-11.6191
G01 X56.8434 Y-11.6261
G01 X56.8788 Y-11.6351
G01 X56.9021 Y-11.6403
G01 X56.9257 Y-11.6444
G01 X56.9626 Y-11.6497
G01 X56.9754 Y-11.6511
G01 X56.9976 Y-11.6527
G01 X57.0221 Y-11.6539
G01 X57.0460 Y-11.6545
G01 X57.6710 Y-11.6545
G01 X57.6949 Y-11.6539
G01 X57.7314 Y-11.6520
G01 X57.7433 Y-11.6509
G01 X57.7670 Y-11.6480
G01 X57.7913 Y-11.6444
G01 X57.8149 Y-11.6403
G01 X57.8382 Y-11.6351
G01 X57.8736 Y-11.6261
G01 X57.8965 Y-11.6191
G01 X57.9309 Y-11.6070
G01 X57.9421 Y-11.6028
G01 X57.9642 Y-11.5936
G01 X57.9973 Y-11.5782
G01 X58.0187 Y-11.5674
G01 X58.0395 Y-11.5556
G01 X58.0605 Y-11.5430
G01 X58.0707 Y-11.5367
G01 X58.0906 Y-11.5234
G01 X58.1200 Y-11.5018
G01 X58.1389 Y-11.4871
G01 X58.1570 Y-11.4715
G01 X58.1752 Y-11.4550
G01 X58.1925 Y-11.4385
G01 X58.2090 Y-11.4212
G01 X58.2255 Y-11.4030
G01 X58.2411 Y-11.3849
G01 X58.2558 Y-11.3660
G01 X58.2704 Y-11.3463
G01 X58.2842 Y-11.3267
G01 X58.2970 Y-11.3065
G01 X58.3156 Y-11.2751
G01 X58.3269 Y-11.2540
G01 X58.3476 Y-11.2102
G01 X58.3568 Y-11.1881
G01 X58.3731 Y-11.1425
G01 X58.3801 Y-11.1196
G01 X58.3919 Y-11.0726
G01 X58.3965 Y-11.0491
G01 X58.4020 Y-11.0130
G01 X58.4037 Y-11.0004
G01 X58.4062 Y-10.9749
G01 X58.4079 Y-10.9409
G01 X58.4085 Y-10.9170
G01 X58.4085 Y-9.6670
G01 X58.4079 Y-9.6431
G01 X58.4067 Y-9.6186
G01 X58.4049 Y-9.5947
G01 X58.4036 Y-9.5828
G01 X58.3984 Y-9.5467
G01 X58.3943 Y-9.5231
G01 X58.3891 Y-9.4998
G01 X58.3831 Y-9.4760
G01 X58.3767 Y-9.4529
G01 X58.3692 Y-9.4302
G01 X58.3610 Y-9.4071
G01 X58.3524 Y-9.3848
G01 X58.3427 Y-9.3629
G01 X58.3269 Y-9.3300
G01 X58.3156 Y-9.3089
G01 X58.2907 Y-9.2673
G01 X58.2774 Y-9.2474
G01 X58.2558 Y-9.2180
G01 X58.2411 Y-9.1991
G01 X58.2255 Y-9.1810
G01 X58.2008 Y-9.1541
G01 X58.1839 Y-9.1372
G01 X58.1570 Y-9.1125
G01 X58.1389 Y-9.0969
G01 X58.1200 Y-9.0822
G01 X58.1003 Y-9.0676
G01 X58.0807 Y-9.0538
G01 X58.0605 Y-9.0410
G01 X58.0395 Y-9.0284
G01 X58.0187 Y-9.0166
G01 X57.9973 Y-9.0058
G01 X57.9642 Y-8.9904
G01 X57.9421 Y-8.9812
G01 X57.8965 Y-8.9649
G01 X57.8736 Y-8.9579
G01 X57.8382 Y-8.9489
G01 X57.8149 Y-8.9437
G01 X57.7913 Y-8.9396
G01 X57.7552 Y-8.9344
G01 X57.7314 Y-8.9320
G01 X57.6949 Y-8.9301
G01 X57.6710 Y-8.9295
G01 X57.0460 Y-8.9295
G01 X57.0221 Y-8.9301
G01 X56.9976 Y-8.9313
G01 X56.9737 Y-8.9331
G01 X56.9500 Y-8.9360
G01 X56.9139 Y-8.9415
G01 X56.8904 Y-8.9461
G01 X56.8550 Y-8.9549
G01 X56.8319 Y-8.9613
G01 X56.8092 Y-8.9688
G01 X56.7861 Y-8.9770
G01 X56.7638 Y-8.9856
G01 X56.7419 Y-8.9953
G01 X56.7197 Y-9.0058
G01 X56.7090 Y-9.0111
G01 X56.6879 Y-9.0224
G01 X56.6463 Y-9.0473
G01 X56.6363 Y-9.0538
G01 X56.6167 Y-9.0676
G01 X56.5970 Y-9.0822
G01 X56.5781 Y-9.0969
G01 X56.5600 Y-9.1125
G01 X56.5418 Y-9.1290
G01 X56.5245 Y-9.1455
G01 X56.5162 Y-9.1541
G01 X56.4836 Y-9.1900
G01 X56.4759 Y-9.1991
G01 X56.4612 Y-9.2180
G01 X56.4466 Y-9.2377
G01 X56.4328 Y-9.2573
G01 X56.4200 Y-9.2775
G01 X56.4074 Y-9.2985
G01 X56.3956 Y-9.3193
G01 X56.3901 Y-9.3300
G01 X56.3694 Y-9.3738
G01 X56.3602 Y-9.3959
G01 X56.3560 Y-9.4071
G01 X56.3478 Y-9.4302
G01 X56.3403 Y-9.4529
G01 X56.3339 Y-9.4760
G01 X56.3268 Y-9.5044
G01 X54.9015 Y-9.5043
G01 X54.9014 Y-9.2380
G01 X54.9002 Y-9.2141
G01 X54.8992 Y-9.2022
G01 X54.8962 Y-9.1785
G01 X54.8921 Y-9.1549
G01 X54.8869 Y-9.1315
G01 X54.8805 Y-9.1085
G01 X54.8730 Y-9.0858
G01 X54.8644 Y-9.0634
G01 X54.8547 Y-9.0416
G01 X54.8439 Y-9.0202
G01 X54.8321 Y-8.9994
G01 X54.8259 Y-8.9892
G01 X54.8126 Y-8.9693
G01 X54.7983 Y-8.9501
G01 X54.7831 Y-8.9316
G01 X54.7671 Y-8.9138
G01 X54.7502 Y-8.8969
G01 X54.7414 Y-8.8888
G01 X54.7233 Y-8.8732
G01 X54.7044 Y-8.8584
G01 X54.6947 Y-8.8514
G01 X54.6748 Y-8.8381
G01 X54.6646 Y-8.8319
G01 X54.6438 Y-8.8201
G01 X54.6224 Y-8.8093
G01 X54.6006 Y-8.7996
G01 X54.5782 Y-8.7910
G01 X54.5555 Y-8.7835
G01 X54.5440 Y-8.7802
G01 X54.5208 Y-8.7743
G01 X54.5091 Y-8.7719
G01 X54.4855 Y-8.7678
G01 X54.4618 Y-8.7648
G01 X54.4379 Y-8.7631
G01 X54.4140 Y-8.7625
G01 X52.8140 Y-8.7625
G01 X52.7901 Y-8.7631
G01 X52.7781 Y-8.7638
G01 X52.7543 Y-8.7662
G01 X52.7307 Y-8.7697
G01 X52.7189 Y-8.7719
G01 X52.6955 Y-8.7771
G01 X52.6840 Y-8.7802
G01 X52.6611 Y-8.7871
G01 X52.6498 Y-8.7910
G01 X52.6274 Y-8.7996
G01 X52.6164 Y-8.8043
G01 X52.5948 Y-8.8146
G01 X52.5737 Y-8.8258
G01 X52.5634 Y-8.8319
G01 X52.5532 Y-8.8381
G01 X52.5333 Y-8.8514
G01 X52.5141 Y-8.8657
G01 X52.4956 Y-8.8809
G01 X52.4866 Y-8.8888
G01 X52.4778 Y-8.8969
G01 X52.4609 Y-8.9138
G01 X52.4449 Y-8.9316
G01 X52.4372 Y-8.9407
G01 X52.4297 Y-8.9501
G01 X52.4154 Y-8.9693
G01 X52.4021 Y-8.9892
G01 X52.3959 Y-8.9994
G01 X52.3898 Y-9.0097
G01 X52.3786 Y-9.0308
G01 X52.3733 Y-9.0416
G01 X52.3636 Y-9.0634
G01 X52.3592 Y-9.0746
G01 X52.3511 Y-9.0971
G01 X52.3440 Y-9.1206
G01 X52.3405 Y-9.1085
G01 X52.3330 Y-9.0858
G01 X52.3244 Y-9.0634
G01 X52.3197 Y-9.0524
G01 X52.3094 Y-9.0308
G01 X52.3039 Y-9.0202
G01 X52.2921 Y-8.9994
G01 X52.2793 Y-8.9792
G01 X52.2656 Y-8.9596
G01 X52.2583 Y-8.9501
G01 X52.2431 Y-8.9316
G01 X52.2271 Y-8.9138
G01 X52.2102 Y-8.8969
G01 X52.1924 Y-8.8809
G01 X52.1739 Y-8.8657
G01 X52.1644 Y-8.8584
G01 X52.1547 Y-8.8514
G01 X52.1348 Y-8.8381
G01 X52.1246 Y-8.8319
G01 X52.1038 Y-8.8201
G01 X52.0824 Y-8.8093
G01 X52.0716 Y-8.8043
G01 X52.0494 Y-8.7952
G01 X52.0269 Y-8.7871
G01 X52.0155 Y-8.7835
G01 X51.9925 Y-8.7771
G01 X51.9691 Y-8.7719
G01 X51.9455 Y-8.7678
G01 X51.9218 Y-8.7648
G01 X51.9099 Y-8.7638
G01 X51.8860 Y-8.7626
G01 X51.8616 Y-8.7625
G01 X51.8616 Y-8.5140
G01 X51.8611 Y-8.4901
G01 X51.8589 Y-8.4487
G01 X51.8565 Y-8.4249
G01 X51.8487 Y-8.3721
G01 X51.8440 Y-8.3486
G01 X51.8413 Y-8.3370
G01 X51.8341 Y-8.3084
G01 X51.8277 Y-8.2854
G01 X51.8202 Y-8.2626
G01 X51.8103 Y-8.2349
G01 X51.8061 Y-8.2237
G01 X51.7970 Y-8.2016
G01 X51.7742 Y-8.1533
G01 X51.7686 Y-8.1427
G01 X51.7569 Y-8.1219
G01 X51.7417 Y-8.0966
G01 X51.7289 Y-8.0764
G01 X51.7151 Y-8.0568
G01 X51.6976 Y-8.0332
G01 X51.6903 Y-8.0237
G01 X51.6752 Y-8.0052
G01 X51.6475 Y-7.9744
G01 X51.6310 Y-7.9570
G01 X51.2500 Y-7.5760
G01 X51.2326 Y-7.5595
G01 X51.2108 Y-7.5398
G01 X51.2018 Y-7.5318
G01 X51.1833 Y-7.5167
G01 X51.1502 Y-7.4919
G01 X51.1306 Y-7.4781
G01 X51.1104 Y-7.4653
G01 X51.0851 Y-7.4501
G01 X51.0748 Y-7.4441
G01 X51.0537 Y-7.4328
G01 X51.0053 Y-7.4100
G01 X50.9942 Y-7.4052
G01 X50.9721 Y-7.3967
G01 X50.9444 Y-7.3868
G01 X50.9216 Y-7.3793
G01 X50.8986 Y-7.3729
G01 X50.8700 Y-7.3657
G01 X50.8467 Y-7.3605
G01 X50.8349 Y-7.3583
G01 X50.7940 Y-7.3521
G01 X50.7702 Y-7.3491
G01 X50.7463 Y-7.3474
G01 X50.7169 Y-7.3459
G01 X50.6930 Y-7.3454
G01 X44.5423 Y-7.3454
G01 X44.3286 Y-7.1317
G01 X44.3974 Y-7.0903
G01 X44.4173 Y-7.0770
G01 X44.5058 Y-7.0116
G01 X44.5247 Y-6.9969
G01 X44.5338 Y-6.9891
G01 X44.6155 Y-6.9153
G01 X44.6328 Y-6.8988
G01 X44.6493 Y-6.8815
G01 X44.7152 Y-6.8088
G01 X44.7231 Y-6.7998
G01 X44.7383 Y-6.7813
G01 X44.8040 Y-6.6930
G01 X44.8178 Y-6.6734
G01 X44.8306 Y-6.6532
G01 X44.8811 Y-6.5690
G01 X44.8929 Y-6.5482
G01 X44.9036 Y-6.5268
G01 X44.9456 Y-6.4381
G01 X44.9554 Y-6.4160
G01 X44.9639 Y-6.3939
G01 X45.0008 Y-6.2902
G01 X45.0044 Y-6.2788
G01 X45.0108 Y-6.2557
G01 X45.0347 Y-6.1605
G01 X45.0399 Y-6.1372
G01 X45.0440 Y-6.1136
G01 X45.0584 Y-6.0165
G01 X45.0613 Y-5.9928
G01 X45.0631 Y-5.9689
G01 X45.0684 Y-5.8590
G01 X45.0685 Y-5.8470
G01 X45.0679 Y-5.8231
G01 X45.0631 Y-5.7251
G01 X45.0613 Y-5.7012
G01 X45.0584 Y-5.6775
G01 X45.0440 Y-5.5804
G01 X45.0399 Y-5.5568
G01 X45.0347 Y-5.5335
G01 X45.0108 Y-5.4383
G01 X45.0044 Y-5.4152
G01 X44.9969 Y-5.3925
G01 X44.9597 Y-5.2889
G01 X44.9553 Y-5.2778
G01 X44.9456 Y-5.2559
G01 X44.9036 Y-5.1672
G01 X44.8929 Y-5.1458
G01 X44.8811 Y-5.1250
G01 X44.8306 Y-5.0408
G01 X44.8178 Y-5.0206
G01 X44.8040 Y-5.0010
G01 X44.7383 Y-4.9127
G01 X44.7309 Y-4.9033
G01 X44.7152 Y-4.8852
G01 X44.6493 Y-4.8125
G01 X44.6328 Y-4.7952
G01 X44.6155 Y-4.7787
G01 X44.5428 Y-4.7128
G01 X44.5247 Y-4.6971
G01 X44.5058 Y-4.6824
G01 X44.4270 Y-4.6240
G01 X44.4074 Y-4.6102
G01 X44.3872 Y-4.5974
G01 X44.3030 Y-4.5469
G01 X44.2927 Y-4.5409
G01 X44.2716 Y-4.5296
G01 X44.1721 Y-4.4824
G01 X44.1502 Y-4.4727
G01 X44.1279 Y-4.4641
G01 X44.0355 Y-4.4311
G01 X44.0128 Y-4.4236
G01 X43.9897 Y-4.4172
G01 X43.8945 Y-4.3933
G01 X43.8712 Y-4.3881
G01 X43.8476 Y-4.3840
G01 X43.7505 Y-4.3696
G01 X43.7268 Y-4.3667
G01 X43.7029 Y-4.3649
G01 X43.6049 Y-4.3601
G01 X43.5810 Y-4.3595
G01 X43.5690 Y-4.3596
G01 X43.4591 Y-4.3649
G01 X43.4352 Y-4.3667
G01 X43.4115 Y-4.3696
