(G-CODE GENERATED BY FLATCAM v8.994 - www.flatcam.org - Version Date: 2020/11/7)
(Name: bms test circuit-F_Paste.gbr_iso_combined_cnc)
(Type: G-code from Geometry)
(Units: MM)
(Created on Thursday, 11 July 2024 at 12:55)
(This preprocessor is the default preprocessor used by FlatCAM.)
(It is made to work with MACH3 compatible motion controllers.)
(TOOL DIAMETER: 0.2 mm)
(Feedrate_XY: 300.0 mm/min)
(Feedrate_Z: 60.0 mm/min)
(Feedrate rapids 1500.0 mm/min)
(Z_Cut: -0.3 mm)
(Z_Move: 2.0 mm)
(Z Start: None mm)
(Z End: 15.0 mm)
(X,Y End: None mm)
(Steps per circle: 64)
(Preprocessor Geometry: default)
(X range:    4.2950 ...   75.0610  mm)
(Y range:  -54.2250 ...   -3.3800  mm)
(Spindle Speed: 4000.0 RPM)
G21
G90
G94
G01 F300.00
M5
G00 Z15.0000
G00 X0.0000 Y0.0000
T1
G00 Z15.0000
M03 S4000.0
G01 F300.00
G00 X4.3950 Y-9.3370
G01 F60.00
G01 Z-0.3000
G01 F300.00
G01 X7.3950 Y-9.3370
G01 X7.4072 Y-9.3362
G01 X7.4169 Y-9.3346
G01 X7.4264 Y-9.3320
G01 X7.4355 Y-9.3284
G01 X7.4464 Y-9.3228
G01 X7.4526 Y-9.3188
G01 X7.4584 Y-9.3143
G01 X7.4674 Y-9.3060
G01 X7.4723 Y-9.3004
G01 X7.4768 Y-9.2946
G01 X7.4832 Y-9.2841
G01 X7.4864 Y-9.2775
G01 X7.4892 Y-9.2707
G01 X7.4914 Y-9.2637
G01 X7.4931 Y-9.2565
G01 X7.4942 Y-9.2492
G01 X7.4949 Y-9.2419
G01 X7.4950 Y-8.0370
G01 X7.4945 Y-8.0272
G01 X7.4931 Y-8.0175
G01 X7.4900 Y-8.0056
G01 X7.4864 Y-7.9965
G01 X7.4808 Y-7.9856
G01 X7.4768 Y-7.9794
G01 X7.4723 Y-7.9736
G01 X7.4674 Y-7.9680
G01 X7.4622 Y-7.9629
G01 X7.4565 Y-7.9582
G01 X7.4506 Y-7.9539
G01 X7.4443 Y-7.9500
G01 X7.4378 Y-7.9466
G01 X7.4310 Y-7.9437
G01 X7.4240 Y-7.9413
G01 X7.4121 Y-7.9385
G01 X7.4048 Y-7.9375
G01 X7.3975 Y-7.9370
G01 X4.3950 Y-7.9370
G01 X4.3852 Y-7.9375
G01 X4.3755 Y-7.9389
G01 X4.3636 Y-7.9420
G01 X4.3545 Y-7.9456
G01 X4.3436 Y-7.9512
G01 X4.3374 Y-7.9552
G01 X4.3316 Y-7.9597
G01 X4.3226 Y-7.9680
G01 X4.3177 Y-7.9736
G01 X4.3132 Y-7.9794
G01 X4.3092 Y-7.9856
G01 X4.3057 Y-7.9920
G01 X4.3008 Y-8.0033
G01 X4.2986 Y-8.0103
G01 X4.2969 Y-8.0175
G01 X4.2958 Y-8.0248
G01 X4.2951 Y-8.0321
G01 X4.2950 Y-9.2395
G01 X4.2958 Y-9.2492
G01 X4.2974 Y-9.2589
G01 X4.3000 Y-9.2684
G01 X4.3036 Y-9.2775
G01 X4.3080 Y-9.2863
G01 X4.3132 Y-9.2946
G01 X4.3193 Y-9.3023
G01 X4.3260 Y-9.3094
G01 X4.3335 Y-9.3158
G01 X4.3415 Y-9.3215
G01 X4.3479 Y-9.3252
G01 X4.3567 Y-9.3294
G01 X4.3660 Y-9.3327
G01 X4.3755 Y-9.3351
G01 X4.3852 Y-9.3365
G01 X4.3950 Y-9.3370
G00 Z2.0000
G00 X9.3450 Y-12.2870
G01 F60.00
G01 Z-0.3000
G01 F300.00
G01 X13.8450 Y-12.2870
G01 X13.8524 Y-12.2867
G01 X13.8597 Y-12.2859
G01 X13.8717 Y-12.2834
G01 X13.8787 Y-12.2812
G01 X13.8855 Y-12.2784
G01 X13.8921 Y-12.2752
G01 X13.9006 Y-12.2701
G01 X13.9065 Y-12.2658
G01 X13.9122 Y-12.2611
G01 X13.9174 Y-12.2560
G01 X13.9223 Y-12.2504
G01 X13.9268 Y-12.2446
G01 X13.9320 Y-12.2363
G01 X13.9354 Y-12.2298
G01 X13.9383 Y-12.2230
G01 X13.9407 Y-12.2160
G01 X13.9431 Y-12.2065
G01 X13.9442 Y-12.1992
G01 X13.9449 Y-12.1919
G01 X13.9450 Y-10.9870
G01 X13.9447 Y-10.9796
G01 X13.9439 Y-10.9723
G01 X13.9414 Y-10.9603
G01 X13.9383 Y-10.9510
G01 X13.9354 Y-10.9442
G01 X13.9320 Y-10.9377
G01 X13.9281 Y-10.9314
G01 X13.9223 Y-10.9236
G01 X13.9174 Y-10.9180
G01 X13.9122 Y-10.9129
G01 X13.9065 Y-10.9082
G01 X13.9006 Y-10.9039
G01 X13.8921 Y-10.8988
G01 X13.8855 Y-10.8956
G01 X13.8787 Y-10.8928
G01 X13.8717 Y-10.8906
G01 X13.8645 Y-10.8889
G01 X13.8572 Y-10.8878
G01 X13.8475 Y-10.8870
G01 X9.3450 Y-10.8870
G01 X9.3328 Y-10.8878
G01 X9.3255 Y-10.8889
G01 X9.3183 Y-10.8906
G01 X9.3113 Y-10.8928
G01 X9.3045 Y-10.8956
G01 X9.2979 Y-10.8988
G01 X9.2915 Y-10.9025
G01 X9.2854 Y-10.9067
G01 X9.2797 Y-10.9113
G01 X9.2726 Y-10.9180
G01 X9.2677 Y-10.9236
G01 X9.2632 Y-10.9294
G01 X9.2580 Y-10.9377
G01 X9.2546 Y-10.9442
G01 X9.2517 Y-10.9510
G01 X9.2493 Y-10.9580
G01 X9.2474 Y-10.9651
G01 X9.2458 Y-10.9748
G01 X9.2451 Y-10.9821
G01 X9.2450 Y-12.1895
G01 X9.2458 Y-12.1992
G01 X9.2474 Y-12.2089
G01 X9.2500 Y-12.2184
G01 X9.2536 Y-12.2275
G01 X9.2580 Y-12.2363
G01 X9.2632 Y-12.2446
G01 X9.2693 Y-12.2523
G01 X9.2760 Y-12.2594
G01 X9.2835 Y-12.2658
G01 X9.2915 Y-12.2715
G01 X9.3000 Y-12.2763
G01 X9.3090 Y-12.2803
G01 X9.3160 Y-12.2827
G01 X9.3255 Y-12.2851
G01 X9.3352 Y-12.2865
G01 X9.3450 Y-12.2870
G00 Z2.0000
G00 X9.3450 Y-14.7870
G01 F60.00
G01 Z-0.3000
G01 F300.00
G01 X13.8450 Y-14.7870
G01 X13.8524 Y-14.7867
G01 X13.8597 Y-14.7859
G01 X13.8717 Y-14.7834
G01 X13.8787 Y-14.7812
G01 X13.8855 Y-14.7784
G01 X13.8921 Y-14.7752
G01 X13.9006 Y-14.7701
G01 X13.9065 Y-14.7658
G01 X13.9122 Y-14.7611
G01 X13.9174 Y-14.7560
G01 X13.9223 Y-14.7504
G01 X13.9268 Y-14.7446
G01 X13.9320 Y-14.7363
G01 X13.9354 Y-14.7298
G01 X13.9383 Y-14.7230
G01 X13.9407 Y-14.7160
G01 X13.9431 Y-14.7065
G01 X13.9442 Y-14.6992
G01 X13.9449 Y-14.6919
G01 X13.9450 Y-13.4870
G01 X13.9447 Y-13.4796
G01 X13.9439 Y-13.4723
G01 X13.9414 Y-13.4603
G01 X13.9383 Y-13.4510
G01 X13.9354 Y-13.4442
G01 X13.9320 Y-13.4377
G01 X13.9281 Y-13.4314
G01 X13.9223 Y-13.4236
G01 X13.9174 Y-13.4180
G01 X13.9122 Y-13.4129
G01 X13.9065 Y-13.4082
G01 X13.9006 Y-13.4039
G01 X13.8921 Y-13.3988
G01 X13.8855 Y-13.3956
G01 X13.8787 Y-13.3928
G01 X13.8717 Y-13.3906
G01 X13.8645 Y-13.3889
G01 X13.8572 Y-13.3878
G01 X13.8475 Y-13.3870
G01 X9.3450 Y-13.3870
G01 X9.3328 Y-13.3878
G01 X9.3255 Y-13.3889
G01 X9.3183 Y-13.3906
G01 X9.3113 Y-13.3928
G01 X9.3045 Y-13.3956
G01 X9.2979 Y-13.3988
G01 X9.2915 Y-13.4025
G01 X9.2854 Y-13.4067
G01 X9.2797 Y-13.4113
G01 X9.2726 Y-13.4180
G01 X9.2677 Y-13.4236
G01 X9.2632 Y-13.4294
G01 X9.2580 Y-13.4377
G01 X9.2546 Y-13.4442
G01 X9.2517 Y-13.4510
G01 X9.2493 Y-13.4580
G01 X9.2474 Y-13.4651
G01 X9.2458 Y-13.4748
G01 X9.2451 Y-13.4821
G01 X9.2450 Y-14.6895
G01 X9.2458 Y-14.6992
G01 X9.2474 Y-14.7089
G01 X9.2500 Y-14.7184
G01 X9.2536 Y-14.7275
G01 X9.2580 Y-14.7363
G01 X9.2632 Y-14.7446
G01 X9.2693 Y-14.7523
G01 X9.2760 Y-14.7594
G01 X9.2835 Y-14.7658
G01 X9.2915 Y-14.7715
G01 X9.3000 Y-14.7763
G01 X9.3090 Y-14.7803
G01 X9.3160 Y-14.7827
G01 X9.3255 Y-14.7851
G01 X9.3352 Y-14.7865
G01 X9.3450 Y-14.7870
G00 Z2.0000
G00 X9.3450 Y-17.2870
G01 F60.00
G01 Z-0.3000
G01 F300.00
G01 X13.8450 Y-17.2870
G01 X13.8524 Y-17.2867
G01 X13.8597 Y-17.2859
G01 X13.8717 Y-17.2834
G01 X13.8787 Y-17.2812
G01 X13.8855 Y-17.2784
G01 X13.8921 Y-17.2752
G01 X13.9006 Y-17.2701
G01 X13.9065 Y-17.2658
G01 X13.9122 Y-17.2611
G01 X13.9174 Y-17.2560
G01 X13.9223 Y-17.2504
G01 X13.9268 Y-17.2446
G01 X13.9320 Y-17.2363
G01 X13.9354 Y-17.2298
G01 X13.9383 Y-17.2230
G01 X13.9407 Y-17.2160
G01 X13.9431 Y-17.2065
G01 X13.9442 Y-17.1992
G01 X13.9449 Y-17.1919
G01 X13.9450 Y-15.9870
G01 X13.9447 Y-15.9796
G01 X13.9439 Y-15.9723
G01 X13.9414 Y-15.9603
G01 X13.9383 Y-15.9510
G01 X13.9354 Y-15.9442
G01 X13.9320 Y-15.9377
G01 X13.9281 Y-15.9314
G01 X13.9223 Y-15.9236
G01 X13.9174 Y-15.9180
G01 X13.9122 Y-15.9129
G01 X13.9065 Y-15.9082
G01 X13.9006 Y-15.9039
G01 X13.8921 Y-15.8988
G01 X13.8855 Y-15.8956
G01 X13.8787 Y-15.8928
G01 X13.8717 Y-15.8906
G01 X13.8645 Y-15.8889
G01 X13.8572 Y-15.8878
G01 X13.8475 Y-15.8870
G01 X9.3450 Y-15.8870
G01 X9.3328 Y-15.8878
G01 X9.3255 Y-15.8889
G01 X9.3183 Y-15.8906
G01 X9.3113 Y-15.8928
G01 X9.3045 Y-15.8956
G01 X9.2979 Y-15.8988
G01 X9.2915 Y-15.9025
G01 X9.2854 Y-15.9067
G01 X9.2797 Y-15.9113
G01 X9.2726 Y-15.9180
G01 X9.2677 Y-15.9236
G01 X9.2632 Y-15.9294
G01 X9.2580 Y-15.9377
G01 X9.2546 Y-15.9442
G01 X9.2517 Y-15.9510
G01 X9.2493 Y-15.9580
G01 X9.2474 Y-15.9651
G01 X9.2458 Y-15.9748
G01 X9.2451 Y-15.9821
G01 X9.2450 Y-17.1895
G01 X9.2458 Y-17.1992
G01 X9.2474 Y-17.2089
G01 X9.2500 Y-17.2184
G01 X9.2536 Y-17.2275
G01 X9.2580 Y-17.2363
G01 X9.2632 Y-17.2446
G01 X9.2693 Y-17.2523
G01 X9.2760 Y-17.2594
G01 X9.2835 Y-17.2658
G01 X9.2915 Y-17.2715
G01 X9.3000 Y-17.2763
G01 X9.3090 Y-17.2803
G01 X9.3160 Y-17.2827
G01 X9.3255 Y-17.2851
G01 X9.3352 Y-17.2865
G01 X9.3450 Y-17.2870
G00 Z2.0000
G00 X9.3450 Y-19.7870
G01 F60.00
G01 Z-0.3000
G01 F300.00
G01 X13.8450 Y-19.7870
G01 X13.8524 Y-19.7867
G01 X13.8597 Y-19.7859
G01 X13.8717 Y-19.7834
G01 X13.8787 Y-19.7812
G01 X13.8855 Y-19.7784
G01 X13.8921 Y-19.7752
G01 X13.9006 Y-19.7701
G01 X13.9065 Y-19.7658
G01 X13.9122 Y-19.7611
G01 X13.9174 Y-19.7560
G01 X13.9223 Y-19.7504
G01 X13.9268 Y-19.7446
G01 X13.9320 Y-19.7363
G01 X13.9354 Y-19.7298
G01 X13.9383 Y-19.7230
G01 X13.9407 Y-19.7160
G01 X13.9431 Y-19.7065
G01 X13.9442 Y-19.6992
G01 X13.9449 Y-19.6919
G01 X13.9450 Y-18.4870
G01 X13.9447 Y-18.4796
G01 X13.9439 Y-18.4723
G01 X13.9414 Y-18.4603
G01 X13.9383 Y-18.4510
G01 X13.9354 Y-18.4442
G01 X13.9320 Y-18.4377
G01 X13.9281 Y-18.4314
G01 X13.9223 Y-18.4236
G01 X13.9174 Y-18.4180
G01 X13.9122 Y-18.4129
G01 X13.9065 Y-18.4082
G01 X13.9006 Y-18.4039
G01 X13.8921 Y-18.3988
G01 X13.8855 Y-18.3956
G01 X13.8787 Y-18.3928
G01 X13.8717 Y-18.3906
G01 X13.8645 Y-18.3889
G01 X13.8572 Y-18.3878
G01 X13.8475 Y-18.3870
G01 X9.3450 Y-18.3870
G01 X9.3328 Y-18.3878
G01 X9.3255 Y-18.3889
G01 X9.3183 Y-18.3906
G01 X9.3113 Y-18.3928
G01 X9.3045 Y-18.3956
G01 X9.2979 Y-18.3988
G01 X9.2915 Y-18.4025
G01 X9.2854 Y-18.4067
G01 X9.2797 Y-18.4113
G01 X9.2726 Y-18.4180
G01 X9.2677 Y-18.4236
G01 X9.2632 Y-18.4294
G01 X9.2580 Y-18.4377
G01 X9.2546 Y-18.4442
G01 X9.2517 Y-18.4510
G01 X9.2493 Y-18.4580
G01 X9.2474 Y-18.4651
G01 X9.2458 Y-18.4748
G01 X9.2451 Y-18.4821
G01 X9.2450 Y-19.6895
G01 X9.2458 Y-19.6992
G01 X9.2474 Y-19.7089
G01 X9.2500 Y-19.7184
G01 X9.2536 Y-19.7275
G01 X9.2580 Y-19.7363
G01 X9.2632 Y-19.7446
G01 X9.2693 Y-19.7523
G01 X9.2760 Y-19.7594
G01 X9.2835 Y-19.7658
G01 X9.2915 Y-19.7715
G01 X9.3000 Y-19.7763
G01 X9.3090 Y-19.7803
G01 X9.3160 Y-19.7827
G01 X9.3255 Y-19.7851
G01 X9.3352 Y-19.7865
G01 X9.3450 Y-19.7870
G00 Z2.0000
G00 X4.3950 Y-22.7370
G01 F60.00
G01 Z-0.3000
G01 F300.00
G01 X7.3950 Y-22.7370
G01 X7.4072 Y-22.7362
G01 X7.4169 Y-22.7346
G01 X7.4264 Y-22.7320
G01 X7.4355 Y-22.7284
G01 X7.4464 Y-22.7228
G01 X7.4526 Y-22.7188
G01 X7.4584 Y-22.7143
G01 X7.4674 Y-22.7060
G01 X7.4723 Y-22.7004
G01 X7.4768 Y-22.6946
G01 X7.4832 Y-22.6841
G01 X7.4864 Y-22.6775
G01 X7.4892 Y-22.6707
G01 X7.4914 Y-22.6637
G01 X7.4931 Y-22.6565
G01 X7.4942 Y-22.6492
G01 X7.4949 Y-22.6419
G01 X7.4950 Y-21.4370
G01 X7.4945 Y-21.4272
G01 X7.4931 Y-21.4175
G01 X7.4900 Y-21.4056
G01 X7.4864 Y-21.3965
G01 X7.4808 Y-21.3856
G01 X7.4768 Y-21.3794
G01 X7.4723 Y-21.3736
G01 X7.4674 Y-21.3680
G01 X7.4622 Y-21.3629
G01 X7.4565 Y-21.3582
G01 X7.4506 Y-21.3539
G01 X7.4443 Y-21.3500
G01 X7.4378 Y-21.3466
G01 X7.4310 Y-21.3437
G01 X7.4240 Y-21.3413
G01 X7.4121 Y-21.3385
G01 X7.4048 Y-21.3375
G01 X7.3975 Y-21.3370
G01 X4.3950 Y-21.3370
G01 X4.3852 Y-21.3375
G01 X4.3755 Y-21.3389
G01 X4.3636 Y-21.3420
G01 X4.3545 Y-21.3456
G01 X4.3436 Y-21.3512
G01 X4.3374 Y-21.3552
G01 X4.3316 Y-21.3597
G01 X4.3226 Y-21.3680
G01 X4.3177 Y-21.3736
G01 X4.3132 Y-21.3794
G01 X4.3092 Y-21.3856
G01 X4.3057 Y-21.3920
G01 X4.3008 Y-21.4033
G01 X4.2986 Y-21.4103
G01 X4.2969 Y-21.4175
G01 X4.2958 Y-21.4248
G01 X4.2951 Y-21.4321
G01 X4.2950 Y-22.6395
G01 X4.2958 Y-22.6492
G01 X4.2974 Y-22.6589
G01 X4.3000 Y-22.6684
G01 X4.3036 Y-22.6775
G01 X4.3080 Y-22.6863
G01 X4.3132 Y-22.6946
G01 X4.3193 Y-22.7023
G01 X4.3260 Y-22.7094
G01 X4.3316 Y-22.7143
G01 X4.3394 Y-22.7201
G01 X4.3479 Y-22.7252
G01 X4.3567 Y-22.7294
G01 X4.3660 Y-22.7327
G01 X4.3755 Y-22.7351
G01 X4.3852 Y-22.7365
G01 X4.3950 Y-22.7370
G00 Z2.0000
G00 X15.6596 Y-32.8641
G01 F60.00
G01 Z-0.3000
G01 F300.00
G01 X15.6874 Y-32.8739
G01 X15.7207 Y-32.8823
G01 X15.7547 Y-32.8873
G01 X15.7865 Y-32.8890
G01 X16.4140 Y-32.8890
G01 X16.4483 Y-32.8873
G01 X16.4774 Y-32.8831
G01 X16.4871 Y-32.8812
G01 X16.5156 Y-32.8739
G01 X16.5479 Y-32.8624
G01 X16.5790 Y-32.8477
G01 X16.6043 Y-32.8326
G01 X16.6125 Y-32.8272
G01 X16.6360 Y-32.8096
G01 X16.6579 Y-32.7899
G01 X16.6649 Y-32.7829
G01 X16.6830 Y-32.7629
G01 X16.7050 Y-32.7334
G01 X16.7203 Y-32.7083
G01 X16.7249 Y-32.6996
G01 X16.7364 Y-32.6752
G01 X16.7391 Y-32.6684
G01 X16.7489 Y-32.6406
G01 X16.7562 Y-32.6121
G01 X16.7581 Y-32.6024
G01 X16.7623 Y-32.5733
G01 X16.7640 Y-32.5415
G01 X16.7640 Y-31.2890
G01 X16.7623 Y-31.2547
G01 X16.7573 Y-31.2207
G01 X16.7502 Y-31.1921
G01 X16.7474 Y-31.1827
G01 X16.7374 Y-31.1551
G01 X16.7249 Y-31.1284
G01 X16.7203 Y-31.1197
G01 X16.7050 Y-31.0946
G01 X16.6876 Y-31.0708
G01 X16.6813 Y-31.0632
G01 X16.6615 Y-31.0415
G01 X16.6398 Y-31.0217
G01 X16.6322 Y-31.0154
G01 X16.6084 Y-30.9980
G01 X16.5833 Y-30.9827
G01 X16.5746 Y-30.9781
G01 X16.5479 Y-30.9656
G01 X16.5203 Y-30.9556
G01 X16.5132 Y-30.9534
G01 X16.4871 Y-30.9468
G01 X16.4774 Y-30.9449
G01 X16.4507 Y-30.9410
G01 X16.4189 Y-30.9391
G01 X15.7890 Y-30.9390
G01 X15.7596 Y-30.9403
G01 X15.7498 Y-30.9413
G01 X15.7207 Y-30.9457
G01 X15.6921 Y-30.9528
G01 X15.6851 Y-30.9548
G01 X15.6596 Y-30.9639
G01 X15.6506 Y-30.9676
G01 X15.6240 Y-30.9803
G01 X15.5925 Y-30.9994
G01 X15.5708 Y-31.0154
G01 X15.5632 Y-31.0217
G01 X15.5415 Y-31.0415
G01 X15.5217 Y-31.0632
G01 X15.5154 Y-31.0708
G01 X15.4980 Y-31.0946
G01 X15.4827 Y-31.1197
G01 X15.4781 Y-31.1284
G01 X15.4666 Y-31.1528
G01 X15.4639 Y-31.1596
G01 X15.4541 Y-31.1874
G01 X15.4468 Y-31.2159
G01 X15.4449 Y-31.2256
G01 X15.4407 Y-31.2547
G01 X15.4390 Y-31.2865
G01 X15.4390 Y-32.5390
G01 X15.4407 Y-32.5733
G01 X15.4449 Y-32.6024
G01 X15.4468 Y-32.6121
G01 X15.4541 Y-32.6406
G01 X15.4656 Y-32.6729
G01 X15.4781 Y-32.6996
G01 X15.4827 Y-32.7083
G01 X15.4980 Y-32.7334
G01 X15.5154 Y-32.7572
G01 X15.5217 Y-32.7648
G01 X15.5415 Y-32.7865
G01 X15.5632 Y-32.8063
G01 X15.5708 Y-32.8126
G01 X15.5946 Y-32.8300
G01 X15.6219 Y-32.8465
G01 X15.6506 Y-32.8604
G01 X15.6596 Y-32.8641
G00 Z2.0000
G00 X18.5846 Y-32.8641
G01 F60.00
G01 Z-0.3000
G01 F300.00
G01 X18.6124 Y-32.8739
G01 X18.6457 Y-32.8823
G01 X18.6797 Y-32.8873
G01 X18.7115 Y-32.8890
G01 X19.3390 Y-32.8890
G01 X19.3733 Y-32.8873
G01 X19.4024 Y-32.8831
G01 X19.4121 Y-32.8812
G01 X19.4406 Y-32.8739
G01 X19.4729 Y-32.8624
G01 X19.5040 Y-32.8477
G01 X19.5293 Y-32.8326
G01 X19.5375 Y-32.8272
G01 X19.5610 Y-32.8096
G01 X19.5829 Y-32.7899
G01 X19.5899 Y-32.7829
G01 X19.6080 Y-32.7629
G01 X19.6300 Y-32.7334
G01 X19.6453 Y-32.7083
G01 X19.6499 Y-32.6996
G01 X19.6614 Y-32.6752
G01 X19.6641 Y-32.6684
G01 X19.6739 Y-32.6406
G01 X19.6812 Y-32.6121
G01 X19.6831 Y-32.6024
G01 X19.6873 Y-32.5733
G01 X19.6890 Y-32.5415
G01 X19.6890 Y-31.2890
G01 X19.6873 Y-31.2547
G01 X19.6823 Y-31.2207
G01 X19.6752 Y-31.1921
G01 X19.6724 Y-31.1827
G01 X19.6624 Y-31.1551
G01 X19.6499 Y-31.1284
G01 X19.6453 Y-31.1197
G01 X19.6300 Y-31.0946
G01 X19.6126 Y-31.0708
G01 X19.6063 Y-31.0632
G01 X19.5865 Y-31.0415
G01 X19.5648 Y-31.0217
G01 X19.5572 Y-31.0154
G01 X19.5334 Y-30.9980
G01 X19.5083 Y-30.9827
G01 X19.4996 Y-30.9781
G01 X19.4729 Y-30.9656
G01 X19.4453 Y-30.9556
G01 X19.4382 Y-30.9534
G01 X19.4121 Y-30.9468
G01 X19.4024 Y-30.9449
G01 X19.3757 Y-30.9410
G01 X19.3439 Y-30.9391
G01 X18.7140 Y-30.9390
G01 X18.6846 Y-30.9403
G01 X18.6748 Y-30.9413
G01 X18.6457 Y-30.9457
G01 X18.6171 Y-30.9528
G01 X18.6101 Y-30.9548
G01 X18.5846 Y-30.9639
G01 X18.5756 Y-30.9676
G01 X18.5490 Y-30.9803
G01 X18.5175 Y-30.9994
G01 X18.4958 Y-31.0154
G01 X18.4882 Y-31.0217
G01 X18.4665 Y-31.0415
G01 X18.4467 Y-31.0632
G01 X18.4404 Y-31.0708
G01 X18.4230 Y-31.0946
G01 X18.4077 Y-31.1197
G01 X18.4031 Y-31.1284
G01 X18.3916 Y-31.1528
G01 X18.3889 Y-31.1596
G01 X18.3791 Y-31.1874
G01 X18.3718 Y-31.2159
G01 X18.3699 Y-31.2256
G01 X18.3657 Y-31.2547
G01 X18.3640 Y-31.2865
G01 X18.3640 Y-32.5390
G01 X18.3657 Y-32.5733
G01 X18.3699 Y-32.6024
G01 X18.3718 Y-32.6121
G01 X18.3791 Y-32.6406
G01 X18.3906 Y-32.6729
G01 X18.4031 Y-32.6996
G01 X18.4077 Y-32.7083
G01 X18.4230 Y-32.7334
G01 X18.4404 Y-32.7572
G01 X18.4467 Y-32.7648
G01 X18.4665 Y-32.7865
G01 X18.4882 Y-32.8063
G01 X18.4958 Y-32.8126
G01 X18.5196 Y-32.8300
G01 X18.5469 Y-32.8465
G01 X18.5756 Y-32.8604
G01 X18.5846 Y-32.8641
G00 Z2.0000
G00 X20.8446 Y-30.5711
G01 F60.00
G01 Z-0.3000
G01 F300.00
G01 X20.8724 Y-30.5809
G01 X20.9057 Y-30.5893
G01 X20.9397 Y-30.5943
G01 X20.9740 Y-30.5960
G01 X23.5265 Y-30.5960
G01 X23.5583 Y-30.5943
G01 X23.5923 Y-30.5893
G01 X23.6256 Y-30.5809
G01 X23.6579 Y-30.5694
G01 X23.6890 Y-30.5547
G01 X23.7184 Y-30.5370
G01 X23.7460 Y-30.5166
G01 X23.7697 Y-30.4952
G01 X23.7946 Y-30.4680
G01 X23.8150 Y-30.4404
G01 X23.8327 Y-30.4110
G01 X23.8474 Y-30.3799
G01 X23.8589 Y-30.3476
G01 X23.8673 Y-30.3143
G01 X23.8723 Y-30.2803
G01 X23.8740 Y-30.2460
G01 X23.8739 Y-27.9911
G01 X23.8723 Y-27.9617
G01 X23.8673 Y-27.9277
G01 X23.8589 Y-27.8944
G01 X23.8474 Y-27.8621
G01 X23.8327 Y-27.8310
G01 X23.8150 Y-27.8016
G01 X23.7946 Y-27.7740
G01 X23.7732 Y-27.7503
G01 X23.7460 Y-27.7254
G01 X23.7184 Y-27.7050
G01 X23.6890 Y-27.6873
G01 X23.6579 Y-27.6726
G01 X23.6256 Y-27.6611
G01 X23.5923 Y-27.6527
G01 X23.5583 Y-27.6477
G01 X23.5240 Y-27.6460
G01 X20.9715 Y-27.6460
G01 X20.9397 Y-27.6477
G01 X20.9057 Y-27.6527
G01 X20.8724 Y-27.6611
G01 X20.8401 Y-27.6726
G01 X20.8090 Y-27.6873
G01 X20.7796 Y-27.7050
G01 X20.7520 Y-27.7254
G01 X20.7283 Y-27.7468
G01 X20.7034 Y-27.7740
G01 X20.6830 Y-27.8016
G01 X20.6653 Y-27.8310
G01 X20.6506 Y-27.8621
G01 X20.6391 Y-27.8944
G01 X20.6307 Y-27.9277
G01 X20.6257 Y-27.9617
G01 X20.6241 Y-27.9911
G01 X20.6241 Y-30.2509
G01 X20.6257 Y-30.2803
G01 X20.6299 Y-30.3094
G01 X20.6318 Y-30.3191
G01 X20.6391 Y-30.3476
G01 X20.6506 Y-30.3799
G01 X20.6631 Y-30.4066
G01 X20.6677 Y-30.4153
G01 X20.6844 Y-30.4425
G01 X20.7034 Y-30.4680
G01 X20.7231 Y-30.4899
G01 X20.7301 Y-30.4969
G01 X20.7520 Y-30.5166
G01 X20.7796 Y-30.5370
G01 X20.8047 Y-30.5523
G01 X20.8112 Y-30.5558
G01 X20.8356 Y-30.5674
G01 X20.8446 Y-30.5711
G00 Z2.0000
G00 X20.8446 Y-27.5211
G01 F60.00
G01 Z-0.3000
G01 F300.00
G01 X20.8724 Y-27.5309
G01 X20.9057 Y-27.5393
G01 X20.9397 Y-27.5443
G01 X20.9740 Y-27.5460
G01 X23.5265 Y-27.5460
G01 X23.5583 Y-27.5443
G01 X23.5923 Y-27.5393
G01 X23.6256 Y-27.5309
G01 X23.6579 Y-27.5194
G01 X23.6890 Y-27.5047
G01 X23.7184 Y-27.4870
G01 X23.7460 Y-27.4666
G01 X23.7697 Y-27.4452
G01 X23.7946 Y-27.4180
G01 X23.8150 Y-27.3904
G01 X23.8327 Y-27.3610
G01 X23.8474 Y-27.3299
G01 X23.8589 Y-27.2976
G01 X23.8673 Y-27.2643
G01 X23.8723 Y-27.2303
G01 X23.8740 Y-27.1960
G01 X23.8739 Y-24.9411
G01 X23.8723 Y-24.9117
G01 X23.8673 Y-24.8777
G01 X23.8589 Y-24.8444
G01 X23.8474 Y-24.8121
G01 X23.8327 Y-24.7810
G01 X23.8150 Y-24.7516
G01 X23.7946 Y-24.7240
G01 X23.7732 Y-24.7003
G01 X23.7460 Y-24.6754
G01 X23.7184 Y-24.6550
G01 X23.6890 Y-24.6373
G01 X23.6579 Y-24.6226
G01 X23.6256 Y-24.6111
G01 X23.5923 Y-24.6027
G01 X23.5583 Y-24.5977
G01 X23.5240 Y-24.5960
G01 X20.9715 Y-24.5960
G01 X20.9397 Y-24.5977
G01 X20.9057 Y-24.6027
G01 X20.8724 Y-24.6111
G01 X20.8401 Y-24.6226
G01 X20.8090 Y-24.6373
G01 X20.7796 Y-24.6550
G01 X20.7520 Y-24.6754
G01 X20.7283 Y-24.6968
G01 X20.7034 Y-24.7240
G01 X20.6830 Y-24.7516
G01 X20.6653 Y-24.7810
G01 X20.6506 Y-24.8121
G01 X20.6391 Y-24.8444
G01 X20.6307 Y-24.8777
G01 X20.6257 Y-24.9117
G01 X20.6241 Y-24.9411
G01 X20.6241 Y-27.2009
G01 X20.6257 Y-27.2303
G01 X20.6299 Y-27.2594
G01 X20.6318 Y-27.2691
G01 X20.6391 Y-27.2976
G01 X20.6506 Y-27.3299
G01 X20.6631 Y-27.3566
G01 X20.6677 Y-27.3653
G01 X20.6844 Y-27.3925
G01 X20.7034 Y-27.4180
G01 X20.7231 Y-27.4399
G01 X20.7301 Y-27.4469
G01 X20.7520 Y-27.4666
G01 X20.7796 Y-27.4870
G01 X20.8047 Y-27.5023
G01 X20.8112 Y-27.5058
G01 X20.8356 Y-27.5174
G01 X20.8446 Y-27.5211
G00 Z2.0000
G00 X24.1946 Y-27.5211
G01 F60.00
G01 Z-0.3000
G01 F300.00
G01 X24.2224 Y-27.5309
G01 X24.2557 Y-27.5393
G01 X24.2897 Y-27.5443
G01 X24.3240 Y-27.5460
G01 X26.8765 Y-27.5460
G01 X26.9083 Y-27.5443
G01 X26.9423 Y-27.5393
G01 X26.9756 Y-27.5309
G01 X27.0079 Y-27.5194
G01 X27.0390 Y-27.5047
G01 X27.0684 Y-27.4870
G01 X27.0960 Y-27.4666
G01 X27.1197 Y-27.4452
G01 X27.1446 Y-27.4180
G01 X27.1650 Y-27.3904
G01 X27.1827 Y-27.3610
G01 X27.1974 Y-27.3299
G01 X27.2089 Y-27.2976
G01 X27.2173 Y-27.2643
G01 X27.2223 Y-27.2303
G01 X27.2240 Y-27.1960
G01 X27.2239 Y-24.9411
G01 X27.2223 Y-24.9117
G01 X27.2173 Y-24.8777
G01 X27.2089 Y-24.8444
G01 X27.1974 Y-24.8121
G01 X27.1827 Y-24.7810
G01 X27.1650 Y-24.7516
G01 X27.1446 Y-24.7240
G01 X27.1232 Y-24.7003
G01 X27.0960 Y-24.6754
G01 X27.0684 Y-24.6550
G01 X27.0390 Y-24.6373
G01 X27.0079 Y-24.6226
G01 X26.9756 Y-24.6111
G01 X26.9423 Y-24.6027
G01 X26.9083 Y-24.5977
G01 X26.8740 Y-24.5960
G01 X24.3215 Y-24.5960
G01 X24.2897 Y-24.5977
G01 X24.2557 Y-24.6027
G01 X24.2224 Y-24.6111
G01 X24.1901 Y-24.6226
G01 X24.1590 Y-24.6373
G01 X24.1296 Y-24.6550
G01 X24.1020 Y-24.6754
G01 X24.0783 Y-24.6968
G01 X24.0534 Y-24.7240
G01 X24.0330 Y-24.7516
G01 X24.0153 Y-24.7810
G01 X24.0006 Y-24.8121
G01 X23.9891 Y-24.8444
G01 X23.9807 Y-24.8777
G01 X23.9757 Y-24.9117
G01 X23.9741 Y-24.9411
G01 X23.9741 Y-27.2009
G01 X23.9757 Y-27.2303
G01 X23.9799 Y-27.2594
G01 X23.9818 Y-27.2691
G01 X23.9891 Y-27.2976
G01 X24.0006 Y-27.3299
G01 X24.0131 Y-27.3566
G01 X24.0177 Y-27.3653
G01 X24.0344 Y-27.3925
G01 X24.0534 Y-27.4180
G01 X24.0731 Y-27.4399
G01 X24.0801 Y-27.4469
G01 X24.1020 Y-27.4666
G01 X24.1296 Y-27.4870
G01 X24.1547 Y-27.5023
G01 X24.1612 Y-27.5058
G01 X24.1856 Y-27.5174
G01 X24.1946 Y-27.5211
G00 Z2.0000
G00 X24.1946 Y-30.5711
G01 F60.00
G01 Z-0.3000
G01 F300.00
G01 X24.2224 Y-30.5809
G01 X24.2557 Y-30.5893
G01 X24.2897 Y-30.5943
G01 X24.3240 Y-30.5960
G01 X26.8765 Y-30.5960
G01 X26.9083 Y-30.5943
G01 X26.9423 Y-30.5893
G01 X26.9756 Y-30.5809
G01 X27.0079 Y-30.5694
G01 X27.0390 Y-30.5547
G01 X27.0684 Y-30.5370
G01 X27.0960 Y-30.5166
G01 X27.1197 Y-30.4952
G01 X27.1446 Y-30.4680
G01 X27.1650 Y-30.4404
G01 X27.1827 Y-30.4110
G01 X27.1974 Y-30.3799
G01 X27.2089 Y-30.3476
G01 X27.2173 Y-30.3143
G01 X27.2223 Y-30.2803
G01 X27.2240 Y-30.2460
G01 X27.2239 Y-27.9911
G01 X27.2223 Y-27.9617
G01 X27.2173 Y-27.9277
G01 X27.2089 Y-27.8944
G01 X27.1974 Y-27.8621
G01 X27.1827 Y-27.8310
G01 X27.1650 Y-27.8016
G01 X27.1446 Y-27.7740
G01 X27.1232 Y-27.7503
G01 X27.0960 Y-27.7254
G01 X27.0684 Y-27.7050
G01 X27.0390 Y-27.6873
G01 X27.0079 Y-27.6726
G01 X26.9756 Y-27.6611
G01 X26.9423 Y-27.6527
G01 X26.9083 Y-27.6477
G01 X26.8740 Y-27.6460
G01 X24.3215 Y-27.6460
G01 X24.2897 Y-27.6477
G01 X24.2557 Y-27.6527
G01 X24.2224 Y-27.6611
G01 X24.1901 Y-27.6726
G01 X24.1590 Y-27.6873
G01 X24.1296 Y-27.7050
G01 X24.1020 Y-27.7254
G01 X24.0783 Y-27.7468
G01 X24.0534 Y-27.7740
G01 X24.0330 Y-27.8016
G01 X24.0153 Y-27.8310
G01 X24.0006 Y-27.8621
G01 X23.9891 Y-27.8944
G01 X23.9807 Y-27.9277
G01 X23.9757 Y-27.9617
G01 X23.9741 Y-27.9911
G01 X23.9741 Y-30.2509
G01 X23.9757 Y-30.2803
G01 X23.9799 Y-30.3094
G01 X23.9818 Y-30.3191
G01 X23.9891 Y-30.3476
G01 X24.0006 Y-30.3799
G01 X24.0131 Y-30.4066
G01 X24.0177 Y-30.4153
G01 X24.0344 Y-30.4425
G01 X24.0534 Y-30.4680
G01 X24.0731 Y-30.4899
G01 X24.0801 Y-30.4969
G01 X24.1020 Y-30.5166
G01 X24.1296 Y-30.5370
G01 X24.1547 Y-30.5523
G01 X24.1612 Y-30.5558
G01 X24.1856 Y-30.5674
G01 X24.1946 Y-30.5711
G00 Z2.0000
G00 X29.2446 Y-30.5511
G01 F60.00
G01 Z-0.3000
G01 F300.00
G01 X29.2724 Y-30.5609
G01 X29.3057 Y-30.5693
G01 X29.3397 Y-30.5743
G01 X29.3715 Y-30.5760
G01 X31.0740 Y-30.5760
G01 X31.1034 Y-30.5747
G01 X31.1132 Y-30.5737
G01 X31.1423 Y-30.5693
G01 X31.1709 Y-30.5622
G01 X31.1803 Y-30.5594
G01 X31.2079 Y-30.5494
G01 X31.2411 Y-30.5335
G01 X31.2643 Y-30.5196
G01 X31.2725 Y-30.5142
G01 X31.2960 Y-30.4966
G01 X31.3179 Y-30.4769
G01 X31.3249 Y-30.4699
G01 X31.3446 Y-30.4480
G01 X31.3650 Y-30.4204
G01 X31.3827 Y-30.3910
G01 X31.3954 Y-30.3644
G01 X31.3991 Y-30.3554
G01 X31.4089 Y-30.3276
G01 X31.4162 Y-30.2991
G01 X31.4181 Y-30.2894
G01 X31.4220 Y-30.2627
G01 X31.4240 Y-30.2260
G01 X31.4239 Y-29.5211
G01 X31.4225 Y-29.4941
G01 X31.4217 Y-29.4868
G01 X31.4173 Y-29.4577
G01 X31.4102 Y-29.4291
G01 X31.4074 Y-29.4197
G01 X31.3974 Y-29.3921
G01 X31.3815 Y-29.3589
G01 X31.3676 Y-29.3357
G01 X31.3622 Y-29.3275
G01 X31.3446 Y-29.3040
G01 X31.3249 Y-29.2821
G01 X31.3179 Y-29.2751
G01 X31.2960 Y-29.2554
G01 X31.2684 Y-29.2350
G01 X31.2433 Y-29.2197
G01 X31.2346 Y-29.2151
G01 X31.2079 Y-29.2026
G01 X31.1803 Y-29.1926
G01 X31.1709 Y-29.1898
G01 X31.1423 Y-29.1827
G01 X31.1059 Y-29.1775
G01 X31.0740 Y-29.1760
G01 X29.3715 Y-29.1760
G01 X29.3446 Y-29.1773
G01 X29.3348 Y-29.1783
G01 X29.3057 Y-29.1827
G01 X29.2771 Y-29.1898
G01 X29.2677 Y-29.1926
G01 X29.2401 Y-29.2026
G01 X29.2069 Y-29.2185
G01 X29.1796 Y-29.2350
G01 X29.1558 Y-29.2524
G01 X29.1482 Y-29.2587
G01 X29.1265 Y-29.2785
G01 X29.1067 Y-29.3002
G01 X29.1019 Y-29.3059
G01 X29.0858 Y-29.3275
G01 X29.0804 Y-29.3357
G01 X29.0653 Y-29.3610
G01 X29.0506 Y-29.3921
G01 X29.0391 Y-29.4244
G01 X29.0303 Y-29.4601
G01 X29.0257 Y-29.4917
G01 X29.0240 Y-29.5260
G01 X29.0240 Y-30.2285
G01 X29.0257 Y-30.2603
G01 X29.0299 Y-30.2894
G01 X29.0318 Y-30.2991
G01 X29.0391 Y-30.3276
G01 X29.0489 Y-30.3554
G01 X29.0526 Y-30.3644
G01 X29.0653 Y-30.3910
G01 X29.0830 Y-30.4204
G01 X29.1034 Y-30.4480
G01 X29.1231 Y-30.4699
G01 X29.1301 Y-30.4769
G01 X29.1520 Y-30.4966
G01 X29.1796 Y-30.5170
G01 X29.2047 Y-30.5323
G01 X29.2112 Y-30.5358
G01 X29.2356 Y-30.5474
G01 X29.2446 Y-30.5511
G00 Z2.0000
G00 X29.2446 Y-25.9911
G01 F60.00
G01 Z-0.3000
G01 F300.00
G01 X29.2724 Y-26.0009
G01 X29.3057 Y-26.0093
G01 X29.3397 Y-26.0143
G01 X29.3715 Y-26.0160
G01 X31.0740 Y-26.0160
G01 X31.1034 Y-26.0147
G01 X31.1132 Y-26.0137
G01 X31.1423 Y-26.0093
G01 X31.1709 Y-26.0022
G01 X31.1803 Y-25.9994
G01 X31.2079 Y-25.9894
G01 X31.2411 Y-25.9735
G01 X31.2643 Y-25.9596
G01 X31.2725 Y-25.9542
G01 X31.2960 Y-25.9366
G01 X31.3179 Y-25.9169
G01 X31.3249 Y-25.9099
G01 X31.3446 Y-25.8880
G01 X31.3650 Y-25.8604
G01 X31.3827 Y-25.8310
G01 X31.3954 Y-25.8044
G01 X31.3991 Y-25.7954
G01 X31.4089 Y-25.7676
G01 X31.4162 Y-25.7391
G01 X31.4181 Y-25.7294
G01 X31.4220 Y-25.7027
G01 X31.4240 Y-25.6660
G01 X31.4239 Y-24.9611
G01 X31.4225 Y-24.9341
G01 X31.4217 Y-24.9268
G01 X31.4173 Y-24.8977
G01 X31.4102 Y-24.8691
G01 X31.4074 Y-24.8597
G01 X31.3974 Y-24.8321
G01 X31.3815 Y-24.7989
G01 X31.3676 Y-24.7757
G01 X31.3622 Y-24.7675
G01 X31.3446 Y-24.7440
G01 X31.3249 Y-24.7221
G01 X31.3179 Y-24.7151
G01 X31.2960 Y-24.6954
G01 X31.2684 Y-24.6750
G01 X31.2433 Y-24.6597
G01 X31.2346 Y-24.6551
G01 X31.2079 Y-24.6426
G01 X31.1803 Y-24.6326
G01 X31.1709 Y-24.6298
G01 X31.1423 Y-24.6227
G01 X31.1059 Y-24.6175
G01 X31.0740 Y-24.6160
G01 X29.3715 Y-24.6160
G01 X29.3446 Y-24.6173
G01 X29.3348 Y-24.6183
G01 X29.3057 Y-24.6227
G01 X29.2771 Y-24.6298
G01 X29.2677 Y-24.6326
G01 X29.2401 Y-24.6426
G01 X29.2069 Y-24.6585
G01 X29.1796 Y-24.6750
G01 X29.1558 Y-24.6924
G01 X29.1482 Y-24.6987
G01 X29.1265 Y-24.7185
G01 X29.1067 Y-24.7402
G01 X29.1019 Y-24.7459
G01 X29.0858 Y-24.7675
G01 X29.0804 Y-24.7757
G01 X29.0653 Y-24.8010
G01 X29.0506 Y-24.8321
G01 X29.0391 Y-24.8644
G01 X29.0303 Y-24.9001
G01 X29.0257 Y-24.9317
G01 X29.0240 Y-24.9660
G01 X29.0240 Y-25.6685
G01 X29.0257 Y-25.7003
G01 X29.0299 Y-25.7294
G01 X29.0318 Y-25.7391
G01 X29.0391 Y-25.7676
G01 X29.0489 Y-25.7954
G01 X29.0526 Y-25.8044
G01 X29.0653 Y-25.8310
G01 X29.0830 Y-25.8604
G01 X29.1034 Y-25.8880
G01 X29.1231 Y-25.9099
G01 X29.1301 Y-25.9169
G01 X29.1520 Y-25.9366
G01 X29.1796 Y-25.9570
G01 X29.2047 Y-25.9723
G01 X29.2112 Y-25.9758
G01 X29.2356 Y-25.9874
G01 X29.2446 Y-25.9911
G00 Z2.0000
G00 X33.2740 Y-19.3400
G01 F60.00
G01 Z-0.3000
G01 F300.00
G01 X34.8765 Y-19.3400
G01 X34.8887 Y-19.3389
G01 X34.8959 Y-19.3376
G01 X34.9030 Y-19.3357
G01 X34.9145 Y-19.3314
G01 X34.9211 Y-19.3282
G01 X34.9275 Y-19.3245
G01 X34.9374 Y-19.3173
G01 X34.9430 Y-19.3124
G01 X34.9481 Y-19.3072
G01 X34.9528 Y-19.3015
G01 X34.9571 Y-19.2956
G01 X34.9633 Y-19.2850
G01 X34.9682 Y-19.2737
G01 X34.9716 Y-19.2619
G01 X34.9735 Y-19.2498
G01 X34.9740 Y-19.2400
G01 X34.9740 Y-16.1375
G01 X34.9735 Y-16.1302
G01 X34.9725 Y-16.1229
G01 X34.9697 Y-16.1110
G01 X34.9654 Y-16.0995
G01 X34.9622 Y-16.0929
G01 X34.9585 Y-16.0865
G01 X34.9543 Y-16.0804
G01 X34.9497 Y-16.0747
G01 X34.9412 Y-16.0659
G01 X34.9355 Y-16.0612
G01 X34.9296 Y-16.0569
G01 X34.9190 Y-16.0507
G01 X34.9100 Y-16.0467
G01 X34.8983 Y-16.0430
G01 X34.8862 Y-16.0408
G01 X34.8740 Y-16.0400
G01 X33.2715 Y-16.0400
G01 X33.2642 Y-16.0405
G01 X33.2569 Y-16.0415
G01 X33.2450 Y-16.0443
G01 X33.2335 Y-16.0486
G01 X33.2269 Y-16.0518
G01 X33.2205 Y-16.0555
G01 X33.2144 Y-16.0597
G01 X33.2087 Y-16.0643
G01 X33.1999 Y-16.0728
G01 X33.1952 Y-16.0785
G01 X33.1909 Y-16.0844
G01 X33.1847 Y-16.0950
G01 X33.1798 Y-16.1063
G01 X33.1770 Y-16.1157
G01 X33.1748 Y-16.1278
G01 X33.1740 Y-16.1400
G01 X33.1740 Y-19.2425
G01 X33.1748 Y-19.2522
G01 X33.1764 Y-19.2619
G01 X33.1790 Y-19.2714
G01 X33.1826 Y-19.2805
G01 X33.1870 Y-19.2893
G01 X33.1922 Y-19.2976
G01 X33.1983 Y-19.3053
G01 X33.2050 Y-19.3124
G01 X33.2125 Y-19.3188
G01 X33.2205 Y-19.3245
G01 X33.2290 Y-19.3293
G01 X33.2380 Y-19.3333
G01 X33.2473 Y-19.3364
G01 X33.2545 Y-19.3381
G01 X33.2642 Y-19.3395
G01 X33.2740 Y-19.3400
G00 Z2.0000
G00 X35.8140 Y-19.3400
G01 F60.00
G01 Z-0.3000
G01 F300.00
G01 X37.4165 Y-19.3400
G01 X37.4287 Y-19.3389
G01 X37.4359 Y-19.3376
G01 X37.4430 Y-19.3357
G01 X37.4545 Y-19.3314
G01 X37.4611 Y-19.3282
G01 X37.4675 Y-19.3245
G01 X37.4774 Y-19.3173
G01 X37.4830 Y-19.3124
G01 X37.4881 Y-19.3072
G01 X37.4928 Y-19.3015
G01 X37.4971 Y-19.2956
G01 X37.5033 Y-19.2850
G01 X37.5082 Y-19.2737
G01 X37.5116 Y-19.2619
G01 X37.5135 Y-19.2498
G01 X37.5140 Y-19.2400
G01 X37.5140 Y-16.1375
G01 X37.5135 Y-16.1302
G01 X37.5125 Y-16.1229
G01 X37.5097 Y-16.1110
G01 X37.5054 Y-16.0995
G01 X37.5022 Y-16.0929
G01 X37.4985 Y-16.0865
G01 X37.4943 Y-16.0804
G01 X37.4897 Y-16.0747
G01 X37.4812 Y-16.0659
G01 X37.4755 Y-16.0612
G01 X37.4696 Y-16.0569
G01 X37.4590 Y-16.0507
G01 X37.4500 Y-16.0467
G01 X37.4383 Y-16.0430
G01 X37.4262 Y-16.0408
G01 X37.4140 Y-16.0400
G01 X35.8115 Y-16.0400
G01 X35.8042 Y-16.0405
G01 X35.7969 Y-16.0415
G01 X35.7850 Y-16.0443
G01 X35.7735 Y-16.0486
G01 X35.7669 Y-16.0518
G01 X35.7605 Y-16.0555
G01 X35.7544 Y-16.0597
G01 X35.7487 Y-16.0643
G01 X35.7399 Y-16.0728
G01 X35.7352 Y-16.0785
G01 X35.7309 Y-16.0844
G01 X35.7247 Y-16.0950
G01 X35.7198 Y-16.1063
G01 X35.7170 Y-16.1157
G01 X35.7148 Y-16.1278
G01 X35.7140 Y-16.1400
G01 X35.7140 Y-19.2425
G01 X35.7148 Y-19.2522
G01 X35.7164 Y-19.2619
G01 X35.7190 Y-19.2714
G01 X35.7226 Y-19.2805
G01 X35.7270 Y-19.2893
G01 X35.7322 Y-19.2976
G01 X35.7383 Y-19.3053
G01 X35.7450 Y-19.3124
G01 X35.7525 Y-19.3188
G01 X35.7605 Y-19.3245
G01 X35.7690 Y-19.3293
G01 X35.7780 Y-19.3333
G01 X35.7873 Y-19.3364
G01 X35.7945 Y-19.3381
G01 X35.8042 Y-19.3395
G01 X35.8140 Y-19.3400
G00 Z2.0000
G00 X41.2095 Y-18.1880
G01 F60.00
G01 Z-0.3000
G01 F300.00
G01 X41.2095 Y-16.9380
G01 X41.2082 Y-16.9086
G01 X41.2075 Y-16.9013
G01 X41.2036 Y-16.8746
G01 X41.2017 Y-16.8649
G01 X41.1944 Y-16.8364
G01 X41.1829 Y-16.8041
G01 X41.1704 Y-16.7774
G01 X41.1658 Y-16.7687
G01 X41.1505 Y-16.7436
G01 X41.1316 Y-16.7179
G01 X41.1070 Y-16.6905
G01 X41.0815 Y-16.6674
G01 X41.0539 Y-16.6470
G01 X41.0288 Y-16.6317
G01 X41.0201 Y-16.6271
G01 X40.9934 Y-16.6146
G01 X40.9658 Y-16.6046
G01 X40.9587 Y-16.6024
G01 X40.9326 Y-16.5958
G01 X40.9229 Y-16.5939
G01 X40.8962 Y-16.5900
G01 X40.8644 Y-16.5881
G01 X40.2345 Y-16.5880
G01 X40.2002 Y-16.5897
G01 X40.1662 Y-16.5947
G01 X40.1376 Y-16.6018
G01 X40.1282 Y-16.6046
G01 X40.1006 Y-16.6146
G01 X40.0739 Y-16.6271
G01 X40.0652 Y-16.6317
G01 X40.0401 Y-16.6470
G01 X40.0144 Y-16.6659
G01 X39.9870 Y-16.6905
G01 X39.9639 Y-16.7160
G01 X39.9435 Y-16.7436
G01 X39.9282 Y-16.7687
G01 X39.9236 Y-16.7774
G01 X39.9121 Y-16.8018
G01 X39.9094 Y-16.8086
G01 X39.8996 Y-16.8364
G01 X39.8923 Y-16.8649
G01 X39.8904 Y-16.8746
G01 X39.8862 Y-16.9037
G01 X39.8845 Y-16.9355
G01 X39.8845 Y-18.1880
G01 X39.8858 Y-18.2174
G01 X39.8865 Y-18.2247
G01 X39.8904 Y-18.2514
G01 X39.8923 Y-18.2611
G01 X39.8996 Y-18.2896
G01 X39.9111 Y-18.3219
G01 X39.9236 Y-18.3486
G01 X39.9282 Y-18.3573
G01 X39.9435 Y-18.3824
G01 X39.9624 Y-18.4081
G01 X39.9870 Y-18.4355
G01 X40.0125 Y-18.4586
G01 X40.0401 Y-18.4790
G01 X40.0695 Y-18.4967
G01 X40.1006 Y-18.5114
G01 X40.1329 Y-18.5229
G01 X40.1662 Y-18.5313
G01 X40.1978 Y-18.5360
G01 X40.2345 Y-18.5380
G01 X40.8595 Y-18.5380
G01 X40.8938 Y-18.5363
G01 X40.9254 Y-18.5317
G01 X40.9611 Y-18.5229
G01 X40.9889 Y-18.5131
G01 X40.9957 Y-18.5104
G01 X41.0201 Y-18.4989
G01 X41.0288 Y-18.4943
G01 X41.0539 Y-18.4790
G01 X41.0815 Y-18.4586
G01 X41.1070 Y-18.4355
G01 X41.1301 Y-18.4100
G01 X41.1505 Y-18.3824
G01 X41.1682 Y-18.3530
G01 X41.1829 Y-18.3219
G01 X41.1929 Y-18.2943
G01 X41.1951 Y-18.2872
G01 X41.2017 Y-18.2611
G01 X41.2036 Y-18.2514
G01 X41.2078 Y-18.2223
G01 X41.2095 Y-18.1880
G00 Z2.0000
G00 X44.1345 Y-18.1880
G01 F60.00
G01 Z-0.3000
G01 F300.00
G01 X44.1345 Y-16.9380
G01 X44.1332 Y-16.9086
G01 X44.1325 Y-16.9013
G01 X44.1286 Y-16.8746
G01 X44.1267 Y-16.8649
G01 X44.1194 Y-16.8364
G01 X44.1079 Y-16.8041
G01 X44.0954 Y-16.7774
G01 X44.0908 Y-16.7687
G01 X44.0755 Y-16.7436
G01 X44.0566 Y-16.7179
G01 X44.0320 Y-16.6905
G01 X44.0065 Y-16.6674
G01 X43.9789 Y-16.6470
G01 X43.9538 Y-16.6317
G01 X43.9451 Y-16.6271
G01 X43.9184 Y-16.6146
G01 X43.8908 Y-16.6046
G01 X43.8837 Y-16.6024
G01 X43.8576 Y-16.5958
G01 X43.8479 Y-16.5939
G01 X43.8212 Y-16.5900
G01 X43.7894 Y-16.5881
G01 X43.1595 Y-16.5880
G01 X43.1252 Y-16.5897
G01 X43.0912 Y-16.5947
G01 X43.0626 Y-16.6018
G01 X43.0532 Y-16.6046
G01 X43.0256 Y-16.6146
G01 X42.9989 Y-16.6271
G01 X42.9902 Y-16.6317
G01 X42.9651 Y-16.6470
G01 X42.9394 Y-16.6659
G01 X42.9120 Y-16.6905
G01 X42.8889 Y-16.7160
G01 X42.8685 Y-16.7436
G01 X42.8532 Y-16.7687
G01 X42.8486 Y-16.7774
G01 X42.8371 Y-16.8018
G01 X42.8344 Y-16.8086
G01 X42.8246 Y-16.8364
G01 X42.8173 Y-16.8649
G01 X42.8154 Y-16.8746
G01 X42.8112 Y-16.9037
G01 X42.8095 Y-16.9355
G01 X42.8095 Y-18.1880
G01 X42.8108 Y-18.2174
G01 X42.8115 Y-18.2247
G01 X42.8154 Y-18.2514
G01 X42.8173 Y-18.2611
G01 X42.8246 Y-18.2896
G01 X42.8361 Y-18.3219
G01 X42.8486 Y-18.3486
G01 X42.8532 Y-18.3573
G01 X42.8685 Y-18.3824
G01 X42.8874 Y-18.4081
G01 X42.9120 Y-18.4355
G01 X42.9375 Y-18.4586
G01 X42.9651 Y-18.4790
G01 X42.9945 Y-18.4967
G01 X43.0256 Y-18.5114
G01 X43.0579 Y-18.5229
G01 X43.0912 Y-18.5313
G01 X43.1228 Y-18.5360
G01 X43.1595 Y-18.5380
G01 X43.7845 Y-18.5380
G01 X43.8188 Y-18.5363
G01 X43.8504 Y-18.5317
G01 X43.8861 Y-18.5229
G01 X43.9139 Y-18.5131
G01 X43.9207 Y-18.5104
G01 X43.9451 Y-18.4989
G01 X43.9538 Y-18.4943
G01 X43.9789 Y-18.4790
G01 X44.0065 Y-18.4586
G01 X44.0320 Y-18.4355
G01 X44.0551 Y-18.4100
G01 X44.0755 Y-18.3824
G01 X44.0932 Y-18.3530
G01 X44.1079 Y-18.3219
G01 X44.1179 Y-18.2943
G01 X44.1201 Y-18.2872
G01 X44.1267 Y-18.2611
G01 X44.1286 Y-18.2514
G01 X44.1328 Y-18.2223
G01 X44.1345 Y-18.1880
G00 Z2.0000
G00 X47.1170 Y-18.3150
G01 F60.00
G01 Z-0.3000
G01 F300.00
G01 X47.1170 Y-17.0650
G01 X47.1157 Y-17.0356
G01 X47.1150 Y-17.0283
G01 X47.1111 Y-17.0016
G01 X47.1092 Y-16.9919
G01 X47.1019 Y-16.9634
G01 X47.0904 Y-16.9311
G01 X47.0779 Y-16.9044
G01 X47.0733 Y-16.8957
G01 X47.0580 Y-16.8706
G01 X47.0391 Y-16.8449
G01 X47.0145 Y-16.8175
G01 X46.9890 Y-16.7944
G01 X46.9614 Y-16.7740
G01 X46.9363 Y-16.7587
G01 X46.9276 Y-16.7541
G01 X46.9009 Y-16.7416
G01 X46.8733 Y-16.7316
G01 X46.8662 Y-16.7294
G01 X46.8401 Y-16.7228
G01 X46.8304 Y-16.7209
G01 X46.8037 Y-16.7170
G01 X46.7719 Y-16.7151
G01 X46.1420 Y-16.7150
G01 X46.1077 Y-16.7167
G01 X46.0737 Y-16.7217
G01 X46.0451 Y-16.7288
G01 X46.0357 Y-16.7316
G01 X46.0081 Y-16.7416
G01 X45.9814 Y-16.7541
G01 X45.9727 Y-16.7587
G01 X45.9476 Y-16.7740
G01 X45.9219 Y-16.7929
G01 X45.8945 Y-16.8175
G01 X45.8714 Y-16.8430
G01 X45.8510 Y-16.8706
G01 X45.8357 Y-16.8957
G01 X45.8311 Y-16.9044
G01 X45.8196 Y-16.9288
G01 X45.8169 Y-16.9356
G01 X45.8071 Y-16.9634
G01 X45.7998 Y-16.9919
G01 X45.7979 Y-17.0016
G01 X45.7937 Y-17.0307
G01 X45.7920 Y-17.0625
G01 X45.7920 Y-18.3150
G01 X45.7933 Y-18.3444
G01 X45.7940 Y-18.3517
G01 X45.7979 Y-18.3784
G01 X45.7998 Y-18.3881
G01 X45.8071 Y-18.4166
G01 X45.8186 Y-18.4489
G01 X45.8311 Y-18.4756
G01 X45.8357 Y-18.4843
G01 X45.8510 Y-18.5094
G01 X45.8699 Y-18.5351
G01 X45.8945 Y-18.5625
G01 X45.9200 Y-18.5856
G01 X45.9476 Y-18.6060
G01 X45.9770 Y-18.6237
G01 X46.0081 Y-18.6384
G01 X46.0404 Y-18.6499
G01 X46.0737 Y-18.6583
G01 X46.1053 Y-18.6630
G01 X46.1420 Y-18.6650
G01 X46.7670 Y-18.6650
G01 X46.8013 Y-18.6633
G01 X46.8329 Y-18.6587
G01 X46.8686 Y-18.6499
G01 X46.8964 Y-18.6401
G01 X46.9032 Y-18.6374
G01 X46.9276 Y-18.6259
G01 X46.9363 Y-18.6213
G01 X46.9614 Y-18.6060
G01 X46.9890 Y-18.5856
G01 X47.0145 Y-18.5625
G01 X47.0376 Y-18.5370
G01 X47.0580 Y-18.5094
G01 X47.0757 Y-18.4800
G01 X47.0904 Y-18.4489
G01 X47.1004 Y-18.4213
G01 X47.1026 Y-18.4142
G01 X47.1092 Y-18.3881
G01 X47.1111 Y-18.3784
G01 X47.1153 Y-18.3493
G01 X47.1170 Y-18.3150
G00 Z2.0000
G00 X50.0420 Y-18.3150
G01 F60.00
G01 Z-0.3000
G01 F300.00
G01 X50.0420 Y-17.0650
G01 X50.0407 Y-17.0356
G01 X50.0400 Y-17.0283
G01 X50.0361 Y-17.0016
G01 X50.0342 Y-16.9919
G01 X50.0269 Y-16.9634
G01 X50.0154 Y-16.9311
G01 X50.0029 Y-16.9044
G01 X49.9983 Y-16.8957
G01 X49.9830 Y-16.8706
G01 X49.9641 Y-16.8449
G01 X49.9395 Y-16.8175
G01 X49.9140 Y-16.7944
G01 X49.8864 Y-16.7740
G01 X49.8613 Y-16.7587
G01 X49.8526 Y-16.7541
G01 X49.8259 Y-16.7416
G01 X49.7983 Y-16.7316
G01 X49.7912 Y-16.7294
G01 X49.7651 Y-16.7228
G01 X49.7554 Y-16.7209
G01 X49.7287 Y-16.7170
G01 X49.6969 Y-16.7151
G01 X49.0670 Y-16.7150
G01 X49.0327 Y-16.7167
G01 X48.9987 Y-16.7217
G01 X48.9701 Y-16.7288
G01 X48.9607 Y-16.7316
G01 X48.9331 Y-16.7416
G01 X48.9064 Y-16.7541
G01 X48.8977 Y-16.7587
G01 X48.8726 Y-16.7740
G01 X48.8469 Y-16.7929
G01 X48.8195 Y-16.8175
G01 X48.7964 Y-16.8430
G01 X48.7760 Y-16.8706
G01 X48.7607 Y-16.8957
G01 X48.7561 Y-16.9044
G01 X48.7446 Y-16.9288
G01 X48.7419 Y-16.9356
G01 X48.7321 Y-16.9634
G01 X48.7248 Y-16.9919
G01 X48.7229 Y-17.0016
G01 X48.7187 Y-17.0307
G01 X48.7170 Y-17.0625
G01 X48.7170 Y-18.3150
G01 X48.7183 Y-18.3444
G01 X48.7190 Y-18.3517
G01 X48.7229 Y-18.3784
G01 X48.7248 Y-18.3881
G01 X48.7321 Y-18.4166
G01 X48.7436 Y-18.4489
G01 X48.7561 Y-18.4756
G01 X48.7607 Y-18.4843
G01 X48.7760 Y-18.5094
G01 X48.7949 Y-18.5351
G01 X48.8195 Y-18.5625
G01 X48.8450 Y-18.5856
G01 X48.8726 Y-18.6060
G01 X48.9020 Y-18.6237
G01 X48.9331 Y-18.6384
G01 X48.9654 Y-18.6499
G01 X48.9987 Y-18.6583
G01 X49.0303 Y-18.6630
G01 X49.0670 Y-18.6650
G01 X49.6920 Y-18.6650
G01 X49.7263 Y-18.6633
G01 X49.7579 Y-18.6587
G01 X49.7936 Y-18.6499
G01 X49.8214 Y-18.6401
G01 X49.8282 Y-18.6374
G01 X49.8526 Y-18.6259
G01 X49.8613 Y-18.6213
G01 X49.8864 Y-18.6060
G01 X49.9140 Y-18.5856
G01 X49.9395 Y-18.5625
G01 X49.9626 Y-18.5370
G01 X49.9830 Y-18.5094
G01 X50.0007 Y-18.4800
G01 X50.0154 Y-18.4489
G01 X50.0254 Y-18.4213
G01 X50.0276 Y-18.4142
G01 X50.0342 Y-18.3881
G01 X50.0361 Y-18.3784
G01 X50.0403 Y-18.3493
G01 X50.0420 Y-18.3150
G00 Z2.0000
G00 X50.2410 Y-23.9230
G01 F60.00
G01 Z-0.3000
G01 F300.00
G01 X50.2410 Y-25.1730
G01 X50.2423 Y-25.2024
G01 X50.2430 Y-25.2097
G01 X50.2469 Y-25.2364
G01 X50.2488 Y-25.2461
G01 X50.2561 Y-25.2746
G01 X50.2676 Y-25.3069
G01 X50.2801 Y-25.3336
G01 X50.2847 Y-25.3423
G01 X50.3000 Y-25.3674
G01 X50.3189 Y-25.3931
G01 X50.3435 Y-25.4205
G01 X50.3690 Y-25.4436
G01 X50.3966 Y-25.4640
G01 X50.4217 Y-25.4793
G01 X50.4304 Y-25.4839
G01 X50.4571 Y-25.4964
G01 X50.4847 Y-25.5064
G01 X50.4918 Y-25.5086
G01 X50.5179 Y-25.5152
G01 X50.5276 Y-25.5171
G01 X50.5543 Y-25.5210
G01 X50.5861 Y-25.5229
G01 X51.2160 Y-25.5230
G01 X51.2503 Y-25.5213
G01 X51.2794 Y-25.5171
G01 X51.2891 Y-25.5152
G01 X51.3176 Y-25.5079
G01 X51.3499 Y-25.4964
G01 X51.3766 Y-25.4839
G01 X51.3853 Y-25.4793
G01 X51.4104 Y-25.4640
G01 X51.4361 Y-25.4451
G01 X51.4635 Y-25.4205
G01 X51.4866 Y-25.3950
G01 X51.5070 Y-25.3674
G01 X51.5223 Y-25.3423
G01 X51.5269 Y-25.3336
G01 X51.5384 Y-25.3092
G01 X51.5411 Y-25.3024
G01 X51.5509 Y-25.2746
G01 X51.5582 Y-25.2461
G01 X51.5601 Y-25.2364
G01 X51.5643 Y-25.2073
G01 X51.5660 Y-25.1755
G01 X51.5660 Y-23.9230
G01 X51.5647 Y-23.8936
G01 X51.5640 Y-23.8863
G01 X51.5601 Y-23.8596
G01 X51.5582 Y-23.8499
G01 X51.5509 Y-23.8214
G01 X51.5394 Y-23.7891
G01 X51.5269 Y-23.7624
G01 X51.5223 Y-23.7537
G01 X51.5070 Y-23.7286
G01 X51.4881 Y-23.7029
G01 X51.4635 Y-23.6755
G01 X51.4380 Y-23.6524
G01 X51.4104 Y-23.6320
G01 X51.3810 Y-23.6143
G01 X51.3499 Y-23.5996
G01 X51.3176 Y-23.5881
G01 X51.2843 Y-23.5797
G01 X51.2527 Y-23.5750
G01 X51.2160 Y-23.5730
G01 X50.5910 Y-23.5730
G01 X50.5567 Y-23.5747
G01 X50.5251 Y-23.5793
G01 X50.4894 Y-23.5881
G01 X50.4616 Y-23.5979
G01 X50.4548 Y-23.6006
G01 X50.4304 Y-23.6121
G01 X50.4217 Y-23.6167
G01 X50.3966 Y-23.6320
G01 X50.3690 Y-23.6524
G01 X50.3435 Y-23.6755
G01 X50.3204 Y-23.7010
G01 X50.3000 Y-23.7286
G01 X50.2823 Y-23.7580
G01 X50.2676 Y-23.7891
G01 X50.2576 Y-23.8167
G01 X50.2554 Y-23.8238
G01 X50.2488 Y-23.8499
G01 X50.2469 Y-23.8596
G01 X50.2427 Y-23.8887
G01 X50.2410 Y-23.9230
G00 Z2.0000
G00 X47.3160 Y-23.9230
G01 F60.00
G01 Z-0.3000
G01 F300.00
G01 X47.3160 Y-25.1730
G01 X47.3173 Y-25.2024
G01 X47.3180 Y-25.2097
G01 X47.3219 Y-25.2364
G01 X47.3238 Y-25.2461
G01 X47.3311 Y-25.2746
G01 X47.3426 Y-25.3069
G01 X47.3551 Y-25.3336
G01 X47.3597 Y-25.3423
G01 X47.3750 Y-25.3674
G01 X47.3939 Y-25.3931
G01 X47.4185 Y-25.4205
G01 X47.4440 Y-25.4436
G01 X47.4716 Y-25.4640
G01 X47.4967 Y-25.4793
G01 X47.5054 Y-25.4839
G01 X47.5321 Y-25.4964
G01 X47.5597 Y-25.5064
G01 X47.5668 Y-25.5086
G01 X47.5929 Y-25.5152
G01 X47.6026 Y-25.5171
G01 X47.6293 Y-25.5210
G01 X47.6611 Y-25.5229
G01 X48.2910 Y-25.5230
G01 X48.3253 Y-25.5213
G01 X48.3544 Y-25.5171
G01 X48.3641 Y-25.5152
G01 X48.3926 Y-25.5079
G01 X48.4249 Y-25.4964
G01 X48.4516 Y-25.4839
G01 X48.4603 Y-25.4793
G01 X48.4854 Y-25.4640
G01 X48.5111 Y-25.4451
G01 X48.5385 Y-25.4205
G01 X48.5616 Y-25.3950
G01 X48.5820 Y-25.3674
G01 X48.5973 Y-25.3423
G01 X48.6019 Y-25.3336
G01 X48.6134 Y-25.3092
G01 X48.6161 Y-25.3024
G01 X48.6259 Y-25.2746
G01 X48.6332 Y-25.2461
G01 X48.6351 Y-25.2364
G01 X48.6393 Y-25.2073
G01 X48.6410 Y-25.1755
G01 X48.6410 Y-23.9230
G01 X48.6397 Y-23.8936
G01 X48.6390 Y-23.8863
G01 X48.6351 Y-23.8596
G01 X48.6332 Y-23.8499
G01 X48.6259 Y-23.8214
G01 X48.6144 Y-23.7891
G01 X48.6019 Y-23.7624
G01 X48.5973 Y-23.7537
G01 X48.5820 Y-23.7286
G01 X48.5631 Y-23.7029
G01 X48.5385 Y-23.6755
G01 X48.5130 Y-23.6524
G01 X48.4854 Y-23.6320
G01 X48.4560 Y-23.6143
G01 X48.4249 Y-23.5996
G01 X48.3926 Y-23.5881
G01 X48.3593 Y-23.5797
G01 X48.3277 Y-23.5750
G01 X48.2910 Y-23.5730
G01 X47.6660 Y-23.5730
G01 X47.6317 Y-23.5747
G01 X47.6001 Y-23.5793
G01 X47.5644 Y-23.5881
G01 X47.5366 Y-23.5979
G01 X47.5298 Y-23.6006
G01 X47.5054 Y-23.6121
G01 X47.4967 Y-23.6167
G01 X47.4716 Y-23.6320
G01 X47.4440 Y-23.6524
G01 X47.4185 Y-23.6755
G01 X47.3954 Y-23.7010
G01 X47.3750 Y-23.7286
G01 X47.3573 Y-23.7580
G01 X47.3426 Y-23.7891
G01 X47.3326 Y-23.8167
G01 X47.3304 Y-23.8238
G01 X47.3238 Y-23.8499
G01 X47.3219 Y-23.8596
G01 X47.3177 Y-23.8887
G01 X47.3160 Y-23.9230
G00 Z2.0000
G00 X49.1434 Y-28.8727
G01 F60.00
G01 Z-0.3000
G01 F300.00
G01 X49.1619 Y-28.8792
G01 X49.1857 Y-28.8852
G01 X49.2100 Y-28.8888
G01 X49.2320 Y-28.8900
G01 X50.4095 Y-28.8900
G01 X50.4340 Y-28.8888
G01 X50.4583 Y-28.8852
G01 X50.4821 Y-28.8792
G01 X50.5052 Y-28.8710
G01 X50.5273 Y-28.8605
G01 X50.5442 Y-28.8505
G01 X50.5524 Y-28.8450
G01 X50.5681 Y-28.8333
G01 X50.5827 Y-28.8202
G01 X50.5897 Y-28.8132
G01 X50.6028 Y-28.7986
G01 X50.6174 Y-28.7789
G01 X50.6276 Y-28.7621
G01 X50.6322 Y-28.7535
G01 X50.6405 Y-28.7357
G01 X50.6472 Y-28.7172
G01 X50.6494 Y-28.7102
G01 X50.6542 Y-28.6912
G01 X50.6583 Y-28.6645
G01 X50.6595 Y-28.6425
G01 X50.6595 Y-28.3375
G01 X50.6583 Y-28.3155
G01 X50.6547 Y-28.2912
G01 X50.6487 Y-28.2674
G01 X50.6405 Y-28.2443
G01 X50.6322 Y-28.2265
G01 X50.6276 Y-28.2179
G01 X50.6174 Y-28.2011
G01 X50.6058 Y-28.1853
G01 X50.5995 Y-28.1777
G01 X50.5863 Y-28.1632
G01 X50.5718 Y-28.1500
G01 X50.5642 Y-28.1437
G01 X50.5484 Y-28.1321
G01 X50.5316 Y-28.1219
G01 X50.5230 Y-28.1173
G01 X50.5052 Y-28.1090
G01 X50.4867 Y-28.1023
G01 X50.4773 Y-28.0995
G01 X50.4583 Y-28.0948
G01 X50.4340 Y-28.0912
G01 X50.4095 Y-28.0900
G01 X49.2320 Y-28.0900
G01 X49.2100 Y-28.0912
G01 X49.1857 Y-28.0948
G01 X49.1619 Y-28.1008
G01 X49.1388 Y-28.1090
G01 X49.1167 Y-28.1195
G01 X49.0998 Y-28.1295
G01 X49.0916 Y-28.1350
G01 X49.0759 Y-28.1467
G01 X49.0613 Y-28.1598
G01 X49.0560 Y-28.1650
G01 X49.0445 Y-28.1777
G01 X49.0382 Y-28.1853
G01 X49.0266 Y-28.2011
G01 X49.0140 Y-28.2222
G01 X49.0035 Y-28.2443
G01 X48.9953 Y-28.2674
G01 X48.9904 Y-28.2864
G01 X48.9885 Y-28.2961
G01 X48.9857 Y-28.3155
G01 X48.9845 Y-28.3375
G01 X48.9845 Y-28.6400
G01 X48.9853 Y-28.6596
G01 X48.9863 Y-28.6694
G01 X48.9893 Y-28.6888
G01 X48.9953 Y-28.7126
G01 X49.0018 Y-28.7311
G01 X49.0055 Y-28.7402
G01 X49.0140 Y-28.7578
G01 X49.0266 Y-28.7789
G01 X49.0412 Y-28.7986
G01 X49.0543 Y-28.8132
G01 X49.0613 Y-28.8202
G01 X49.0759 Y-28.8333
G01 X49.0956 Y-28.8479
G01 X49.1124 Y-28.8581
G01 X49.1188 Y-28.8616
G01 X49.1343 Y-28.8690
G01 X49.1434 Y-28.8727
G00 Z2.0000
G00 X49.1434 Y-30.7727
G01 F60.00
G01 Z-0.3000
G01 F300.00
G01 X49.1619 Y-30.7792
G01 X49.1857 Y-30.7852
G01 X49.2100 Y-30.7888
G01 X49.2320 Y-30.7900
G01 X50.4095 Y-30.7900
G01 X50.4340 Y-30.7888
G01 X50.4583 Y-30.7852
G01 X50.4821 Y-30.7792
G01 X50.5052 Y-30.7710
G01 X50.5273 Y-30.7605
G01 X50.5442 Y-30.7505
G01 X50.5524 Y-30.7450
G01 X50.5681 Y-30.7333
G01 X50.5827 Y-30.7202
G01 X50.5897 Y-30.7132
G01 X50.6028 Y-30.6986
G01 X50.6174 Y-30.6789
G01 X50.6276 Y-30.6621
G01 X50.6322 Y-30.6535
G01 X50.6405 Y-30.6357
G01 X50.6472 Y-30.6172
G01 X50.6494 Y-30.6102
G01 X50.6542 Y-30.5912
G01 X50.6583 Y-30.5645
G01 X50.6595 Y-30.5425
G01 X50.6595 Y-30.2375
G01 X50.6583 Y-30.2155
G01 X50.6547 Y-30.1912
G01 X50.6487 Y-30.1674
G01 X50.6405 Y-30.1443
G01 X50.6322 Y-30.1265
G01 X50.6276 Y-30.1179
G01 X50.6174 Y-30.1011
G01 X50.6058 Y-30.0853
G01 X50.5995 Y-30.0777
G01 X50.5863 Y-30.0632
G01 X50.5718 Y-30.0500
G01 X50.5642 Y-30.0437
G01 X50.5484 Y-30.0321
G01 X50.5316 Y-30.0219
G01 X50.5230 Y-30.0173
G01 X50.5052 Y-30.0090
G01 X50.4867 Y-30.0023
G01 X50.4773 Y-29.9995
G01 X50.4583 Y-29.9948
G01 X50.4340 Y-29.9912
G01 X50.4095 Y-29.9900
G01 X49.2320 Y-29.9900
G01 X49.2100 Y-29.9912
G01 X49.1857 Y-29.9948
G01 X49.1619 Y-30.0008
G01 X49.1388 Y-30.0090
G01 X49.1167 Y-30.0195
G01 X49.0998 Y-30.0295
G01 X49.0916 Y-30.0350
G01 X49.0759 Y-30.0467
G01 X49.0613 Y-30.0598
G01 X49.0560 Y-30.0650
G01 X49.0445 Y-30.0777
G01 X49.0382 Y-30.0853
G01 X49.0266 Y-30.1011
G01 X49.0140 Y-30.1222
G01 X49.0035 Y-30.1443
G01 X48.9953 Y-30.1674
G01 X48.9904 Y-30.1864
G01 X48.9885 Y-30.1961
G01 X48.9857 Y-30.2155
G01 X48.9845 Y-30.2375
G01 X48.9845 Y-30.5400
G01 X48.9853 Y-30.5596
G01 X48.9863 Y-30.5694
G01 X48.9893 Y-30.5888
G01 X48.9953 Y-30.6126
G01 X49.0018 Y-30.6311
G01 X49.0055 Y-30.6402
G01 X49.0140 Y-30.6578
G01 X49.0266 Y-30.6789
G01 X49.0412 Y-30.6986
G01 X49.0543 Y-30.7132
G01 X49.0613 Y-30.7202
G01 X49.0759 Y-30.7333
G01 X49.0956 Y-30.7479
G01 X49.1124 Y-30.7581
G01 X49.1188 Y-30.7616
G01 X49.1343 Y-30.7690
G01 X49.1434 Y-30.7727
G00 Z2.0000
G00 X47.2684 Y-29.8227
G01 F60.00
G01 Z-0.3000
G01 F300.00
G01 X47.2869 Y-29.8292
G01 X47.3107 Y-29.8352
G01 X47.3350 Y-29.8388
G01 X47.3570 Y-29.8400
G01 X48.5345 Y-29.8400
G01 X48.5590 Y-29.8388
G01 X48.5833 Y-29.8352
G01 X48.6071 Y-29.8292
G01 X48.6302 Y-29.8210
G01 X48.6523 Y-29.8105
G01 X48.6692 Y-29.8005
G01 X48.6774 Y-29.7950
G01 X48.6931 Y-29.7833
G01 X48.7077 Y-29.7702
G01 X48.7147 Y-29.7632
G01 X48.7278 Y-29.7486
G01 X48.7424 Y-29.7289
G01 X48.7526 Y-29.7121
G01 X48.7572 Y-29.7035
G01 X48.7655 Y-29.6857
G01 X48.7722 Y-29.6672
G01 X48.7744 Y-29.6602
G01 X48.7792 Y-29.6412
G01 X48.7833 Y-29.6145
G01 X48.7845 Y-29.5925
G01 X48.7845 Y-29.2875
G01 X48.7833 Y-29.2655
G01 X48.7797 Y-29.2412
G01 X48.7737 Y-29.2174
G01 X48.7655 Y-29.1943
G01 X48.7572 Y-29.1765
G01 X48.7526 Y-29.1679
G01 X48.7424 Y-29.1511
G01 X48.7308 Y-29.1353
G01 X48.7245 Y-29.1277
G01 X48.7113 Y-29.1132
G01 X48.6968 Y-29.1000
G01 X48.6892 Y-29.0937
G01 X48.6734 Y-29.0821
G01 X48.6566 Y-29.0719
G01 X48.6480 Y-29.0673
G01 X48.6302 Y-29.0590
G01 X48.6117 Y-29.0523
G01 X48.6023 Y-29.0495
G01 X48.5833 Y-29.0448
G01 X48.5590 Y-29.0412
G01 X48.5345 Y-29.0400
G01 X47.3570 Y-29.0400
G01 X47.3350 Y-29.0412
G01 X47.3107 Y-29.0448
G01 X47.2869 Y-29.0508
G01 X47.2638 Y-29.0590
G01 X47.2417 Y-29.0695
G01 X47.2248 Y-29.0795
G01 X47.2166 Y-29.0850
G01 X47.2009 Y-29.0967
G01 X47.1863 Y-29.1098
G01 X47.1810 Y-29.1150
G01 X47.1695 Y-29.1277
G01 X47.1632 Y-29.1353
G01 X47.1516 Y-29.1511
G01 X47.1390 Y-29.1722
G01 X47.1285 Y-29.1943
G01 X47.1203 Y-29.2174
G01 X47.1154 Y-29.2364
G01 X47.1135 Y-29.2461
G01 X47.1107 Y-29.2655
G01 X47.1095 Y-29.2875
G01 X47.1095 Y-29.5900
G01 X47.1103 Y-29.6096
G01 X47.1113 Y-29.6194
G01 X47.1143 Y-29.6388
G01 X47.1203 Y-29.6626
G01 X47.1268 Y-29.6811
G01 X47.1305 Y-29.6902
G01 X47.1390 Y-29.7078
G01 X47.1516 Y-29.7289
G01 X47.1662 Y-29.7486
G01 X47.1793 Y-29.7632
G01 X47.1863 Y-29.7702
G01 X47.2009 Y-29.7833
G01 X47.2206 Y-29.7979
G01 X47.2374 Y-29.8081
G01 X47.2438 Y-29.8116
G01 X47.2593 Y-29.8190
G01 X47.2684 Y-29.8227
G00 Z2.0000
G00 X43.3496 Y-32.6101
G01 F60.00
G01 Z-0.3000
G01 F300.00
G01 X43.3774 Y-32.6199
G01 X43.4107 Y-32.6283
G01 X43.4447 Y-32.6333
G01 X43.4765 Y-32.6350
G01 X44.1040 Y-32.6350
G01 X44.1383 Y-32.6333
G01 X44.1674 Y-32.6291
G01 X44.1771 Y-32.6272
G01 X44.2056 Y-32.6199
G01 X44.2379 Y-32.6084
G01 X44.2690 Y-32.5937
G01 X44.2943 Y-32.5786
G01 X44.3025 Y-32.5732
G01 X44.3260 Y-32.5556
G01 X44.3479 Y-32.5359
G01 X44.3549 Y-32.5289
G01 X44.3730 Y-32.5089
G01 X44.3950 Y-32.4794
G01 X44.4103 Y-32.4543
G01 X44.4149 Y-32.4456
G01 X44.4264 Y-32.4212
G01 X44.4291 Y-32.4144
G01 X44.4389 Y-32.3866
G01 X44.4462 Y-32.3581
G01 X44.4481 Y-32.3484
G01 X44.4523 Y-32.3193
G01 X44.4540 Y-32.2875
G01 X44.4540 Y-31.0350
G01 X44.4523 Y-31.0007
G01 X44.4473 Y-30.9667
G01 X44.4402 Y-30.9381
G01 X44.4374 Y-30.9287
G01 X44.4274 Y-30.9011
G01 X44.4149 Y-30.8744
G01 X44.4103 Y-30.8657
G01 X44.3950 Y-30.8406
G01 X44.3776 Y-30.8168
G01 X44.3713 Y-30.8092
G01 X44.3515 Y-30.7875
G01 X44.3298 Y-30.7677
G01 X44.3222 Y-30.7614
G01 X44.2984 Y-30.7440
G01 X44.2733 Y-30.7287
G01 X44.2646 Y-30.7241
G01 X44.2379 Y-30.7116
G01 X44.2103 Y-30.7016
G01 X44.2032 Y-30.6994
G01 X44.1771 Y-30.6928
G01 X44.1674 Y-30.6909
G01 X44.1407 Y-30.6870
G01 X44.1089 Y-30.6851
G01 X43.4790 Y-30.6850
G01 X43.4496 Y-30.6863
G01 X43.4398 Y-30.6873
G01 X43.4107 Y-30.6917
G01 X43.3821 Y-30.6988
G01 X43.3751 Y-30.7008
G01 X43.3496 Y-30.7099
G01 X43.3406 Y-30.7136
G01 X43.3140 Y-30.7263
G01 X43.2825 Y-30.7454
G01 X43.2608 Y-30.7614
G01 X43.2532 Y-30.7677
G01 X43.2315 Y-30.7875
G01 X43.2117 Y-30.8092
G01 X43.2054 Y-30.8168
G01 X43.1880 Y-30.8406
G01 X43.1727 Y-30.8657
G01 X43.1681 Y-30.8744
G01 X43.1566 Y-30.8988
G01 X43.1539 Y-30.9056
G01 X43.1441 Y-30.9334
G01 X43.1368 Y-30.9619
G01 X43.1349 Y-30.9716
G01 X43.1307 Y-31.0007
G01 X43.1290 Y-31.0325
G01 X43.1290 Y-32.2850
G01 X43.1307 Y-32.3193
G01 X43.1349 Y-32.3484
G01 X43.1368 Y-32.3581
G01 X43.1441 Y-32.3866
G01 X43.1556 Y-32.4189
G01 X43.1681 Y-32.4456
G01 X43.1727 Y-32.4543
G01 X43.1880 Y-32.4794
G01 X43.2054 Y-32.5032
G01 X43.2117 Y-32.5108
G01 X43.2315 Y-32.5325
G01 X43.2532 Y-32.5523
G01 X43.2608 Y-32.5586
G01 X43.2846 Y-32.5760
G01 X43.3119 Y-32.5925
G01 X43.3406 Y-32.6064
G01 X43.3496 Y-32.6101
G00 Z2.0000
G00 X40.4246 Y-32.6101
G01 F60.00
G01 Z-0.3000
G01 F300.00
G01 X40.4524 Y-32.6199
G01 X40.4857 Y-32.6283
G01 X40.5197 Y-32.6333
G01 X40.5515 Y-32.6350
G01 X41.1790 Y-32.6350
G01 X41.2133 Y-32.6333
G01 X41.2424 Y-32.6291
G01 X41.2521 Y-32.6272
G01 X41.2806 Y-32.6199
G01 X41.3129 Y-32.6084
G01 X41.3440 Y-32.5937
G01 X41.3693 Y-32.5786
G01 X41.3775 Y-32.5732
G01 X41.4010 Y-32.5556
G01 X41.4229 Y-32.5359
G01 X41.4299 Y-32.5289
G01 X41.4480 Y-32.5089
G01 X41.4700 Y-32.4794
G01 X41.4853 Y-32.4543
G01 X41.4899 Y-32.4456
G01 X41.5014 Y-32.4212
G01 X41.5041 Y-32.4144
G01 X41.5139 Y-32.3866
G01 X41.5212 Y-32.3581
G01 X41.5231 Y-32.3484
G01 X41.5273 Y-32.3193
G01 X41.5290 Y-32.2875
G01 X41.5290 Y-31.0350
G01 X41.5273 Y-31.0007
G01 X41.5223 Y-30.9667
G01 X41.5152 Y-30.9381
G01 X41.5124 Y-30.9287
G01 X41.5024 Y-30.9011
G01 X41.4899 Y-30.8744
G01 X41.4853 Y-30.8657
G01 X41.4700 Y-30.8406
G01 X41.4526 Y-30.8168
G01 X41.4463 Y-30.8092
G01 X41.4265 Y-30.7875
G01 X41.4048 Y-30.7677
G01 X41.3972 Y-30.7614
G01 X41.3734 Y-30.7440
G01 X41.3483 Y-30.7287
G01 X41.3396 Y-30.7241
G01 X41.3129 Y-30.7116
G01 X41.2853 Y-30.7016
G01 X41.2782 Y-30.6994
G01 X41.2521 Y-30.6928
G01 X41.2424 Y-30.6909
G01 X41.2157 Y-30.6870
G01 X41.1839 Y-30.6851
G01 X40.5540 Y-30.6850
G01 X40.5246 Y-30.6863
G01 X40.5148 Y-30.6873
G01 X40.4857 Y-30.6917
G01 X40.4571 Y-30.6988
G01 X40.4501 Y-30.7008
G01 X40.4246 Y-30.7099
G01 X40.4156 Y-30.7136
G01 X40.3890 Y-30.7263
G01 X40.3575 Y-30.7454
G01 X40.3358 Y-30.7614
G01 X40.3282 Y-30.7677
G01 X40.3065 Y-30.7875
G01 X40.2867 Y-30.8092
G01 X40.2804 Y-30.8168
G01 X40.2630 Y-30.8406
G01 X40.2477 Y-30.8657
G01 X40.2431 Y-30.8744
G01 X40.2316 Y-30.8988
G01 X40.2289 Y-30.9056
G01 X40.2191 Y-30.9334
G01 X40.2118 Y-30.9619
G01 X40.2099 Y-30.9716
G01 X40.2057 Y-31.0007
G01 X40.2040 Y-31.0325
G01 X40.2040 Y-32.2850
G01 X40.2057 Y-32.3193
G01 X40.2099 Y-32.3484
G01 X40.2118 Y-32.3581
G01 X40.2191 Y-32.3866
G01 X40.2306 Y-32.4189
G01 X40.2431 Y-32.4456
G01 X40.2477 Y-32.4543
G01 X40.2630 Y-32.4794
G01 X40.2804 Y-32.5032
G01 X40.2867 Y-32.5108
G01 X40.3065 Y-32.5325
G01 X40.3282 Y-32.5523
G01 X40.3358 Y-32.5586
G01 X40.3596 Y-32.5760
G01 X40.3869 Y-32.5925
G01 X40.4156 Y-32.6064
G01 X40.4246 Y-32.6101
G00 Z2.0000
G00 X49.1946 Y-39.4711
G01 F60.00
G01 Z-0.3000
G01 F300.00
G01 X49.2224 Y-39.4809
G01 X49.2557 Y-39.4893
G01 X49.2897 Y-39.4943
G01 X49.3215 Y-39.4960
G01 X50.5765 Y-39.4960
G01 X50.6083 Y-39.4943
G01 X50.6374 Y-39.4901
G01 X50.6471 Y-39.4882
G01 X50.6756 Y-39.4809
G01 X50.7079 Y-39.4694
G01 X50.7346 Y-39.4569
G01 X50.7433 Y-39.4523
G01 X50.7705 Y-39.4356
G01 X50.7960 Y-39.4166
G01 X50.8179 Y-39.3969
G01 X50.8249 Y-39.3899
G01 X50.8430 Y-39.3699
G01 X50.8476 Y-39.3642
G01 X50.8650 Y-39.3404
G01 X50.8803 Y-39.3153
G01 X50.8849 Y-39.3066
G01 X50.8974 Y-39.2799
G01 X50.9089 Y-39.2476
G01 X50.9173 Y-39.2143
G01 X50.9225 Y-39.1779
G01 X50.9240 Y-39.1460
G01 X50.9240 Y-38.5210
G01 X50.9225 Y-38.4891
G01 X50.9173 Y-38.4527
G01 X50.9102 Y-38.4241
G01 X50.9074 Y-38.4147
G01 X50.8974 Y-38.3871
G01 X50.8849 Y-38.3604
G01 X50.8803 Y-38.3517
G01 X50.8636 Y-38.3245
G01 X50.8446 Y-38.2990
G01 X50.8249 Y-38.2771
G01 X50.8179 Y-38.2701
G01 X50.7960 Y-38.2504
G01 X50.7725 Y-38.2328
G01 X50.7664 Y-38.2286
G01 X50.7433 Y-38.2147
G01 X50.7346 Y-38.2101
G01 X50.7079 Y-38.1976
G01 X50.6756 Y-38.1861
G01 X50.6423 Y-38.1777
G01 X50.6132 Y-38.1733
G01 X50.6034 Y-38.1723
G01 X50.5740 Y-38.1710
G01 X49.3191 Y-38.1711
G01 X49.2897 Y-38.1727
G01 X49.2606 Y-38.1769
G01 X49.2509 Y-38.1788
G01 X49.2224 Y-38.1861
G01 X49.1901 Y-38.1976
G01 X49.1634 Y-38.2101
G01 X49.1547 Y-38.2147
G01 X49.1275 Y-38.2314
G01 X49.1020 Y-38.2504
G01 X49.0765 Y-38.2735
G01 X49.0534 Y-38.2990
G01 X49.0330 Y-38.3266
G01 X49.0153 Y-38.3560
G01 X49.0006 Y-38.3871
G01 X48.9891 Y-38.4194
G01 X48.9803 Y-38.4551
G01 X48.9757 Y-38.4867
G01 X48.9740 Y-38.5210
G01 X48.9740 Y-39.1460
G01 X48.9753 Y-39.1754
G01 X48.9763 Y-39.1852
G01 X48.9807 Y-39.2143
G01 X48.9878 Y-39.2429
G01 X48.9906 Y-39.2523
G01 X49.0006 Y-39.2799
G01 X49.0142 Y-39.3088
G01 X49.0304 Y-39.3363
G01 X49.0358 Y-39.3445
G01 X49.0534 Y-39.3680
G01 X49.0731 Y-39.3899
G01 X49.0801 Y-39.3969
G01 X49.1039 Y-39.4181
G01 X49.1296 Y-39.4370
G01 X49.1547 Y-39.4523
G01 X49.1612 Y-39.4558
G01 X49.1856 Y-39.4674
G01 X49.1946 Y-39.4711
G00 Z2.0000
G00 X49.1946 Y-42.3961
G01 F60.00
G01 Z-0.3000
G01 F300.00
G01 X49.2224 Y-42.4059
G01 X49.2557 Y-42.4143
G01 X49.2897 Y-42.4193
G01 X49.3215 Y-42.4210
G01 X50.5765 Y-42.4210
G01 X50.6083 Y-42.4193
G01 X50.6374 Y-42.4151
G01 X50.6471 Y-42.4132
G01 X50.6756 Y-42.4059
G01 X50.7079 Y-42.3944
G01 X50.7346 Y-42.3819
G01 X50.7433 Y-42.3773
G01 X50.7705 Y-42.3606
G01 X50.7960 Y-42.3416
G01 X50.8179 Y-42.3219
G01 X50.8249 Y-42.3149
G01 X50.8430 Y-42.2949
G01 X50.8476 Y-42.2892
G01 X50.8650 Y-42.2654
G01 X50.8803 Y-42.2403
G01 X50.8849 Y-42.2316
G01 X50.8974 Y-42.2049
G01 X50.9089 Y-42.1726
G01 X50.9173 Y-42.1393
G01 X50.9225 Y-42.1029
G01 X50.9240 Y-42.0710
G01 X50.9240 Y-41.4460
G01 X50.9225 Y-41.4141
G01 X50.9173 Y-41.3777
G01 X50.9102 Y-41.3491
G01 X50.9074 Y-41.3397
G01 X50.8974 Y-41.3121
G01 X50.8849 Y-41.2854
G01 X50.8803 Y-41.2767
G01 X50.8636 Y-41.2495
G01 X50.8446 Y-41.2240
G01 X50.8249 Y-41.2021
G01 X50.8179 Y-41.1951
G01 X50.7960 Y-41.1754
G01 X50.7725 Y-41.1578
G01 X50.7664 Y-41.1536
G01 X50.7433 Y-41.1397
G01 X50.7346 Y-41.1351
G01 X50.7079 Y-41.1226
G01 X50.6756 Y-41.1111
G01 X50.6423 Y-41.1027
G01 X50.6132 Y-41.0983
G01 X50.6034 Y-41.0973
G01 X50.5740 Y-41.0960
G01 X49.3191 Y-41.0961
G01 X49.2897 Y-41.0977
G01 X49.2606 Y-41.1019
G01 X49.2509 Y-41.1038
G01 X49.2224 Y-41.1111
G01 X49.1901 Y-41.1226
G01 X49.1634 Y-41.1351
G01 X49.1547 Y-41.1397
G01 X49.1275 Y-41.1564
G01 X49.1020 Y-41.1754
G01 X49.0765 Y-41.1985
G01 X49.0534 Y-41.2240
G01 X49.0330 Y-41.2516
G01 X49.0153 Y-41.2810
G01 X49.0006 Y-41.3121
G01 X48.9891 Y-41.3444
G01 X48.9803 Y-41.3801
G01 X48.9757 Y-41.4117
G01 X48.9740 Y-41.4460
G01 X48.9740 Y-42.0710
G01 X48.9753 Y-42.1004
G01 X48.9763 Y-42.1102
G01 X48.9807 Y-42.1393
G01 X48.9878 Y-42.1679
G01 X48.9906 Y-42.1773
G01 X49.0006 Y-42.2049
G01 X49.0142 Y-42.2338
G01 X49.0304 Y-42.2613
G01 X49.0358 Y-42.2695
G01 X49.0534 Y-42.2930
G01 X49.0731 Y-42.3149
G01 X49.0801 Y-42.3219
G01 X49.1039 Y-42.3431
G01 X49.1296 Y-42.3620
G01 X49.1547 Y-42.3773
G01 X49.1612 Y-42.3808
G01 X49.1856 Y-42.3924
G01 X49.1946 Y-42.3961
G00 Z2.0000
G00 X49.0729 Y-45.6882
G01 F60.00
G01 Z-0.3000
G01 F300.00
G01 X49.0914 Y-45.6947
G01 X49.1152 Y-45.7007
G01 X49.1395 Y-45.7043
G01 X49.1615 Y-45.7055
G01 X49.4665 Y-45.7055
G01 X49.4861 Y-45.7045
G01 X49.4934 Y-45.7037
G01 X49.5128 Y-45.7007
G01 X49.5318 Y-45.6960
G01 X49.5412 Y-45.6932
G01 X49.5597 Y-45.6865
G01 X49.5775 Y-45.6782
G01 X49.5861 Y-45.6736
G01 X49.6029 Y-45.6634
G01 X49.6187 Y-45.6518
G01 X49.6263 Y-45.6455
G01 X49.6408 Y-45.6323
G01 X49.6540 Y-45.6178
G01 X49.6603 Y-45.6102
G01 X49.6719 Y-45.5944
G01 X49.6821 Y-45.5776
G01 X49.6867 Y-45.5690
G01 X49.6950 Y-45.5512
G01 X49.7039 Y-45.5257
G01 X49.7092 Y-45.5043
G01 X49.7122 Y-45.4849
G01 X49.7132 Y-45.4751
G01 X49.7140 Y-45.4555
G01 X49.7140 Y-44.2805
G01 X49.7125 Y-44.2536
G01 X49.7092 Y-44.2317
G01 X49.7045 Y-44.2127
G01 X49.7017 Y-44.2033
G01 X49.6950 Y-44.1848
G01 X49.6845 Y-44.1627
G01 X49.6745 Y-44.1458
G01 X49.6690 Y-44.1376
G01 X49.6573 Y-44.1219
G01 X49.6442 Y-44.1073
G01 X49.6372 Y-44.1003
G01 X49.6226 Y-44.0872
G01 X49.6029 Y-44.0726
G01 X49.5818 Y-44.0600
G01 X49.5642 Y-44.0515
G01 X49.5551 Y-44.0478
G01 X49.5342 Y-44.0406
G01 X49.5128 Y-44.0353
G01 X49.4934 Y-44.0323
G01 X49.4861 Y-44.0315
G01 X49.4665 Y-44.0305
G01 X49.1640 Y-44.0305
G01 X49.1444 Y-44.0313
G01 X49.1346 Y-44.0323
G01 X49.1152 Y-44.0353
G01 X49.0938 Y-44.0406
G01 X49.0683 Y-44.0495
G01 X49.0505 Y-44.0578
G01 X49.0419 Y-44.0624
G01 X49.0251 Y-44.0726
G01 X49.0093 Y-44.0842
G01 X49.0017 Y-44.0905
G01 X48.9872 Y-44.1037
G01 X48.9740 Y-44.1182
G01 X48.9677 Y-44.1258
G01 X48.9561 Y-44.1416
G01 X48.9459 Y-44.1584
G01 X48.9413 Y-44.1670
G01 X48.9330 Y-44.1848
G01 X48.9241 Y-44.2103
G01 X48.9188 Y-44.2317
G01 X48.9158 Y-44.2511
G01 X48.9148 Y-44.2609
G01 X48.9140 Y-44.2805
G01 X48.9140 Y-45.4555
G01 X48.9152 Y-45.4800
G01 X48.9180 Y-45.4994
G01 X48.9199 Y-45.5091
G01 X48.9248 Y-45.5281
G01 X48.9330 Y-45.5512
G01 X48.9413 Y-45.5690
G01 X48.9459 Y-45.5776
G01 X48.9561 Y-45.5944
G01 X48.9677 Y-45.6102
G01 X48.9740 Y-45.6178
G01 X48.9872 Y-45.6323
G01 X49.0017 Y-45.6455
G01 X49.0093 Y-45.6518
G01 X49.0251 Y-45.6634
G01 X49.0440 Y-45.6748
G01 X49.0638 Y-45.6845
G01 X49.0729 Y-45.6882
G00 Z2.0000
G00 X50.0229 Y-47.5632
G01 F60.00
G01 Z-0.3000
G01 F300.00
G01 X50.0414 Y-47.5697
G01 X50.0652 Y-47.5757
G01 X50.0895 Y-47.5793
G01 X50.1115 Y-47.5805
G01 X50.4165 Y-47.5805
G01 X50.4361 Y-47.5795
G01 X50.4434 Y-47.5787
G01 X50.4628 Y-47.5757
G01 X50.4818 Y-47.5710
G01 X50.4912 Y-47.5682
G01 X50.5097 Y-47.5615
G01 X50.5275 Y-47.5532
G01 X50.5361 Y-47.5486
G01 X50.5529 Y-47.5384
G01 X50.5687 Y-47.5268
G01 X50.5763 Y-47.5205
G01 X50.5908 Y-47.5073
G01 X50.6040 Y-47.4928
G01 X50.6103 Y-47.4852
G01 X50.6219 Y-47.4694
G01 X50.6321 Y-47.4526
G01 X50.6367 Y-47.4440
G01 X50.6450 Y-47.4262
G01 X50.6539 Y-47.4007
G01 X50.6592 Y-47.3793
G01 X50.6622 Y-47.3599
G01 X50.6632 Y-47.3501
G01 X50.6640 Y-47.3305
G01 X50.6640 Y-46.1555
G01 X50.6625 Y-46.1286
G01 X50.6592 Y-46.1067
G01 X50.6545 Y-46.0877
G01 X50.6517 Y-46.0783
G01 X50.6450 Y-46.0598
G01 X50.6345 Y-46.0377
G01 X50.6245 Y-46.0208
G01 X50.6190 Y-46.0126
G01 X50.6073 Y-45.9969
G01 X50.5942 Y-45.9823
G01 X50.5872 Y-45.9753
G01 X50.5726 Y-45.9622
G01 X50.5529 Y-45.9476
G01 X50.5318 Y-45.9350
G01 X50.5142 Y-45.9265
G01 X50.5051 Y-45.9228
G01 X50.4842 Y-45.9156
G01 X50.4628 Y-45.9103
G01 X50.4434 Y-45.9073
G01 X50.4361 Y-45.9065
G01 X50.4165 Y-45.9055
G01 X50.1140 Y-45.9055
G01 X50.0944 Y-45.9063
G01 X50.0846 Y-45.9073
G01 X50.0652 Y-45.9103
G01 X50.0438 Y-45.9156
G01 X50.0183 Y-45.9245
G01 X50.0005 Y-45.9328
G01 X49.9919 Y-45.9374
G01 X49.9751 Y-45.9476
G01 X49.9593 Y-45.9592
G01 X49.9517 Y-45.9655
G01 X49.9372 Y-45.9787
G01 X49.9240 Y-45.9932
G01 X49.9177 Y-46.0008
G01 X49.9061 Y-46.0166
G01 X49.8959 Y-46.0334
G01 X49.8913 Y-46.0420
G01 X49.8830 Y-46.0598
G01 X49.8741 Y-46.0853
G01 X49.8688 Y-46.1067
G01 X49.8658 Y-46.1261
G01 X49.8648 Y-46.1359
G01 X49.8640 Y-46.1555
G01 X49.8640 Y-47.3305
G01 X49.8652 Y-47.3550
G01 X49.8680 Y-47.3744
G01 X49.8699 Y-47.3841
G01 X49.8748 Y-47.4031
G01 X49.8830 Y-47.4262
G01 X49.8913 Y-47.4440
G01 X49.8959 Y-47.4526
G01 X49.9061 Y-47.4694
G01 X49.9177 Y-47.4852
G01 X49.9240 Y-47.4928
G01 X49.9372 Y-47.5073
G01 X49.9517 Y-47.5205
G01 X49.9593 Y-47.5268
G01 X49.9751 Y-47.5384
G01 X49.9940 Y-47.5498
G01 X50.0138 Y-47.5595
G01 X50.0229 Y-47.5632
G00 Z2.0000
G00 X48.1229 Y-47.5632
G01 F60.00
G01 Z-0.3000
G01 F300.00
G01 X48.1414 Y-47.5697
G01 X48.1652 Y-47.5757
G01 X48.1895 Y-47.5793
G01 X48.2115 Y-47.5805
G01 X48.5165 Y-47.5805
G01 X48.5361 Y-47.5795
G01 X48.5434 Y-47.5787
G01 X48.5628 Y-47.5757
G01 X48.5818 Y-47.5710
G01 X48.5912 Y-47.5682
G01 X48.6097 Y-47.5615
G01 X48.6275 Y-47.5532
G01 X48.6361 Y-47.5486
G01 X48.6529 Y-47.5384
G01 X48.6687 Y-47.5268
G01 X48.6763 Y-47.5205
G01 X48.6908 Y-47.5073
G01 X48.7040 Y-47.4928
G01 X48.7103 Y-47.4852
G01 X48.7219 Y-47.4694
G01 X48.7321 Y-47.4526
G01 X48.7367 Y-47.4440
G01 X48.7450 Y-47.4262
G01 X48.7539 Y-47.4007
G01 X48.7592 Y-47.3793
G01 X48.7622 Y-47.3599
G01 X48.7632 Y-47.3501
G01 X48.7640 Y-47.3305
G01 X48.7640 Y-46.1555
G01 X48.7625 Y-46.1286
G01 X48.7592 Y-46.1067
G01 X48.7545 Y-46.0877
G01 X48.7517 Y-46.0783
G01 X48.7450 Y-46.0598
G01 X48.7345 Y-46.0377
G01 X48.7245 Y-46.0208
G01 X48.7190 Y-46.0126
G01 X48.7073 Y-45.9969
G01 X48.6942 Y-45.9823
G01 X48.6872 Y-45.9753
G01 X48.6726 Y-45.9622
G01 X48.6529 Y-45.9476
G01 X48.6318 Y-45.9350
G01 X48.6142 Y-45.9265
G01 X48.6051 Y-45.9228
G01 X48.5842 Y-45.9156
G01 X48.5628 Y-45.9103
G01 X48.5434 Y-45.9073
G01 X48.5361 Y-45.9065
G01 X48.5165 Y-45.9055
G01 X48.2140 Y-45.9055
G01 X48.1944 Y-45.9063
G01 X48.1846 Y-45.9073
G01 X48.1652 Y-45.9103
G01 X48.1438 Y-45.9156
G01 X48.1183 Y-45.9245
G01 X48.1005 Y-45.9328
G01 X48.0919 Y-45.9374
G01 X48.0751 Y-45.9476
G01 X48.0593 Y-45.9592
G01 X48.0517 Y-45.9655
G01 X48.0372 Y-45.9787
G01 X48.0240 Y-45.9932
G01 X48.0177 Y-46.0008
G01 X48.0061 Y-46.0166
G01 X47.9959 Y-46.0334
G01 X47.9913 Y-46.0420
G01 X47.9830 Y-46.0598
G01 X47.9741 Y-46.0853
G01 X47.9688 Y-46.1067
G01 X47.9658 Y-46.1261
G01 X47.9648 Y-46.1359
G01 X47.9640 Y-46.1555
G01 X47.9640 Y-47.3305
G01 X47.9652 Y-47.3550
G01 X47.9680 Y-47.3744
G01 X47.9699 Y-47.3841
G01 X47.9748 Y-47.4031
G01 X47.9830 Y-47.4262
G01 X47.9913 Y-47.4440
G01 X47.9959 Y-47.4526
G01 X48.0061 Y-47.4694
G01 X48.0177 Y-47.4852
G01 X48.0240 Y-47.4928
G01 X48.0372 Y-47.5073
G01 X48.0517 Y-47.5205
G01 X48.0593 Y-47.5268
G01 X48.0751 Y-47.5384
G01 X48.0940 Y-47.5498
G01 X48.1138 Y-47.5595
G01 X48.1229 Y-47.5632
G00 Z2.0000
G00 X43.2010 Y-49.5980
G01 F60.00
G01 Z-0.3000
G01 F300.00
G01 X44.4059 Y-49.5979
G01 X44.4181 Y-49.5965
G01 X44.4253 Y-49.5950
G01 X44.4324 Y-49.5930
G01 X44.4393 Y-49.5904
G01 X44.4460 Y-49.5873
G01 X44.4524 Y-49.5838
G01 X44.4586 Y-49.5798
G01 X44.4644 Y-49.5753
G01 X44.4700 Y-49.5704
G01 X44.4751 Y-49.5652
G01 X44.4798 Y-49.5595
G01 X44.4841 Y-49.5536
G01 X44.4880 Y-49.5473
G01 X44.4914 Y-49.5408
G01 X44.4943 Y-49.5340
G01 X44.4967 Y-49.5270
G01 X44.4991 Y-49.5175
G01 X44.5005 Y-49.5078
G01 X44.5010 Y-49.4980
G01 X44.5010 Y-46.4955
G01 X44.5005 Y-46.4882
G01 X44.4995 Y-46.4809
G01 X44.4980 Y-46.4737
G01 X44.4960 Y-46.4666
G01 X44.4934 Y-46.4597
G01 X44.4903 Y-46.4530
G01 X44.4868 Y-46.4466
G01 X44.4828 Y-46.4404
G01 X44.4783 Y-46.4346
G01 X44.4734 Y-46.4290
G01 X44.4682 Y-46.4239
G01 X44.4625 Y-46.4192
G01 X44.4566 Y-46.4149
G01 X44.4503 Y-46.4110
G01 X44.4438 Y-46.4076
G01 X44.4370 Y-46.4047
G01 X44.4277 Y-46.4016
G01 X44.4205 Y-46.3999
G01 X44.4108 Y-46.3985
G01 X44.4010 Y-46.3980
G01 X43.1961 Y-46.3981
G01 X43.1888 Y-46.3988
G01 X43.1815 Y-46.3999
G01 X43.1743 Y-46.4016
G01 X43.1673 Y-46.4038
G01 X43.1605 Y-46.4066
G01 X43.1539 Y-46.4098
G01 X43.1475 Y-46.4135
G01 X43.1414 Y-46.4177
G01 X43.1357 Y-46.4223
G01 X43.1303 Y-46.4273
G01 X43.1222 Y-46.4365
G01 X43.1179 Y-46.4424
G01 X43.1140 Y-46.4487
G01 X43.1106 Y-46.4552
G01 X43.1077 Y-46.4620
G01 X43.1046 Y-46.4713
G01 X43.1025 Y-46.4809
G01 X43.1013 Y-46.4906
G01 X43.1010 Y-46.4980
G01 X43.1010 Y-49.5005
G01 X43.1015 Y-49.5078
G01 X43.1029 Y-49.5175
G01 X43.1053 Y-49.5270
G01 X43.1086 Y-49.5363
G01 X43.1128 Y-49.5451
G01 X43.1179 Y-49.5536
G01 X43.1237 Y-49.5614
G01 X43.1303 Y-49.5687
G01 X43.1376 Y-49.5753
G01 X43.1454 Y-49.5811
G01 X43.1539 Y-49.5862
G01 X43.1627 Y-49.5904
G01 X43.1720 Y-49.5937
G01 X43.1815 Y-49.5961
G01 X43.1912 Y-49.5975
G01 X43.2010 Y-49.5980
G00 Z2.0000
G00 X40.2510 Y-44.6480
G01 F60.00
G01 Z-0.3000
G01 F300.00
G01 X41.4559 Y-44.6479
G01 X41.4632 Y-44.6472
G01 X41.4729 Y-44.6456
G01 X41.4800 Y-44.6437
G01 X41.4870 Y-44.6413
G01 X41.4938 Y-44.6384
G01 X41.5003 Y-44.6350
G01 X41.5066 Y-44.6311
G01 X41.5144 Y-44.6253
G01 X41.5217 Y-44.6187
G01 X41.5267 Y-44.6133
G01 X41.5313 Y-44.6076
G01 X41.5355 Y-44.6015
G01 X41.5392 Y-44.5951
G01 X41.5434 Y-44.5863
G01 X41.5460 Y-44.5794
G01 X41.5480 Y-44.5723
G01 X41.5502 Y-44.5602
G01 X41.5510 Y-44.5480
G01 X41.5510 Y-40.0455
G01 X41.5502 Y-40.0358
G01 X41.5491 Y-40.0285
G01 X41.5474 Y-40.0213
G01 X41.5452 Y-40.0143
G01 X41.5424 Y-40.0075
G01 X41.5380 Y-39.9987
G01 X41.5341 Y-39.9924
G01 X41.5298 Y-39.9865
G01 X41.5251 Y-39.9808
G01 X41.5200 Y-39.9756
G01 X41.5125 Y-39.9692
G01 X41.5066 Y-39.9649
G01 X41.5003 Y-39.9610
G01 X41.4915 Y-39.9566
G01 X41.4847 Y-39.9538
G01 X41.4753 Y-39.9510
G01 X41.4632 Y-39.9488
G01 X41.4510 Y-39.9480
G01 X40.2461 Y-39.9481
G01 X40.2363 Y-39.9491
G01 X40.2291 Y-39.9504
G01 X40.2220 Y-39.9523
G01 X40.2150 Y-39.9547
G01 X40.2082 Y-39.9576
G01 X40.2017 Y-39.9610
G01 X40.1934 Y-39.9662
G01 X40.1876 Y-39.9707
G01 X40.1820 Y-39.9756
G01 X40.1769 Y-39.9808
G01 X40.1707 Y-39.9884
G01 X40.1665 Y-39.9945
G01 X40.1628 Y-40.0009
G01 X40.1586 Y-40.0097
G01 X40.1560 Y-40.0166
G01 X40.1540 Y-40.0237
G01 X40.1518 Y-40.0358
G01 X40.1510 Y-40.0480
G01 X40.1510 Y-44.5505
G01 X40.1515 Y-44.5578
G01 X40.1529 Y-44.5675
G01 X40.1553 Y-44.5770
G01 X40.1586 Y-44.5863
G01 X40.1628 Y-44.5951
G01 X40.1679 Y-44.6036
G01 X40.1737 Y-44.6114
G01 X40.1803 Y-44.6187
G01 X40.1876 Y-44.6253
G01 X40.1954 Y-44.6311
G01 X40.2039 Y-44.6362
G01 X40.2127 Y-44.6404
G01 X40.2220 Y-44.6437
G01 X40.2315 Y-44.6461
G01 X40.2412 Y-44.6475
G01 X40.2510 Y-44.6480
G00 Z2.0000
G00 X37.7510 Y-44.6480
G01 F60.00
G01 Z-0.3000
G01 F300.00
G01 X38.9559 Y-44.6479
G01 X38.9632 Y-44.6472
G01 X38.9729 Y-44.6456
G01 X38.9800 Y-44.6437
G01 X38.9870 Y-44.6413
G01 X38.9938 Y-44.6384
G01 X39.0003 Y-44.6350
G01 X39.0066 Y-44.6311
G01 X39.0144 Y-44.6253
G01 X39.0217 Y-44.6187
G01 X39.0267 Y-44.6133
G01 X39.0313 Y-44.6076
G01 X39.0355 Y-44.6015
G01 X39.0392 Y-44.5951
G01 X39.0434 Y-44.5863
G01 X39.0460 Y-44.5794
G01 X39.0480 Y-44.5723
G01 X39.0502 Y-44.5602
G01 X39.0510 Y-44.5480
G01 X39.0510 Y-40.0455
G01 X39.0502 Y-40.0358
G01 X39.0491 Y-40.0285
G01 X39.0474 Y-40.0213
G01 X39.0452 Y-40.0143
G01 X39.0424 Y-40.0075
G01 X39.0380 Y-39.9987
G01 X39.0341 Y-39.9924
G01 X39.0298 Y-39.9865
G01 X39.0251 Y-39.9808
G01 X39.0200 Y-39.9756
G01 X39.0125 Y-39.9692
G01 X39.0066 Y-39.9649
G01 X39.0003 Y-39.9610
G01 X38.9915 Y-39.9566
G01 X38.9847 Y-39.9538
G01 X38.9753 Y-39.9510
G01 X38.9632 Y-39.9488
G01 X38.9510 Y-39.9480
G01 X37.7461 Y-39.9481
G01 X37.7363 Y-39.9491
G01 X37.7291 Y-39.9504
G01 X37.7220 Y-39.9523
G01 X37.7150 Y-39.9547
G01 X37.7082 Y-39.9576
G01 X37.7017 Y-39.9610
G01 X37.6934 Y-39.9662
G01 X37.6876 Y-39.9707
G01 X37.6820 Y-39.9756
G01 X37.6769 Y-39.9808
G01 X37.6707 Y-39.9884
G01 X37.6665 Y-39.9945
G01 X37.6628 Y-40.0009
G01 X37.6586 Y-40.0097
G01 X37.6560 Y-40.0166
G01 X37.6540 Y-40.0237
G01 X37.6518 Y-40.0358
G01 X37.6510 Y-40.0480
G01 X37.6510 Y-44.5505
G01 X37.6515 Y-44.5578
G01 X37.6529 Y-44.5675
G01 X37.6553 Y-44.5770
G01 X37.6586 Y-44.5863
G01 X37.6628 Y-44.5951
G01 X37.6679 Y-44.6036
G01 X37.6737 Y-44.6114
G01 X37.6803 Y-44.6187
G01 X37.6876 Y-44.6253
G01 X37.6954 Y-44.6311
G01 X37.7039 Y-44.6362
G01 X37.7127 Y-44.6404
G01 X37.7220 Y-44.6437
G01 X37.7315 Y-44.6461
G01 X37.7412 Y-44.6475
G01 X37.7510 Y-44.6480
G00 Z2.0000
G00 X35.2510 Y-44.6480
G01 F60.00
G01 Z-0.3000
G01 F300.00
G01 X36.4559 Y-44.6479
G01 X36.4632 Y-44.6472
G01 X36.4729 Y-44.6456
G01 X36.4800 Y-44.6437
G01 X36.4870 Y-44.6413
G01 X36.4938 Y-44.6384
G01 X36.5003 Y-44.6350
G01 X36.5066 Y-44.6311
G01 X36.5144 Y-44.6253
G01 X36.5217 Y-44.6187
G01 X36.5267 Y-44.6133
G01 X36.5313 Y-44.6076
G01 X36.5355 Y-44.6015
G01 X36.5392 Y-44.5951
G01 X36.5434 Y-44.5863
G01 X36.5460 Y-44.5794
G01 X36.5480 Y-44.5723
G01 X36.5502 Y-44.5602
G01 X36.5510 Y-44.5480
G01 X36.5510 Y-40.0455
G01 X36.5502 Y-40.0358
G01 X36.5491 Y-40.0285
G01 X36.5474 Y-40.0213
G01 X36.5452 Y-40.0143
G01 X36.5424 Y-40.0075
G01 X36.5380 Y-39.9987
G01 X36.5341 Y-39.9924
G01 X36.5298 Y-39.9865
G01 X36.5251 Y-39.9808
G01 X36.5200 Y-39.9756
G01 X36.5125 Y-39.9692
G01 X36.5066 Y-39.9649
G01 X36.5003 Y-39.9610
G01 X36.4915 Y-39.9566
G01 X36.4847 Y-39.9538
G01 X36.4753 Y-39.9510
G01 X36.4632 Y-39.9488
G01 X36.4510 Y-39.9480
G01 X35.2461 Y-39.9481
G01 X35.2363 Y-39.9491
G01 X35.2291 Y-39.9504
G01 X35.2220 Y-39.9523
G01 X35.2150 Y-39.9547
G01 X35.2082 Y-39.9576
G01 X35.2017 Y-39.9610
G01 X35.1934 Y-39.9662
G01 X35.1876 Y-39.9707
G01 X35.1820 Y-39.9756
G01 X35.1769 Y-39.9808
G01 X35.1707 Y-39.9884
G01 X35.1665 Y-39.9945
G01 X35.1628 Y-40.0009
G01 X35.1586 Y-40.0097
G01 X35.1560 Y-40.0166
G01 X35.1540 Y-40.0237
G01 X35.1518 Y-40.0358
G01 X35.1510 Y-40.0480
G01 X35.1510 Y-44.5505
G01 X35.1515 Y-44.5578
G01 X35.1529 Y-44.5675
G01 X35.1553 Y-44.5770
G01 X35.1586 Y-44.5863
G01 X35.1628 Y-44.5951
G01 X35.1679 Y-44.6036
G01 X35.1737 Y-44.6114
G01 X35.1803 Y-44.6187
G01 X35.1876 Y-44.6253
G01 X35.1954 Y-44.6311
G01 X35.2039 Y-44.6362
G01 X35.2127 Y-44.6404
G01 X35.2220 Y-44.6437
G01 X35.2315 Y-44.6461
G01 X35.2412 Y-44.6475
G01 X35.2510 Y-44.6480
G00 Z2.0000
G00 X32.3010 Y-49.5980
G01 F60.00
G01 Z-0.3000
G01 F300.00
G01 X33.5059 Y-49.5979
G01 X33.5181 Y-49.5965
G01 X33.5253 Y-49.5950
G01 X33.5324 Y-49.5930
G01 X33.5393 Y-49.5904
G01 X33.5460 Y-49.5873
G01 X33.5524 Y-49.5838
G01 X33.5586 Y-49.5798
G01 X33.5644 Y-49.5753
G01 X33.5700 Y-49.5704
G01 X33.5751 Y-49.5652
G01 X33.5798 Y-49.5595
G01 X33.5841 Y-49.5536
G01 X33.5880 Y-49.5473
G01 X33.5914 Y-49.5408
G01 X33.5943 Y-49.5340
G01 X33.5967 Y-49.5270
G01 X33.5991 Y-49.5175
G01 X33.6005 Y-49.5078
G01 X33.6010 Y-49.4980
G01 X33.6010 Y-46.4955
G01 X33.6005 Y-46.4882
G01 X33.5995 Y-46.4809
G01 X33.5980 Y-46.4737
G01 X33.5960 Y-46.4666
G01 X33.5934 Y-46.4597
G01 X33.5903 Y-46.4530
G01 X33.5868 Y-46.4466
G01 X33.5828 Y-46.4404
G01 X33.5783 Y-46.4346
G01 X33.5734 Y-46.4290
G01 X33.5682 Y-46.4239
G01 X33.5625 Y-46.4192
G01 X33.5566 Y-46.4149
G01 X33.5503 Y-46.4110
G01 X33.5438 Y-46.4076
G01 X33.5370 Y-46.4047
G01 X33.5277 Y-46.4016
G01 X33.5205 Y-46.3999
G01 X33.5108 Y-46.3985
G01 X33.5010 Y-46.3980
G01 X32.2961 Y-46.3981
G01 X32.2888 Y-46.3988
G01 X32.2815 Y-46.3999
G01 X32.2743 Y-46.4016
G01 X32.2673 Y-46.4038
G01 X32.2605 Y-46.4066
G01 X32.2539 Y-46.4098
G01 X32.2475 Y-46.4135
G01 X32.2414 Y-46.4177
G01 X32.2357 Y-46.4223
G01 X32.2303 Y-46.4273
G01 X32.2222 Y-46.4365
G01 X32.2179 Y-46.4424
G01 X32.2140 Y-46.4487
G01 X32.2106 Y-46.4552
G01 X32.2077 Y-46.4620
G01 X32.2046 Y-46.4713
G01 X32.2025 Y-46.4809
G01 X32.2013 Y-46.4906
G01 X32.2010 Y-46.4980
G01 X32.2010 Y-49.5005
G01 X32.2015 Y-49.5078
G01 X32.2029 Y-49.5175
G01 X32.2053 Y-49.5270
G01 X32.2086 Y-49.5363
G01 X32.2128 Y-49.5451
G01 X32.2179 Y-49.5536
G01 X32.2237 Y-49.5614
G01 X32.2303 Y-49.5687
G01 X32.2376 Y-49.5753
G01 X32.2454 Y-49.5811
G01 X32.2539 Y-49.5862
G01 X32.2627 Y-49.5904
G01 X32.2720 Y-49.5937
G01 X32.2815 Y-49.5961
G01 X32.2912 Y-49.5975
G01 X32.3010 Y-49.5980
G00 Z2.0000
G00 X26.0560 Y-49.7250
G01 F60.00
G01 Z-0.3000
G01 F300.00
G01 X27.2609 Y-49.7249
G01 X27.2731 Y-49.7235
G01 X27.2803 Y-49.7220
G01 X27.2874 Y-49.7200
G01 X27.2943 Y-49.7174
G01 X27.3010 Y-49.7143
G01 X27.3074 Y-49.7108
G01 X27.3136 Y-49.7068
G01 X27.3194 Y-49.7023
G01 X27.3250 Y-49.6974
G01 X27.3301 Y-49.6922
G01 X27.3348 Y-49.6865
G01 X27.3391 Y-49.6806
G01 X27.3430 Y-49.6743
G01 X27.3464 Y-49.6678
G01 X27.3493 Y-49.6610
G01 X27.3517 Y-49.6540
G01 X27.3541 Y-49.6445
G01 X27.3555 Y-49.6348
G01 X27.3560 Y-49.6250
G01 X27.3560 Y-46.6225
G01 X27.3555 Y-46.6152
G01 X27.3545 Y-46.6079
G01 X27.3530 Y-46.6007
G01 X27.3510 Y-46.5936
G01 X27.3484 Y-46.5867
G01 X27.3453 Y-46.5800
G01 X27.3418 Y-46.5736
G01 X27.3378 Y-46.5674
G01 X27.3333 Y-46.5616
G01 X27.3284 Y-46.5560
G01 X27.3232 Y-46.5509
G01 X27.3175 Y-46.5462
G01 X27.3116 Y-46.5419
G01 X27.3053 Y-46.5380
G01 X27.2988 Y-46.5346
G01 X27.2920 Y-46.5317
G01 X27.2827 Y-46.5286
G01 X27.2755 Y-46.5269
G01 X27.2658 Y-46.5255
G01 X27.2560 Y-46.5250
G01 X26.0511 Y-46.5251
G01 X26.0438 Y-46.5258
G01 X26.0365 Y-46.5269
G01 X26.0293 Y-46.5286
G01 X26.0223 Y-46.5308
G01 X26.0155 Y-46.5336
G01 X26.0089 Y-46.5368
G01 X26.0025 Y-46.5405
G01 X25.9964 Y-46.5447
G01 X25.9907 Y-46.5493
G01 X25.9853 Y-46.5543
G01 X25.9772 Y-46.5635
G01 X25.9729 Y-46.5694
G01 X25.9690 Y-46.5757
G01 X25.9656 Y-46.5822
G01 X25.9627 Y-46.5890
G01 X25.9596 Y-46.5983
G01 X25.9575 Y-46.6079
G01 X25.9563 Y-46.6176
G01 X25.9560 Y-46.6250
G01 X25.9560 Y-49.6275
G01 X25.9565 Y-49.6348
G01 X25.9579 Y-49.6445
G01 X25.9603 Y-49.6540
G01 X25.9636 Y-49.6633
G01 X25.9678 Y-49.6721
G01 X25.9729 Y-49.6806
G01 X25.9787 Y-49.6884
G01 X25.9853 Y-49.6957
G01 X25.9926 Y-49.7023
G01 X26.0004 Y-49.7081
G01 X26.0089 Y-49.7132
G01 X26.0177 Y-49.7174
G01 X26.0270 Y-49.7207
G01 X26.0365 Y-49.7231
G01 X26.0462 Y-49.7245
G01 X26.0560 Y-49.7250
G00 Z2.0000
G00 X23.1060 Y-44.7750
G01 F60.00
G01 Z-0.3000
G01 F300.00
G01 X24.3109 Y-44.7749
G01 X24.3182 Y-44.7742
G01 X24.3279 Y-44.7726
G01 X24.3350 Y-44.7707
G01 X24.3420 Y-44.7683
G01 X24.3488 Y-44.7654
G01 X24.3553 Y-44.7620
G01 X24.3616 Y-44.7581
G01 X24.3694 Y-44.7523
G01 X24.3767 Y-44.7457
G01 X24.3817 Y-44.7403
G01 X24.3863 Y-44.7346
G01 X24.3905 Y-44.7285
G01 X24.3942 Y-44.7221
G01 X24.3984 Y-44.7133
G01 X24.4010 Y-44.7064
G01 X24.4030 Y-44.6993
G01 X24.4052 Y-44.6872
G01 X24.4060 Y-44.6750
G01 X24.4060 Y-40.1725
G01 X24.4052 Y-40.1628
G01 X24.4041 Y-40.1555
G01 X24.4024 Y-40.1483
G01 X24.4002 Y-40.1413
G01 X24.3974 Y-40.1345
G01 X24.3930 Y-40.1257
G01 X24.3891 Y-40.1194
G01 X24.3848 Y-40.1135
G01 X24.3801 Y-40.1078
G01 X24.3750 Y-40.1026
G01 X24.3675 Y-40.0962
G01 X24.3616 Y-40.0919
G01 X24.3553 Y-40.0880
G01 X24.3465 Y-40.0836
G01 X24.3397 Y-40.0808
G01 X24.3303 Y-40.0780
G01 X24.3182 Y-40.0758
G01 X24.3060 Y-40.0750
G01 X23.1011 Y-40.0751
G01 X23.0913 Y-40.0761
G01 X23.0841 Y-40.0774
G01 X23.0770 Y-40.0793
G01 X23.0700 Y-40.0817
G01 X23.0632 Y-40.0846
G01 X23.0567 Y-40.0880
G01 X23.0484 Y-40.0932
G01 X23.0426 Y-40.0977
G01 X23.0370 Y-40.1026
G01 X23.0319 Y-40.1078
G01 X23.0257 Y-40.1154
G01 X23.0215 Y-40.1215
G01 X23.0178 Y-40.1279
G01 X23.0136 Y-40.1367
G01 X23.0110 Y-40.1436
G01 X23.0090 Y-40.1507
G01 X23.0068 Y-40.1628
G01 X23.0060 Y-40.1750
G01 X23.0060 Y-44.6775
G01 X23.0065 Y-44.6848
G01 X23.0079 Y-44.6945
G01 X23.0103 Y-44.7040
G01 X23.0136 Y-44.7133
G01 X23.0178 Y-44.7221
G01 X23.0229 Y-44.7306
G01 X23.0287 Y-44.7384
G01 X23.0353 Y-44.7457
G01 X23.0426 Y-44.7523
G01 X23.0504 Y-44.7581
G01 X23.0589 Y-44.7632
G01 X23.0677 Y-44.7674
G01 X23.0770 Y-44.7707
G01 X23.0865 Y-44.7731
G01 X23.0962 Y-44.7745
G01 X23.1060 Y-44.7750
G00 Z2.0000
G00 X20.6060 Y-44.7750
G01 F60.00
G01 Z-0.3000
G01 F300.00
G01 X21.8109 Y-44.7749
G01 X21.8182 Y-44.7742
G01 X21.8279 Y-44.7726
G01 X21.8350 Y-44.7707
G01 X21.8420 Y-44.7683
G01 X21.8488 Y-44.7654
G01 X21.8553 Y-44.7620
G01 X21.8616 Y-44.7581
G01 X21.8694 Y-44.7523
G01 X21.8767 Y-44.7457
G01 X21.8817 Y-44.7403
G01 X21.8863 Y-44.7346
G01 X21.8905 Y-44.7285
G01 X21.8942 Y-44.7221
G01 X21.8984 Y-44.7133
G01 X21.9010 Y-44.7064
G01 X21.9030 Y-44.6993
G01 X21.9052 Y-44.6872
G01 X21.9060 Y-44.6750
G01 X21.9060 Y-40.1725
G01 X21.9052 Y-40.1628
G01 X21.9041 Y-40.1555
G01 X21.9024 Y-40.1483
G01 X21.9002 Y-40.1413
G01 X21.8974 Y-40.1345
G01 X21.8930 Y-40.1257
G01 X21.8891 Y-40.1194
G01 X21.8848 Y-40.1135
G01 X21.8801 Y-40.1078
G01 X21.8750 Y-40.1026
G01 X21.8675 Y-40.0962
G01 X21.8616 Y-40.0919
G01 X21.8553 Y-40.0880
G01 X21.8465 Y-40.0836
G01 X21.8397 Y-40.0808
G01 X21.8303 Y-40.0780
G01 X21.8182 Y-40.0758
G01 X21.8060 Y-40.0750
G01 X20.6011 Y-40.0751
G01 X20.5913 Y-40.0761
G01 X20.5841 Y-40.0774
G01 X20.5770 Y-40.0793
G01 X20.5700 Y-40.0817
G01 X20.5632 Y-40.0846
G01 X20.5567 Y-40.0880
G01 X20.5484 Y-40.0932
G01 X20.5426 Y-40.0977
G01 X20.5370 Y-40.1026
G01 X20.5319 Y-40.1078
G01 X20.5257 Y-40.1154
G01 X20.5215 Y-40.1215
G01 X20.5178 Y-40.1279
G01 X20.5136 Y-40.1367
G01 X20.5110 Y-40.1436
G01 X20.5090 Y-40.1507
G01 X20.5068 Y-40.1628
G01 X20.5060 Y-40.1750
G01 X20.5060 Y-44.6775
G01 X20.5065 Y-44.6848
G01 X20.5079 Y-44.6945
G01 X20.5103 Y-44.7040
G01 X20.5136 Y-44.7133
G01 X20.5178 Y-44.7221
G01 X20.5229 Y-44.7306
G01 X20.5287 Y-44.7384
G01 X20.5353 Y-44.7457
G01 X20.5426 Y-44.7523
G01 X20.5504 Y-44.7581
G01 X20.5589 Y-44.7632
G01 X20.5677 Y-44.7674
G01 X20.5770 Y-44.7707
G01 X20.5865 Y-44.7731
G01 X20.5962 Y-44.7745
G01 X20.6060 Y-44.7750
G00 Z2.0000
G00 X18.1060 Y-44.7750
G01 F60.00
G01 Z-0.3000
G01 F300.00
G01 X19.3109 Y-44.7749
G01 X19.3182 Y-44.7742
G01 X19.3279 Y-44.7726
G01 X19.3350 Y-44.7707
G01 X19.3420 Y-44.7683
G01 X19.3488 Y-44.7654
G01 X19.3553 Y-44.7620
G01 X19.3616 Y-44.7581
G01 X19.3694 Y-44.7523
G01 X19.3767 Y-44.7457
G01 X19.3817 Y-44.7403
G01 X19.3863 Y-44.7346
G01 X19.3905 Y-44.7285
G01 X19.3942 Y-44.7221
G01 X19.3984 Y-44.7133
G01 X19.4010 Y-44.7064
G01 X19.4030 Y-44.6993
G01 X19.4052 Y-44.6872
G01 X19.4060 Y-44.6750
G01 X19.4060 Y-40.1725
G01 X19.4052 Y-40.1628
G01 X19.4041 Y-40.1555
G01 X19.4024 Y-40.1483
G01 X19.4002 Y-40.1413
G01 X19.3974 Y-40.1345
G01 X19.3930 Y-40.1257
G01 X19.3891 Y-40.1194
G01 X19.3848 Y-40.1135
G01 X19.3801 Y-40.1078
G01 X19.3750 Y-40.1026
G01 X19.3675 Y-40.0962
G01 X19.3616 Y-40.0919
G01 X19.3553 Y-40.0880
G01 X19.3465 Y-40.0836
G01 X19.3397 Y-40.0808
G01 X19.3303 Y-40.0780
G01 X19.3182 Y-40.0758
G01 X19.3060 Y-40.0750
G01 X18.1011 Y-40.0751
G01 X18.0913 Y-40.0761
G01 X18.0841 Y-40.0774
G01 X18.0770 Y-40.0793
G01 X18.0700 Y-40.0817
G01 X18.0632 Y-40.0846
G01 X18.0567 Y-40.0880
G01 X18.0484 Y-40.0932
G01 X18.0426 Y-40.0977
G01 X18.0370 Y-40.1026
G01 X18.0319 Y-40.1078
G01 X18.0257 Y-40.1154
G01 X18.0215 Y-40.1215
G01 X18.0178 Y-40.1279
G01 X18.0136 Y-40.1367
G01 X18.0110 Y-40.1436
G01 X18.0090 Y-40.1507
G01 X18.0068 Y-40.1628
G01 X18.0060 Y-40.1750
G01 X18.0060 Y-44.6775
G01 X18.0065 Y-44.6848
G01 X18.0079 Y-44.6945
G01 X18.0103 Y-44.7040
G01 X18.0136 Y-44.7133
G01 X18.0178 Y-44.7221
G01 X18.0229 Y-44.7306
G01 X18.0287 Y-44.7384
G01 X18.0353 Y-44.7457
G01 X18.0426 Y-44.7523
G01 X18.0504 Y-44.7581
G01 X18.0589 Y-44.7632
G01 X18.0677 Y-44.7674
G01 X18.0770 Y-44.7707
G01 X18.0865 Y-44.7731
G01 X18.0962 Y-44.7745
G01 X18.1060 Y-44.7750
G00 Z2.0000
G00 X15.1560 Y-49.7250
G01 F60.00
G01 Z-0.3000
G01 F300.00
G01 X16.3609 Y-49.7249
G01 X16.3731 Y-49.7235
G01 X16.3803 Y-49.7220
G01 X16.3874 Y-49.7200
G01 X16.3943 Y-49.7174
G01 X16.4010 Y-49.7143
G01 X16.4074 Y-49.7108
G01 X16.4136 Y-49.7068
G01 X16.4194 Y-49.7023
G01 X16.4250 Y-49.6974
G01 X16.4301 Y-49.6922
G01 X16.4348 Y-49.6865
G01 X16.4391 Y-49.6806
G01 X16.4430 Y-49.6743
G01 X16.4464 Y-49.6678
G01 X16.4493 Y-49.6610
G01 X16.4517 Y-49.6540
G01 X16.4541 Y-49.6445
G01 X16.4555 Y-49.6348
G01 X16.4560 Y-49.6250
G01 X16.4560 Y-46.6225
G01 X16.4555 Y-46.6152
G01 X16.4545 Y-46.6079
G01 X16.4530 Y-46.6007
G01 X16.4510 Y-46.5936
G01 X16.4484 Y-46.5867
G01 X16.4453 Y-46.5800
G01 X16.4418 Y-46.5736
G01 X16.4378 Y-46.5674
G01 X16.4333 Y-46.5616
G01 X16.4284 Y-46.5560
G01 X16.4232 Y-46.5509
G01 X16.4175 Y-46.5462
G01 X16.4116 Y-46.5419
G01 X16.4053 Y-46.5380
G01 X16.3988 Y-46.5346
G01 X16.3920 Y-46.5317
G01 X16.3827 Y-46.5286
G01 X16.3755 Y-46.5269
G01 X16.3658 Y-46.5255
G01 X16.3560 Y-46.5250
G01 X15.1511 Y-46.5251
G01 X15.1438 Y-46.5258
G01 X15.1365 Y-46.5269
G01 X15.1293 Y-46.5286
G01 X15.1223 Y-46.5308
G01 X15.1155 Y-46.5336
G01 X15.1089 Y-46.5368
G01 X15.1025 Y-46.5405
G01 X15.0964 Y-46.5447
G01 X15.0907 Y-46.5493
G01 X15.0853 Y-46.5543
G01 X15.0772 Y-46.5635
G01 X15.0729 Y-46.5694
G01 X15.0690 Y-46.5757
G01 X15.0656 Y-46.5822
G01 X15.0627 Y-46.5890
G01 X15.0596 Y-46.5983
G01 X15.0575 Y-46.6079
G01 X15.0563 Y-46.6176
G01 X15.0560 Y-46.6250
G01 X15.0560 Y-49.6275
G01 X15.0565 Y-49.6348
G01 X15.0579 Y-49.6445
G01 X15.0603 Y-49.6540
G01 X15.0636 Y-49.6633
G01 X15.0678 Y-49.6721
G01 X15.0729 Y-49.6806
G01 X15.0787 Y-49.6884
G01 X15.0853 Y-49.6957
G01 X15.0926 Y-49.7023
G01 X15.1004 Y-49.7081
G01 X15.1089 Y-49.7132
G01 X15.1177 Y-49.7174
G01 X15.1270 Y-49.7207
G01 X15.1365 Y-49.7231
G01 X15.1462 Y-49.7245
G01 X15.1560 Y-49.7250
G00 Z2.0000
G00 X15.2856 Y-38.8401
G01 F60.00
G01 Z-0.3000
G01 F300.00
G01 X15.3134 Y-38.8499
G01 X15.3467 Y-38.8583
G01 X15.3807 Y-38.8633
G01 X15.4125 Y-38.8650
G01 X16.6675 Y-38.8650
G01 X16.6993 Y-38.8633
G01 X16.7284 Y-38.8591
G01 X16.7357 Y-38.8578
G01 X16.7619 Y-38.8512
G01 X16.7713 Y-38.8484
G01 X16.7989 Y-38.8384
G01 X16.8300 Y-38.8237
G01 X16.8594 Y-38.8060
G01 X16.8851 Y-38.7871
G01 X16.9125 Y-38.7625
G01 X16.9356 Y-38.7370
G01 X16.9560 Y-38.7094
G01 X16.9713 Y-38.6843
G01 X16.9759 Y-38.6756
G01 X16.9874 Y-38.6512
G01 X16.9901 Y-38.6444
G01 X16.9999 Y-38.6166
G01 X17.0072 Y-38.5881
G01 X17.0091 Y-38.5784
G01 X17.0130 Y-38.5517
G01 X17.0149 Y-38.5199
G01 X17.0150 Y-37.7650
G01 X17.0135 Y-37.7331
G01 X17.0091 Y-37.7016
G01 X17.0072 Y-37.6919
G01 X16.9999 Y-37.6634
G01 X16.9884 Y-37.6311
G01 X16.9759 Y-37.6044
G01 X16.9713 Y-37.5957
G01 X16.9560 Y-37.5706
G01 X16.9371 Y-37.5449
G01 X16.9125 Y-37.5175
G01 X16.8870 Y-37.4944
G01 X16.8594 Y-37.4740
G01 X16.8343 Y-37.4587
G01 X16.8256 Y-37.4541
G01 X16.7989 Y-37.4416
G01 X16.7713 Y-37.4316
G01 X16.7642 Y-37.4294
G01 X16.7381 Y-37.4228
G01 X16.7284 Y-37.4209
G01 X16.6993 Y-37.4167
G01 X16.6675 Y-37.4150
G01 X15.4150 Y-37.4150
G01 X15.3856 Y-37.4163
G01 X15.3758 Y-37.4173
G01 X15.3491 Y-37.4213
G01 X15.3419 Y-37.4228
G01 X15.3134 Y-37.4301
G01 X15.2811 Y-37.4416
G01 X15.2544 Y-37.4541
G01 X15.2457 Y-37.4587
G01 X15.2206 Y-37.4740
G01 X15.1949 Y-37.4929
G01 X15.1675 Y-37.5175
G01 X15.1444 Y-37.5430
G01 X15.1240 Y-37.5706
G01 X15.1063 Y-37.6000
G01 X15.0916 Y-37.6311
G01 X15.0801 Y-37.6634
G01 X15.0717 Y-37.6967
G01 X15.0670 Y-37.7283
G01 X15.0650 Y-37.7650
G01 X15.0650 Y-38.5150
G01 X15.0665 Y-38.5469
G01 X15.0709 Y-38.5784
G01 X15.0728 Y-38.5881
G01 X15.0801 Y-38.6166
G01 X15.0916 Y-38.6489
G01 X15.1041 Y-38.6756
G01 X15.1087 Y-38.6843
G01 X15.1240 Y-38.7094
G01 X15.1414 Y-38.7332
G01 X15.1477 Y-38.7408
G01 X15.1675 Y-38.7625
G01 X15.1892 Y-38.7823
G01 X15.1968 Y-38.7886
G01 X15.2206 Y-38.8060
G01 X15.2479 Y-38.8225
G01 X15.2766 Y-38.8364
G01 X15.2856 Y-38.8401
G00 Z2.0000
G00 X15.2856 Y-36.0401
G01 F60.00
G01 Z-0.3000
G01 F300.00
G01 X15.3134 Y-36.0499
G01 X15.3467 Y-36.0583
G01 X15.3807 Y-36.0633
G01 X15.4125 Y-36.0650
G01 X16.6675 Y-36.0650
G01 X16.6993 Y-36.0633
G01 X16.7284 Y-36.0591
G01 X16.7357 Y-36.0578
G01 X16.7619 Y-36.0512
G01 X16.7713 Y-36.0484
G01 X16.7989 Y-36.0384
G01 X16.8300 Y-36.0237
G01 X16.8594 Y-36.0060
G01 X16.8851 Y-35.9871
G01 X16.9125 Y-35.9625
G01 X16.9356 Y-35.9370
G01 X16.9560 Y-35.9094
G01 X16.9713 Y-35.8843
G01 X16.9759 Y-35.8756
G01 X16.9874 Y-35.8512
G01 X16.9901 Y-35.8444
G01 X16.9999 Y-35.8166
G01 X17.0072 Y-35.7881
G01 X17.0091 Y-35.7784
G01 X17.0130 Y-35.7517
G01 X17.0149 Y-35.7199
G01 X17.0150 Y-34.9650
G01 X17.0135 Y-34.9331
G01 X17.0091 Y-34.9016
G01 X17.0072 Y-34.8919
G01 X16.9999 Y-34.8634
G01 X16.9884 Y-34.8311
G01 X16.9759 Y-34.8044
G01 X16.9713 Y-34.7957
G01 X16.9560 Y-34.7706
G01 X16.9371 Y-34.7449
G01 X16.9125 Y-34.7175
G01 X16.8870 Y-34.6944
G01 X16.8594 Y-34.6740
G01 X16.8343 Y-34.6587
G01 X16.8256 Y-34.6541
G01 X16.7989 Y-34.6416
G01 X16.7713 Y-34.6316
G01 X16.7642 Y-34.6294
G01 X16.7381 Y-34.6228
G01 X16.7284 Y-34.6209
G01 X16.6993 Y-34.6167
G01 X16.6675 Y-34.6150
G01 X15.4150 Y-34.6150
G01 X15.3856 Y-34.6163
G01 X15.3758 Y-34.6173
G01 X15.3491 Y-34.6213
G01 X15.3419 Y-34.6228
G01 X15.3134 Y-34.6301
G01 X15.2811 Y-34.6416
G01 X15.2544 Y-34.6541
G01 X15.2457 Y-34.6587
G01 X15.2206 Y-34.6740
G01 X15.1949 Y-34.6929
G01 X15.1675 Y-34.7175
G01 X15.1444 Y-34.7430
G01 X15.1240 Y-34.7706
G01 X15.1063 Y-34.8000
G01 X15.0916 Y-34.8311
G01 X15.0801 Y-34.8634
G01 X15.0717 Y-34.8967
G01 X15.0670 Y-34.9283
G01 X15.0650 Y-34.9650
G01 X15.0650 Y-35.7150
G01 X15.0665 Y-35.7469
G01 X15.0709 Y-35.7784
G01 X15.0728 Y-35.7881
G01 X15.0801 Y-35.8166
G01 X15.0916 Y-35.8489
G01 X15.1041 Y-35.8756
G01 X15.1087 Y-35.8843
G01 X15.1240 Y-35.9094
G01 X15.1414 Y-35.9332
G01 X15.1477 Y-35.9408
G01 X15.1675 Y-35.9625
G01 X15.1892 Y-35.9823
G01 X15.1968 Y-35.9886
G01 X15.2206 Y-36.0060
G01 X15.2479 Y-36.0225
G01 X15.2766 Y-36.0364
G01 X15.2856 Y-36.0401
G00 Z2.0000
G00 X21.0820 Y-16.7910
G01 F60.00
G01 Z-0.3000
G01 F300.00
G01 X21.0820 Y-15.5410
G01 X21.0807 Y-15.5116
G01 X21.0800 Y-15.5043
G01 X21.0761 Y-15.4776
G01 X21.0742 Y-15.4679
G01 X21.0669 Y-15.4394
G01 X21.0554 Y-15.4071
G01 X21.0429 Y-15.3804
G01 X21.0383 Y-15.3717
G01 X21.0230 Y-15.3466
G01 X21.0041 Y-15.3209
G01 X20.9795 Y-15.2935
G01 X20.9540 Y-15.2704
G01 X20.9264 Y-15.2500
G01 X20.9013 Y-15.2347
G01 X20.8926 Y-15.2301
G01 X20.8659 Y-15.2176
G01 X20.8383 Y-15.2076
G01 X20.8312 Y-15.2054
G01 X20.8051 Y-15.1988
G01 X20.7954 Y-15.1969
G01 X20.7687 Y-15.1930
G01 X20.7369 Y-15.1911
G01 X20.1070 Y-15.1910
G01 X20.0727 Y-15.1927
G01 X20.0387 Y-15.1977
G01 X20.0101 Y-15.2048
G01 X20.0007 Y-15.2076
G01 X19.9731 Y-15.2176
G01 X19.9464 Y-15.2301
G01 X19.9377 Y-15.2347
G01 X19.9126 Y-15.2500
G01 X19.8869 Y-15.2689
G01 X19.8595 Y-15.2935
G01 X19.8364 Y-15.3190
G01 X19.8160 Y-15.3466
G01 X19.8007 Y-15.3717
G01 X19.7961 Y-15.3804
G01 X19.7846 Y-15.4048
G01 X19.7819 Y-15.4116
G01 X19.7721 Y-15.4394
G01 X19.7648 Y-15.4679
G01 X19.7629 Y-15.4776
G01 X19.7587 Y-15.5067
G01 X19.7570 Y-15.5385
G01 X19.7570 Y-16.7910
G01 X19.7583 Y-16.8204
G01 X19.7590 Y-16.8277
G01 X19.7629 Y-16.8544
G01 X19.7648 Y-16.8641
G01 X19.7721 Y-16.8926
G01 X19.7836 Y-16.9249
G01 X19.7961 Y-16.9516
G01 X19.8007 Y-16.9603
G01 X19.8160 Y-16.9854
G01 X19.8349 Y-17.0111
G01 X19.8595 Y-17.0385
G01 X19.8850 Y-17.0616
G01 X19.9126 Y-17.0820
G01 X19.9420 Y-17.0997
G01 X19.9731 Y-17.1144
G01 X20.0054 Y-17.1259
G01 X20.0387 Y-17.1343
G01 X20.0703 Y-17.1390
G01 X20.1070 Y-17.1410
G01 X20.7320 Y-17.1410
G01 X20.7663 Y-17.1393
G01 X20.7979 Y-17.1347
G01 X20.8336 Y-17.1259
G01 X20.8614 Y-17.1161
G01 X20.8682 Y-17.1134
G01 X20.8926 Y-17.1019
G01 X20.9013 Y-17.0973
G01 X20.9264 Y-17.0820
G01 X20.9540 Y-17.0616
G01 X20.9795 Y-17.0385
G01 X21.0026 Y-17.0130
G01 X21.0230 Y-16.9854
G01 X21.0407 Y-16.9560
G01 X21.0554 Y-16.9249
G01 X21.0654 Y-16.8973
G01 X21.0676 Y-16.8902
G01 X21.0742 Y-16.8641
G01 X21.0761 Y-16.8544
G01 X21.0803 Y-16.8253
G01 X21.0820 Y-16.7910
G00 Z2.0000
G00 X24.0070 Y-16.7910
G01 F60.00
G01 Z-0.3000
G01 F300.00
G01 X24.0070 Y-15.5410
G01 X24.0057 Y-15.5116
G01 X24.0050 Y-15.5043
G01 X24.0011 Y-15.4776
G01 X23.9992 Y-15.4679
G01 X23.9919 Y-15.4394
G01 X23.9804 Y-15.4071
G01 X23.9679 Y-15.3804
G01 X23.9633 Y-15.3717
G01 X23.9480 Y-15.3466
G01 X23.9291 Y-15.3209
G01 X23.9045 Y-15.2935
G01 X23.8790 Y-15.2704
G01 X23.8514 Y-15.2500
G01 X23.8263 Y-15.2347
G01 X23.8176 Y-15.2301
G01 X23.7909 Y-15.2176
G01 X23.7633 Y-15.2076
G01 X23.7562 Y-15.2054
G01 X23.7301 Y-15.1988
G01 X23.7204 Y-15.1969
G01 X23.6937 Y-15.1930
G01 X23.6619 Y-15.1911
G01 X23.0320 Y-15.1910
G01 X22.9977 Y-15.1927
G01 X22.9637 Y-15.1977
G01 X22.9351 Y-15.2048
G01 X22.9257 Y-15.2076
G01 X22.8981 Y-15.2176
G01 X22.8714 Y-15.2301
G01 X22.8627 Y-15.2347
G01 X22.8376 Y-15.2500
G01 X22.8119 Y-15.2689
G01 X22.7845 Y-15.2935
G01 X22.7614 Y-15.3190
G01 X22.7410 Y-15.3466
G01 X22.7257 Y-15.3717
G01 X22.7211 Y-15.3804
G01 X22.7096 Y-15.4048
G01 X22.7069 Y-15.4116
G01 X22.6971 Y-15.4394
G01 X22.6898 Y-15.4679
G01 X22.6879 Y-15.4776
G01 X22.6837 Y-15.5067
G01 X22.6820 Y-15.5385
G01 X22.6820 Y-16.7910
G01 X22.6833 Y-16.8204
G01 X22.6840 Y-16.8277
G01 X22.6879 Y-16.8544
G01 X22.6898 Y-16.8641
G01 X22.6971 Y-16.8926
G01 X22.7086 Y-16.9249
G01 X22.7211 Y-16.9516
G01 X22.7257 Y-16.9603
G01 X22.7410 Y-16.9854
G01 X22.7599 Y-17.0111
G01 X22.7845 Y-17.0385
G01 X22.8100 Y-17.0616
G01 X22.8376 Y-17.0820
G01 X22.8670 Y-17.0997
G01 X22.8981 Y-17.1144
G01 X22.9304 Y-17.1259
G01 X22.9637 Y-17.1343
G01 X22.9953 Y-17.1390
G01 X23.0320 Y-17.1410
G01 X23.6570 Y-17.1410
G01 X23.6913 Y-17.1393
G01 X23.7229 Y-17.1347
G01 X23.7586 Y-17.1259
G01 X23.7864 Y-17.1161
G01 X23.7932 Y-17.1134
G01 X23.8176 Y-17.1019
G01 X23.8263 Y-17.0973
G01 X23.8514 Y-17.0820
G01 X23.8790 Y-17.0616
G01 X23.9045 Y-17.0385
G01 X23.9276 Y-17.0130
G01 X23.9480 Y-16.9854
G01 X23.9657 Y-16.9560
G01 X23.9804 Y-16.9249
G01 X23.9904 Y-16.8973
G01 X23.9926 Y-16.8902
G01 X23.9992 Y-16.8641
G01 X24.0011 Y-16.8544
G01 X24.0053 Y-16.8253
G01 X24.0070 Y-16.7910
G00 Z2.0000
G00 X27.0510 Y-16.7910
G01 F60.00
G01 Z-0.3000
G01 F300.00
G01 X27.0510 Y-15.5410
G01 X27.0497 Y-15.5116
G01 X27.0490 Y-15.5043
G01 X27.0451 Y-15.4776
G01 X27.0432 Y-15.4679
G01 X27.0359 Y-15.4394
G01 X27.0244 Y-15.4071
G01 X27.0119 Y-15.3804
G01 X27.0073 Y-15.3717
G01 X26.9920 Y-15.3466
G01 X26.9731 Y-15.3209
G01 X26.9485 Y-15.2935
G01 X26.9230 Y-15.2704
G01 X26.8954 Y-15.2500
G01 X26.8703 Y-15.2347
G01 X26.8616 Y-15.2301
G01 X26.8349 Y-15.2176
G01 X26.8073 Y-15.2076
G01 X26.8002 Y-15.2054
G01 X26.7741 Y-15.1988
G01 X26.7644 Y-15.1969
G01 X26.7377 Y-15.1930
G01 X26.7059 Y-15.1911
G01 X26.0760 Y-15.1910
G01 X26.0417 Y-15.1927
G01 X26.0077 Y-15.1977
G01 X25.9791 Y-15.2048
G01 X25.9697 Y-15.2076
G01 X25.9421 Y-15.2176
G01 X25.9154 Y-15.2301
G01 X25.9067 Y-15.2347
G01 X25.8816 Y-15.2500
G01 X25.8559 Y-15.2689
G01 X25.8285 Y-15.2935
G01 X25.8054 Y-15.3190
G01 X25.7850 Y-15.3466
G01 X25.7697 Y-15.3717
G01 X25.7651 Y-15.3804
G01 X25.7536 Y-15.4048
G01 X25.7509 Y-15.4116
G01 X25.7411 Y-15.4394
G01 X25.7338 Y-15.4679
G01 X25.7319 Y-15.4776
G01 X25.7277 Y-15.5067
G01 X25.7260 Y-15.5385
G01 X25.7260 Y-16.7910
G01 X25.7273 Y-16.8204
G01 X25.7280 Y-16.8277
G01 X25.7319 Y-16.8544
G01 X25.7338 Y-16.8641
G01 X25.7411 Y-16.8926
G01 X25.7526 Y-16.9249
G01 X25.7651 Y-16.9516
G01 X25.7697 Y-16.9603
G01 X25.7850 Y-16.9854
G01 X25.8039 Y-17.0111
G01 X25.8285 Y-17.0385
G01 X25.8540 Y-17.0616
G01 X25.8816 Y-17.0820
G01 X25.9110 Y-17.0997
G01 X25.9421 Y-17.1144
G01 X25.9744 Y-17.1259
G01 X26.0077 Y-17.1343
G01 X26.0393 Y-17.1390
G01 X26.0760 Y-17.1410
G01 X26.7010 Y-17.1410
G01 X26.7353 Y-17.1393
G01 X26.7669 Y-17.1347
G01 X26.8026 Y-17.1259
G01 X26.8304 Y-17.1161
G01 X26.8372 Y-17.1134
G01 X26.8616 Y-17.1019
G01 X26.8703 Y-17.0973
G01 X26.8954 Y-17.0820
G01 X26.9230 Y-17.0616
G01 X26.9485 Y-17.0385
G01 X26.9716 Y-17.0130
G01 X26.9920 Y-16.9854
G01 X27.0097 Y-16.9560
G01 X27.0244 Y-16.9249
G01 X27.0344 Y-16.8973
G01 X27.0366 Y-16.8902
G01 X27.0432 Y-16.8641
G01 X27.0451 Y-16.8544
G01 X27.0493 Y-16.8253
G01 X27.0510 Y-16.7910
G00 Z2.0000
G00 X29.9760 Y-16.7910
G01 F60.00
G01 Z-0.3000
G01 F300.00
G01 X29.9760 Y-15.5410
G01 X29.9747 Y-15.5116
G01 X29.9740 Y-15.5043
G01 X29.9701 Y-15.4776
G01 X29.9682 Y-15.4679
G01 X29.9609 Y-15.4394
G01 X29.9494 Y-15.4071
G01 X29.9369 Y-15.3804
G01 X29.9323 Y-15.3717
G01 X29.9170 Y-15.3466
G01 X29.8981 Y-15.3209
G01 X29.8735 Y-15.2935
G01 X29.8480 Y-15.2704
G01 X29.8204 Y-15.2500
G01 X29.7953 Y-15.2347
G01 X29.7866 Y-15.2301
G01 X29.7599 Y-15.2176
G01 X29.7323 Y-15.2076
G01 X29.7252 Y-15.2054
G01 X29.6991 Y-15.1988
G01 X29.6894 Y-15.1969
G01 X29.6627 Y-15.1930
G01 X29.6309 Y-15.1911
G01 X29.0010 Y-15.1910
G01 X28.9667 Y-15.1927
G01 X28.9327 Y-15.1977
G01 X28.9041 Y-15.2048
G01 X28.8947 Y-15.2076
G01 X28.8671 Y-15.2176
G01 X28.8404 Y-15.2301
G01 X28.8317 Y-15.2347
G01 X28.8066 Y-15.2500
G01 X28.7809 Y-15.2689
G01 X28.7535 Y-15.2935
G01 X28.7304 Y-15.3190
G01 X28.7100 Y-15.3466
G01 X28.6947 Y-15.3717
G01 X28.6901 Y-15.3804
G01 X28.6786 Y-15.4048
G01 X28.6759 Y-15.4116
G01 X28.6661 Y-15.4394
G01 X28.6588 Y-15.4679
G01 X28.6569 Y-15.4776
G01 X28.6527 Y-15.5067
G01 X28.6510 Y-15.5385
G01 X28.6510 Y-16.7910
G01 X28.6523 Y-16.8204
G01 X28.6530 Y-16.8277
G01 X28.6569 Y-16.8544
G01 X28.6588 Y-16.8641
G01 X28.6661 Y-16.8926
G01 X28.6776 Y-16.9249
G01 X28.6901 Y-16.9516
G01 X28.6947 Y-16.9603
G01 X28.7100 Y-16.9854
G01 X28.7289 Y-17.0111
G01 X28.7535 Y-17.0385
G01 X28.7790 Y-17.0616
G01 X28.8066 Y-17.0820
G01 X28.8360 Y-17.0997
G01 X28.8671 Y-17.1144
G01 X28.8994 Y-17.1259
G01 X28.9327 Y-17.1343
G01 X28.9643 Y-17.1390
G01 X29.0010 Y-17.1410
G01 X29.6260 Y-17.1410
G01 X29.6603 Y-17.1393
G01 X29.6919 Y-17.1347
G01 X29.7276 Y-17.1259
G01 X29.7554 Y-17.1161
G01 X29.7622 Y-17.1134
G01 X29.7866 Y-17.1019
G01 X29.7953 Y-17.0973
G01 X29.8204 Y-17.0820
G01 X29.8480 Y-17.0616
G01 X29.8735 Y-17.0385
G01 X29.8966 Y-17.0130
G01 X29.9170 Y-16.9854
G01 X29.9347 Y-16.9560
G01 X29.9494 Y-16.9249
G01 X29.9594 Y-16.8973
G01 X29.9616 Y-16.8902
G01 X29.9682 Y-16.8641
G01 X29.9701 Y-16.8544
G01 X29.9743 Y-16.8253
G01 X29.9760 Y-16.7910
G00 Z2.0000
G00 X28.3970 Y-10.8775
G01 F60.00
G01 Z-0.3000
G01 F300.00
G01 X28.7019 Y-10.8774
G01 X28.7215 Y-10.8763
G01 X28.7458 Y-10.8727
G01 X28.7696 Y-10.8667
G01 X28.7881 Y-10.8602
G01 X28.7972 Y-10.8565
G01 X28.8148 Y-10.8480
G01 X28.8317 Y-10.8380
G01 X28.8399 Y-10.8325
G01 X28.8556 Y-10.8208
G01 X28.8702 Y-10.8077
G01 X28.8772 Y-10.8007
G01 X28.8903 Y-10.7861
G01 X28.9049 Y-10.7664
G01 X28.9151 Y-10.7496
G01 X28.9197 Y-10.7410
G01 X28.9280 Y-10.7232
G01 X28.9347 Y-10.7047
G01 X28.9375 Y-10.6953
G01 X28.9422 Y-10.6763
G01 X28.9458 Y-10.6520
G01 X28.9470 Y-10.6275
G01 X28.9470 Y-9.4525
G01 X28.9455 Y-9.4256
G01 X28.9422 Y-9.4037
G01 X28.9369 Y-9.3823
G01 X28.9297 Y-9.3614
G01 X28.9260 Y-9.3523
G01 X28.9175 Y-9.3347
G01 X28.9049 Y-9.3136
G01 X28.8903 Y-9.2939
G01 X28.8772 Y-9.2793
G01 X28.8702 Y-9.2723
G01 X28.8575 Y-9.2608
G01 X28.8517 Y-9.2562
G01 X28.8359 Y-9.2446
G01 X28.8148 Y-9.2320
G01 X28.7927 Y-9.2215
G01 X28.7742 Y-9.2148
G01 X28.7648 Y-9.2120
G01 X28.7458 Y-9.2073
G01 X28.7215 Y-9.2037
G01 X28.6995 Y-9.2025
G01 X28.3945 Y-9.2025
G01 X28.3725 Y-9.2037
G01 X28.3531 Y-9.2065
G01 X28.3434 Y-9.2084
G01 X28.3221 Y-9.2140
G01 X28.3013 Y-9.2215
G01 X28.2835 Y-9.2298
G01 X28.2749 Y-9.2344
G01 X28.2581 Y-9.2446
G01 X28.2423 Y-9.2562
G01 X28.2347 Y-9.2625
G01 X28.2202 Y-9.2757
G01 X28.2070 Y-9.2902
G01 X28.2007 Y-9.2978
G01 X28.1891 Y-9.3136
G01 X28.1789 Y-9.3304
G01 X28.1743 Y-9.3390
G01 X28.1660 Y-9.3568
G01 X28.1593 Y-9.3753
G01 X28.1565 Y-9.3847
G01 X28.1518 Y-9.4037
G01 X28.1482 Y-9.4280
G01 X28.1470 Y-9.4525
G01 X28.1470 Y-10.6275
G01 X28.1482 Y-10.6520
G01 X28.1514 Y-10.6739
G01 X28.1571 Y-10.6977
G01 X28.1643 Y-10.7186
G01 X28.1680 Y-10.7277
G01 X28.1754 Y-10.7432
G01 X28.1789 Y-10.7496
G01 X28.1891 Y-10.7664
G01 X28.2037 Y-10.7861
G01 X28.2202 Y-10.8043
G01 X28.2384 Y-10.8208
G01 X28.2581 Y-10.8354
G01 X28.2792 Y-10.8480
G01 X28.3013 Y-10.8585
G01 X28.3198 Y-10.8652
G01 X28.3292 Y-10.8680
G01 X28.3458 Y-10.8722
G01 X28.3531 Y-10.8735
G01 X28.3725 Y-10.8763
G01 X28.3970 Y-10.8775
G00 Z2.0000
G00 X26.4970 Y-10.8775
G01 F60.00
G01 Z-0.3000
G01 F300.00
G01 X26.8019 Y-10.8774
G01 X26.8215 Y-10.8763
G01 X26.8458 Y-10.8727
G01 X26.8696 Y-10.8667
G01 X26.8881 Y-10.8602
G01 X26.8972 Y-10.8565
G01 X26.9148 Y-10.8480
G01 X26.9317 Y-10.8380
G01 X26.9399 Y-10.8325
G01 X26.9556 Y-10.8208
G01 X26.9702 Y-10.8077
G01 X26.9772 Y-10.8007
G01 X26.9903 Y-10.7861
G01 X27.0049 Y-10.7664
G01 X27.0151 Y-10.7496
G01 X27.0197 Y-10.7410
G01 X27.0280 Y-10.7232
G01 X27.0347 Y-10.7047
G01 X27.0375 Y-10.6953
G01 X27.0422 Y-10.6763
G01 X27.0458 Y-10.6520
G01 X27.0470 Y-10.6275
G01 X27.0470 Y-9.4525
G01 X27.0455 Y-9.4256
G01 X27.0422 Y-9.4037
G01 X27.0369 Y-9.3823
G01 X27.0297 Y-9.3614
G01 X27.0260 Y-9.3523
G01 X27.0175 Y-9.3347
G01 X27.0049 Y-9.3136
G01 X26.9903 Y-9.2939
G01 X26.9772 Y-9.2793
G01 X26.9702 Y-9.2723
G01 X26.9575 Y-9.2608
G01 X26.9517 Y-9.2562
G01 X26.9359 Y-9.2446
G01 X26.9148 Y-9.2320
G01 X26.8927 Y-9.2215
G01 X26.8742 Y-9.2148
G01 X26.8648 Y-9.2120
G01 X26.8458 Y-9.2073
G01 X26.8215 Y-9.2037
G01 X26.7995 Y-9.2025
G01 X26.4945 Y-9.2025
G01 X26.4725 Y-9.2037
G01 X26.4531 Y-9.2065
G01 X26.4434 Y-9.2084
G01 X26.4221 Y-9.2140
G01 X26.4013 Y-9.2215
G01 X26.3835 Y-9.2298
G01 X26.3749 Y-9.2344
G01 X26.3581 Y-9.2446
G01 X26.3423 Y-9.2562
G01 X26.3347 Y-9.2625
G01 X26.3202 Y-9.2757
G01 X26.3070 Y-9.2902
G01 X26.3007 Y-9.2978
G01 X26.2891 Y-9.3136
G01 X26.2789 Y-9.3304
G01 X26.2743 Y-9.3390
G01 X26.2660 Y-9.3568
G01 X26.2593 Y-9.3753
G01 X26.2565 Y-9.3847
G01 X26.2518 Y-9.4037
G01 X26.2482 Y-9.4280
G01 X26.2470 Y-9.4525
G01 X26.2470 Y-10.6275
G01 X26.2482 Y-10.6520
G01 X26.2514 Y-10.6739
G01 X26.2571 Y-10.6977
G01 X26.2643 Y-10.7186
G01 X26.2680 Y-10.7277
G01 X26.2754 Y-10.7432
G01 X26.2789 Y-10.7496
G01 X26.2891 Y-10.7664
G01 X26.3037 Y-10.7861
G01 X26.3202 Y-10.8043
G01 X26.3384 Y-10.8208
G01 X26.3581 Y-10.8354
G01 X26.3792 Y-10.8480
G01 X26.4013 Y-10.8585
G01 X26.4198 Y-10.8652
G01 X26.4292 Y-10.8680
G01 X26.4458 Y-10.8722
G01 X26.4531 Y-10.8735
G01 X26.4725 Y-10.8763
G01 X26.4970 Y-10.8775
G00 Z2.0000
G00 X27.4470 Y-9.0025
G01 F60.00
G01 Z-0.3000
G01 F300.00
G01 X27.7519 Y-9.0024
G01 X27.7715 Y-9.0013
G01 X27.7958 Y-8.9977
G01 X27.8196 Y-8.9917
G01 X27.8381 Y-8.9852
G01 X27.8472 Y-8.9815
G01 X27.8648 Y-8.9730
G01 X27.8817 Y-8.9630
G01 X27.8899 Y-8.9575
G01 X27.9056 Y-8.9458
G01 X27.9202 Y-8.9327
G01 X27.9272 Y-8.9257
G01 X27.9403 Y-8.9111
G01 X27.9549 Y-8.8914
G01 X27.9651 Y-8.8746
G01 X27.9697 Y-8.8660
G01 X27.9780 Y-8.8482
G01 X27.9847 Y-8.8297
G01 X27.9875 Y-8.8203
G01 X27.9922 Y-8.8013
G01 X27.9958 Y-8.7770
G01 X27.9970 Y-8.7525
G01 X27.9970 Y-7.5775
G01 X27.9955 Y-7.5506
G01 X27.9922 Y-7.5287
G01 X27.9869 Y-7.5073
G01 X27.9797 Y-7.4864
G01 X27.9760 Y-7.4773
G01 X27.9675 Y-7.4597
G01 X27.9549 Y-7.4386
G01 X27.9403 Y-7.4189
G01 X27.9272 Y-7.4043
G01 X27.9202 Y-7.3973
G01 X27.9075 Y-7.3858
G01 X27.9017 Y-7.3812
G01 X27.8859 Y-7.3696
G01 X27.8648 Y-7.3570
G01 X27.8427 Y-7.3465
G01 X27.8242 Y-7.3398
G01 X27.8148 Y-7.3370
G01 X27.7958 Y-7.3323
G01 X27.7715 Y-7.3287
G01 X27.7495 Y-7.3275
G01 X27.4445 Y-7.3275
G01 X27.4225 Y-7.3287
G01 X27.4031 Y-7.3315
G01 X27.3934 Y-7.3334
G01 X27.3721 Y-7.3390
G01 X27.3513 Y-7.3465
G01 X27.3335 Y-7.3548
G01 X27.3249 Y-7.3594
G01 X27.3081 Y-7.3696
G01 X27.2923 Y-7.3812
G01 X27.2847 Y-7.3875
G01 X27.2702 Y-7.4007
G01 X27.2570 Y-7.4152
G01 X27.2507 Y-7.4228
G01 X27.2391 Y-7.4386
G01 X27.2289 Y-7.4554
G01 X27.2243 Y-7.4640
G01 X27.2160 Y-7.4818
G01 X27.2093 Y-7.5003
G01 X27.2065 Y-7.5097
G01 X27.2018 Y-7.5287
G01 X27.1982 Y-7.5530
G01 X27.1970 Y-7.5775
G01 X27.1970 Y-8.7525
G01 X27.1982 Y-8.7770
G01 X27.2014 Y-8.7989
G01 X27.2071 Y-8.8227
G01 X27.2143 Y-8.8436
G01 X27.2180 Y-8.8527
G01 X27.2254 Y-8.8682
G01 X27.2289 Y-8.8746
G01 X27.2391 Y-8.8914
G01 X27.2537 Y-8.9111
