(Exported by FreeCAD)
(Post Processor: KineticNCBeamicon2_post)
(Output Time:2024-12-17 12:03:33.901757)
(begin preamble)
%
G17 G21 G40 G49 G80 G90
M08
G21
(begin operation: Fixture)
(machine: not set, mm/min)
G54
(finish operation: Fixture)
(begin operation: 2mm_Endmill001)
(machine: not set, mm/min)
(2mm_Endmill001)
M05
M09M6 T2
M3 S10000
(finish operation: 2mm_Endmill001)
(begin operation: Pocket_Shape)
(machine: not set, mm/min)
(Pocket_Shape)
G0 Z5.000
G0 X45.965 Y-12.429
G0 Z3.000
G1 X45.965 Y-12.429 Z-1.500 F120.000
G2 X46.000 Y-12.461 Z-1.500 I-0.227 J-0.285 F160.000
G1 X46.000 Y-12.393 Z-1.500 F160.000
G2 X45.922 Y-12.393 Z-1.500 I-0.039 J0.004 F160.000
G3 X45.558 Y-12.129 Z-1.500 I-1.409 J-1.556 F160.000
G1 X46.000 Y-11.686 Z-1.500 F160.000
G1 X46.000 Y-10.979 Z-1.500 F160.000
G1 X45.056 Y-11.923 Z-1.500 F160.000
G3 X44.418 Y-11.854 Z-1.500 I-0.541 J-2.011 F160.000
G1 X46.000 Y-10.272 Z-1.500 F160.000
G1 X46.000 Y-9.565 Z-1.500 F160.000
G1 X43.429 Y-12.136 Z-1.500 F160.000
G3 X42.636 Y-12.929 Z-1.500 I1.068 J-1.861 F160.000
G1 X32.565 Y-23.000 Z-1.500 F160.000
G1 X31.858 Y-23.000 Z-1.500 F160.000
G1 X46.000 Y-8.858 Z-1.500 F160.000
G1 X46.000 Y-8.151 Z-1.500 F160.000
G1 X31.151 Y-23.000 Z-1.500 F160.000
G1 X30.444 Y-23.000 Z-1.500 F160.000
G1 X46.000 Y-7.444 Z-1.500 F160.000
G1 X46.000 Y-6.737 Z-1.500 F160.000
G1 X29.737 Y-23.000 Z-1.500 F160.000
G1 X29.029 Y-23.000 Z-1.500 F160.000
G1 X46.000 Y-6.029 Z-1.500 F160.000
G1 X46.000 Y-5.322 Z-1.500 F160.000
G1 X28.322 Y-23.000 Z-1.500 F160.000
G1 X27.615 Y-23.000 Z-1.500 F160.000
G1 X45.615 Y-5.000 Z-1.500 F160.000
G1 X44.908 Y-5.000 Z-1.500 F160.000
G1 X26.908 Y-23.000 Z-1.500 F160.000
G1 X26.201 Y-23.000 Z-1.500 F160.000
G1 X44.201 Y-5.000 Z-1.500 F160.000
G1 X43.494 Y-5.000 Z-1.500 F160.000
G1 X25.494 Y-23.000 Z-1.500 F160.000
G1 X24.787 Y-23.000 Z-1.500 F160.000
G1 X42.787 Y-5.000 Z-1.500 F160.000
G1 X42.080 Y-5.000 Z-1.500 F160.000
G1 X24.080 Y-23.000 Z-1.500 F160.000
G1 X23.373 Y-23.000 Z-1.500 F160.000
G1 X41.373 Y-5.000 Z-1.500 F160.000
G1 X40.665 Y-5.000 Z-1.500 F160.000
G1 X22.665 Y-23.000 Z-1.500 F160.000
G1 X21.958 Y-23.000 Z-1.500 F160.000
G1 X39.958 Y-5.000 Z-1.500 F160.000
G1 X39.251 Y-5.000 Z-1.500 F160.000
G1 X21.251 Y-23.000 Z-1.500 F160.000
G1 X20.544 Y-23.000 Z-1.500 F160.000
G1 X38.544 Y-5.000 Z-1.500 F160.000
G1 X37.837 Y-5.000 Z-1.500 F160.000
G1 X19.837 Y-23.000 Z-1.500 F160.000
G1 X19.130 Y-23.000 Z-1.500 F160.000
G1 X37.130 Y-5.000 Z-1.500 F160.000
G1 X36.423 Y-5.000 Z-1.500 F160.000
G1 X18.423 Y-23.000 Z-1.500 F160.000
G1 X17.989 Y-23.000 Z-1.500 F160.000
G1 X17.989 Y-22.726 Z-1.500 F160.000
G1 X35.716 Y-5.000 Z-1.500 F160.000
G1 X35.009 Y-5.000 Z-1.500 F160.000
G1 X17.989 Y-22.019 Z-1.500 F160.000
G1 X17.989 Y-21.312 Z-1.500 F160.000
G1 X34.301 Y-5.000 Z-1.500 F160.000
G1 X33.594 Y-5.000 Z-1.500 F160.000
G1 X17.989 Y-20.605 Z-1.500 F160.000
G1 X17.989 Y-19.898 Z-1.500 F160.000
G1 X32.887 Y-5.000 Z-1.500 F160.000
G1 X32.180 Y-5.000 Z-1.500 F160.000
G1 X17.989 Y-19.191 Z-1.500 F160.000
G1 X17.989 Y-18.484 Z-1.500 F160.000
G1 X20.684 Y-15.789 Z-1.500 F160.000
G2 X19.624 Y-16.142 Z-1.500 I-1.185 J1.793 F160.000
G1 X17.989 Y-17.777 Z-1.500 F160.000
G1 X17.989 Y-17.070 Z-1.500 F160.000
G1 X18.975 Y-16.084 Z-1.500 F160.000
G2 X18.467 Y-15.885 Z-1.500 I0.795 J2.767 F160.000
G1 X17.989 Y-16.362 Z-1.500 F160.000
G1 X17.989 Y-15.655 Z-1.500 F160.000
G1 X18.056 Y-15.589 Z-1.500 F160.000
G2 X17.989 Y-15.529 Z-1.500 I0.418 J0.539 F160.000
G1 X17.989 Y-15.655 Z-1.500 F160.000
G0 Z5.000
G0 X21.289 Y-15.184 Z5.000
G0 X21.289 Y-15.184 Z3.000
G1 X21.289 Y-15.184 Z-1.500 F120.000
G1 X31.473 Y-5.000 Z-1.500 F160.000
G1 X30.766 Y-5.000 Z-1.500 F160.000
G1 X21.642 Y-14.124 Z-1.500 F160.000
G3 X21.584 Y-13.475 Z-1.500 I-2.301 J0.121 F160.000
G1 X30.059 Y-5.000 Z-1.500 F160.000
G1 X29.352 Y-5.000 Z-1.500 F160.000
G1 X21.385 Y-12.967 Z-1.500 F160.000
G3 X21.089 Y-12.556 Z-1.500 I-2.315 J-1.355 F160.000
G1 X28.645 Y-5.000 Z-1.500 F160.000
G1 X27.938 Y-5.000 Z-1.500 F160.000
G1 X20.708 Y-12.229 Z-1.500 F160.000
G3 X20.240 Y-11.990 Z-1.500 I-0.872 J-1.128 F160.000
G1 X27.230 Y-5.000 Z-1.500 F160.000
G1 X26.523 Y-5.000 Z-1.500 F160.000
G1 X19.661 Y-11.863 Z-1.500 F160.000
G3 X18.870 Y-11.946 Z-1.500 I-0.175 J-2.123 F160.000
G1 X25.816 Y-5.000 Z-1.500 F160.000
G1 X25.109 Y-5.000 Z-1.500 F160.000
G1 X17.989 Y-12.120 Z-1.500 F160.000
G1 X17.989 Y-11.413 Z-1.500 F160.000
G1 X24.402 Y-5.000 Z-1.500 F160.000
G1 X23.695 Y-5.000 Z-1.500 F160.000
G1 X17.989 Y-10.706 Z-1.500 F160.000
G1 X17.989 Y-9.998 Z-1.500 F160.000
G1 X22.988 Y-5.000 Z-1.500 F160.000
G1 X22.281 Y-5.000 Z-1.500 F160.000
G1 X17.989 Y-9.291 Z-1.500 F160.000
G1 X17.989 Y-8.584 Z-1.500 F160.000
G1 X21.574 Y-5.000 Z-1.500 F160.000
G1 X20.866 Y-5.000 Z-1.500 F160.000
G1 X17.989 Y-7.877 Z-1.500 F160.000
G1 X17.989 Y-7.170 Z-1.500 F160.000
G1 X20.159 Y-5.000 Z-1.500 F160.000
G1 X19.452 Y-5.000 Z-1.500 F160.000
G1 X17.989 Y-6.463 Z-1.500 F160.000
G1 X17.989 Y-5.756 Z-1.500 F160.000
G1 X18.745 Y-5.000 Z-1.500 F160.000
G1 X18.038 Y-5.000 Z-1.500 F160.000
G1 X17.989 Y-5.049 Z-1.500 F160.000
G2 X17.989 Y-5.000 Z-1.500 I0.024 J0.024 F160.000
G2 X18.038 Y-5.000 Z-1.500 I0.024 J-0.024 F160.000
G0 Z5.000
G0 X32.565 Y-23.000 Z5.000
G0 X32.565 Y-23.000 Z3.000
G1 X32.565 Y-23.000 Z-1.500 F120.000
G1 X42.636 Y-12.929 Z-1.500 F160.000
G3 X42.354 Y-13.918 Z-1.500 I1.866 J-1.067 F160.000
G1 X33.272 Y-23.000 Z-1.500 F160.000
G1 X33.979 Y-23.000 Z-1.500 F160.000
G1 X42.423 Y-14.556 Z-1.500 F160.000
G3 X42.629 Y-15.058 Z-1.500 I3.158 J1.002 F160.000
G1 X34.686 Y-23.000 Z-1.500 F160.000
G1 X35.393 Y-23.000 Z-1.500 F160.000
G1 X42.929 Y-15.465 Z-1.500 F160.000
G3 X43.313 Y-15.787 Z-1.500 I1.242 J1.092 F160.000
G1 X36.100 Y-23.000 Z-1.500 F160.000
G1 X36.808 Y-23.000 Z-1.500 F160.000
G1 X43.787 Y-16.021 Z-1.500 F160.000
G3 X44.373 Y-16.142 Z-1.500 I0.606 J1.456 F160.000
G1 X37.515 Y-23.000 Z-1.500 F160.000
G1 X38.222 Y-23.000 Z-1.500 F160.000
G1 X45.192 Y-16.030 Z-1.500 F160.000
G3 X46.000 Y-15.539 Z-1.500 I-0.644 J1.972 F160.000
G1 X46.000 Y-15.929 Z-1.500 F160.000
G1 X38.929 Y-23.000 Z-1.500 F160.000
G1 X39.636 Y-23.000 Z-1.500 F160.000
G1 X46.000 Y-16.636 Z-1.500 F160.000
G1 X46.000 Y-17.343 Z-1.500 F160.000
G1 X40.343 Y-23.000 Z-1.500 F160.000
G1 X41.050 Y-23.000 Z-1.500 F160.000
G1 X46.000 Y-18.050 Z-1.500 F160.000
G1 X46.000 Y-18.757 Z-1.500 F160.000
G1 X41.757 Y-23.000 Z-1.500 F160.000
G1 X42.464 Y-23.000 Z-1.500 F160.000
G1 X46.000 Y-19.464 Z-1.500 F160.000
G1 X46.000 Y-20.172 Z-1.500 F160.000
G1 X43.172 Y-23.000 Z-1.500 F160.000
G1 X43.879 Y-23.000 Z-1.500 F160.000
G1 X46.000 Y-20.879 Z-1.500 F160.000
G1 X46.000 Y-21.586 Z-1.500 F160.000
G1 X44.586 Y-23.000 Z-1.500 F160.000
G1 X45.293 Y-23.000 Z-1.500 F160.000
G1 X46.000 Y-22.293 Z-1.500 F160.000
G1 X46.000 Y-23.000 Z-1.500 F160.000
G0 Z5.000
G0 Z5.000
(finish operation: Pocket_Shape)
(begin operation: Helix)
(machine: not set, mm/min)
(Helix)
(helix cut operation)
G0 Z5.000
G0 Z5.000
G0 X19.500 Y-14.000 Z5.000
G0 X19.500 Y-14.000 Z0.000
G0 X19.650 Y-14.000
G1 Z0.000 F120.000
G2 X19.350 Y-14.000 Z-0.750 I-0.150 J0.000 F160.000
G2 X19.650 Y-14.000 Z-1.500 I0.150 J0.000 F160.000
G2 X19.350 Y-14.000 Z-2.250 I-0.150 J0.000 F160.000
G2 X19.650 Y-14.000 Z-3.000 I0.150 J0.000 F160.000
G2 X19.350 Y-14.000 Z-3.000 I-0.150 J0.000 F160.000
G2 X19.650 Y-14.000 Z-3.000 I0.150 J0.000 F160.000
G0 X19.500 Y-14.000 Z-3.000
G0 Z0.000
G0 Z5.000
G0 X19.500 Y-34.000 Z5.000
G0 X19.500 Y-34.000 Z0.000
G0 X19.650 Y-34.000
G1 Z0.000 F120.000
G2 X19.350 Y-34.000 Z-0.750 I-0.150 J0.000 F160.000
G2 X19.650 Y-34.000 Z-1.500 I0.150 J0.000 F160.000
G2 X19.350 Y-34.000 Z-2.250 I-0.150 J0.000 F160.000
G2 X19.650 Y-34.000 Z-3.000 I0.150 J0.000 F160.000
G2 X19.350 Y-34.000 Z-3.000 I-0.150 J0.000 F160.000
G2 X19.650 Y-34.000 Z-3.000 I0.150 J0.000 F160.000
G0 X19.500 Y-34.000 Z-3.000
G0 Z0.000
G0 Z5.000
G0 X13.000 Y-53.000 Z5.000
G0 X13.000 Y-53.000 Z0.000
G0 X13.150 Y-53.000
G1 Z0.000 F120.000
G2 X12.850 Y-53.000 Z-0.750 I-0.150 J0.000 F160.000
G2 X13.150 Y-53.000 Z-1.500 I0.150 J0.000 F160.000
G2 X12.850 Y-53.000 Z-2.250 I-0.150 J0.000 F160.000
G2 X13.150 Y-53.000 Z-3.000 I0.150 J0.000 F160.000
G2 X12.850 Y-53.000 Z-3.000 I-0.150 J0.000 F160.000
G2 X13.150 Y-53.000 Z-3.000 I0.150 J0.000 F160.000
G0 X13.000 Y-53.000 Z-3.000
G0 Z0.000
G0 Z5.000
G0 X6.428 Y-72.000 Z5.000
G0 X6.428 Y-72.000 Z0.000
G0 X6.578 Y-72.000
G1 Z0.000 F120.000
G2 X6.278 Y-72.000 Z-0.750 I-0.150 J0.000 F160.000
G2 X6.578 Y-72.000 Z-1.500 I0.150 J0.000 F160.000
G2 X6.278 Y-72.000 Z-2.250 I-0.150 J0.000 F160.000
G2 X6.578 Y-72.000 Z-3.000 I0.150 J0.000 F160.000
G2 X6.278 Y-72.000 Z-3.000 I-0.150 J0.000 F160.000
G2 X6.578 Y-72.000 Z-3.000 I0.150 J0.000 F160.000
G0 X6.428 Y-72.000 Z-3.000
G0 Z0.000
G0 Z5.000
G0 X32.150 Y-72.000 Z5.000
G0 X32.150 Y-72.000 Z0.000
G0 X32.300 Y-72.000
G1 Z0.000 F120.000
G2 X32.000 Y-72.000 Z-0.750 I-0.150 J0.000 F160.000
G2 X32.300 Y-72.000 Z-1.500 I0.150 J0.000 F160.000
G2 X32.000 Y-72.000 Z-2.250 I-0.150 J0.000 F160.000
G2 X32.300 Y-72.000 Z-3.000 I0.150 J0.000 F160.000
G2 X32.000 Y-72.000 Z-3.000 I-0.150 J0.000 F160.000
G2 X32.300 Y-72.000 Z-3.000 I0.150 J0.000 F160.000
G0 X32.150 Y-72.000 Z-3.000
G0 Z0.000
G0 Z5.000
G0 X38.110 Y-55.890 Z5.000
G0 X38.110 Y-55.890 Z0.000
G0 X38.260 Y-55.890
G1 Z0.000 F120.000
G2 X37.960 Y-55.890 Z-0.750 I-0.150 J0.000 F160.000
G2 X38.260 Y-55.890 Z-1.500 I0.150 J0.000 F160.000
G2 X37.960 Y-55.890 Z-2.250 I-0.150 J0.000 F160.000
G2 X38.260 Y-55.890 Z-3.000 I0.150 J0.000 F160.000
G2 X37.960 Y-55.890 Z-3.000 I-0.150 J0.000 F160.000
G2 X38.260 Y-55.890 Z-3.000 I0.150 J0.000 F160.000
G0 X38.110 Y-55.890 Z-3.000
G0 Z0.000
G0 Z5.000
G0 X50.000 Y-30.500 Z5.000
G0 X50.000 Y-30.500 Z0.000
G0 X50.150 Y-30.500
G1 Z0.000 F120.000
G2 X49.850 Y-30.500 Z-0.750 I-0.150 J0.000 F160.000
G2 X50.150 Y-30.500 Z-1.500 I0.150 J0.000 F160.000
G2 X49.850 Y-30.500 Z-2.250 I-0.150 J0.000 F160.000
G2 X50.150 Y-30.500 Z-3.000 I0.150 J0.000 F160.000
G2 X49.850 Y-30.500 Z-3.000 I-0.150 J0.000 F160.000
G2 X50.150 Y-30.500 Z-3.000 I0.150 J0.000 F160.000
G0 X50.000 Y-30.500 Z-3.000
G0 Z0.000
G0 Z5.000
G0 X69.000 Y-56.000 Z5.000
G0 X69.000 Y-56.000 Z0.000
G0 X69.150 Y-56.000
G1 Z0.000 F120.000
G2 X68.850 Y-56.000 Z-0.750 I-0.150 J0.000 F160.000
G2 X69.150 Y-56.000 Z-1.500 I0.150 J0.000 F160.000
G2 X68.850 Y-56.000 Z-2.250 I-0.150 J0.000 F160.000
G2 X69.150 Y-56.000 Z-3.000 I0.150 J0.000 F160.000
G2 X68.850 Y-56.000 Z-3.000 I-0.150 J0.000 F160.000
G2 X69.150 Y-56.000 Z-3.000 I0.150 J0.000 F160.000
G0 X69.000 Y-56.000 Z-3.000
G0 Z0.000
G0 Z5.000
G0 X95.000 Y-56.000 Z5.000
G0 X95.000 Y-56.000 Z0.000
G0 X95.150 Y-56.000
G1 Z0.000 F120.000
G2 X94.850 Y-56.000 Z-0.750 I-0.150 J0.000 F160.000
G2 X95.150 Y-56.000 Z-1.500 I0.150 J0.000 F160.000
G2 X94.850 Y-56.000 Z-2.250 I-0.150 J0.000 F160.000
G2 X95.150 Y-56.000 Z-3.000 I0.150 J0.000 F160.000
G2 X94.850 Y-56.000 Z-3.000 I-0.150 J0.000 F160.000
G2 X95.150 Y-56.000 Z-3.000 I0.150 J0.000 F160.000
G0 X95.000 Y-56.000 Z-3.000
G0 Z0.000
G0 Z5.000
G0 X90.000 Y-30.500 Z5.000
G0 X90.000 Y-30.500 Z0.000
G0 X90.150 Y-30.500
G1 Z0.000 F120.000
G2 X89.850 Y-30.500 Z-0.750 I-0.150 J0.000 F160.000
G2 X90.150 Y-30.500 Z-1.500 I0.150 J0.000 F160.000
G2 X89.850 Y-30.500 Z-2.250 I-0.150 J0.000 F160.000
G2 X90.150 Y-30.500 Z-3.000 I0.150 J0.000 F160.000
G2 X89.850 Y-30.500 Z-3.000 I-0.150 J0.000 F160.000
G2 X90.150 Y-30.500 Z-3.000 I0.150 J0.000 F160.000
G0 X90.000 Y-30.500 Z-3.000
G0 Z0.000
G0 Z5.000
G0 X130.000 Y-30.500 Z5.000
G0 X130.000 Y-30.500 Z0.000
G0 X130.150 Y-30.500
G1 Z0.000 F120.000
G2 X129.850 Y-30.500 Z-0.750 I-0.150 J0.000 F160.000
G2 X130.150 Y-30.500 Z-1.500 I0.150 J0.000 F160.000
G2 X129.850 Y-30.500 Z-2.250 I-0.150 J0.000 F160.000
G2 X130.150 Y-30.500 Z-3.000 I0.150 J0.000 F160.000
G2 X129.850 Y-30.500 Z-3.000 I-0.150 J0.000 F160.000
G2 X130.150 Y-30.500 Z-3.000 I0.150 J0.000 F160.000
G0 X130.000 Y-30.500 Z-3.000
G0 Z0.000
G0 Z5.000
G0 X130.000 Y-55.500 Z5.000
G0 X130.000 Y-55.500 Z0.000
G0 X130.150 Y-55.500
G1 Z0.000 F120.000
G2 X129.850 Y-55.500 Z-0.750 I-0.150 J0.000 F160.000
G2 X130.150 Y-55.500 Z-1.500 I0.150 J0.000 F160.000
G2 X129.850 Y-55.500 Z-2.250 I-0.150 J0.000 F160.000
G2 X130.150 Y-55.500 Z-3.000 I0.150 J0.000 F160.000
G2 X129.850 Y-55.500 Z-3.000 I-0.150 J0.000 F160.000
G2 X130.150 Y-55.500 Z-3.000 I0.150 J0.000 F160.000
G0 X130.000 Y-55.500 Z-3.000
G0 Z0.000
G0 Z5.000
G0 X164.000 Y-55.500 Z5.000
G0 X164.000 Y-55.500 Z0.000
G0 X164.150 Y-55.500
G1 Z0.000 F120.000
G2 X163.850 Y-55.500 Z-0.750 I-0.150 J0.000 F160.000
G2 X164.150 Y-55.500 Z-1.500 I0.150 J0.000 F160.000
G2 X163.850 Y-55.500 Z-2.250 I-0.150 J0.000 F160.000
G2 X164.150 Y-55.500 Z-3.000 I0.150 J0.000 F160.000
G2 X163.850 Y-55.500 Z-3.000 I-0.150 J0.000 F160.000
G2 X164.150 Y-55.500 Z-3.000 I0.150 J0.000 F160.000
G0 X164.000 Y-55.500 Z-3.000
G0 Z0.000
G0 Z5.000
G0 X164.500 Y-43.000 Z5.000
G0 X164.500 Y-43.000 Z0.000
G0 X164.650 Y-43.000
G1 Z0.000 F120.000
G2 X164.350 Y-43.000 Z-0.750 I-0.150 J0.000 F160.000
G2 X164.650 Y-43.000 Z-1.500 I0.150 J0.000 F160.000
G2 X164.350 Y-43.000 Z-2.250 I-0.150 J0.000 F160.000
G2 X164.650 Y-43.000 Z-3.000 I0.150 J0.000 F160.000
G2 X164.350 Y-43.000 Z-3.000 I-0.150 J0.000 F160.000
G2 X164.650 Y-43.000 Z-3.000 I0.150 J0.000 F160.000
G0 X164.500 Y-43.000 Z-3.000
G0 Z0.000
G0 Z5.000
G0 X164.000 Y-30.500 Z5.000
G0 X164.000 Y-30.500 Z0.000
G0 X164.150 Y-30.500
G1 Z0.000 F120.000
G2 X163.850 Y-30.500 Z-0.750 I-0.150 J0.000 F160.000
G2 X164.150 Y-30.500 Z-1.500 I0.150 J0.000 F160.000
G2 X163.850 Y-30.500 Z-2.250 I-0.150 J0.000 F160.000
G2 X164.150 Y-30.500 Z-3.000 I0.150 J0.000 F160.000
G2 X163.850 Y-30.500 Z-3.000 I-0.150 J0.000 F160.000
G2 X164.150 Y-30.500 Z-3.000 I0.150 J0.000 F160.000
G0 X164.000 Y-30.500 Z-3.000
G0 Z0.000
G0 Z5.000
G0 X31.500 Y-112.000 Z5.000
G0 X31.500 Y-112.000 Z0.000
G0 X31.650 Y-112.000
G1 Z0.000 F120.000
G2 X31.350 Y-112.000 Z-0.750 I-0.150 J0.000 F160.000
G2 X31.650 Y-112.000 Z-1.500 I0.150 J0.000 F160.000
G2 X31.350 Y-112.000 Z-2.250 I-0.150 J0.000 F160.000
G2 X31.650 Y-112.000 Z-3.000 I0.150 J0.000 F160.000
G2 X31.350 Y-112.000 Z-3.000 I-0.150 J0.000 F160.000
G2 X31.650 Y-112.000 Z-3.000 I0.150 J0.000 F160.000
G0 X31.500 Y-112.000 Z-3.000
G0 Z0.000
G0 Z5.000
G0 X6.428 Y-112.000 Z5.000
G0 X6.428 Y-112.000 Z0.000
G0 X6.578 Y-112.000
G1 Z0.000 F120.000
G2 X6.278 Y-112.000 Z-0.750 I-0.150 J0.000 F160.000
G2 X6.578 Y-112.000 Z-1.500 I0.150 J0.000 F160.000
G2 X6.278 Y-112.000 Z-2.250 I-0.150 J0.000 F160.000
G2 X6.578 Y-112.000 Z-3.000 I0.150 J0.000 F160.000
G2 X6.278 Y-112.000 Z-3.000 I-0.150 J0.000 F160.000
G2 X6.578 Y-112.000 Z-3.000 I0.150 J0.000 F160.000
G0 X6.428 Y-112.000 Z-3.000
G0 Z0.000
G0 Z5.000
G0 X9.000 Y-149.000 Z5.000
G0 X9.000 Y-149.000 Z0.000
G0 X9.150 Y-149.000
G1 Z0.000 F120.000
G2 X8.850 Y-149.000 Z-0.750 I-0.150 J0.000 F160.000
G2 X9.150 Y-149.000 Z-1.500 I0.150 J0.000 F160.000
G2 X8.850 Y-149.000 Z-2.250 I-0.150 J0.000 F160.000
G2 X9.150 Y-149.000 Z-3.000 I0.150 J0.000 F160.000
G2 X8.850 Y-149.000 Z-3.000 I-0.150 J0.000 F160.000
G2 X9.150 Y-149.000 Z-3.000 I0.150 J0.000 F160.000
G0 X9.000 Y-149.000 Z-3.000
G0 Z0.000
G0 Z5.000
G0 X18.850 Y-154.850 Z5.000
G0 X18.850 Y-154.850 Z0.000
G0 X19.000 Y-154.850
G1 Z0.000 F120.000
G2 X18.700 Y-154.850 Z-0.750 I-0.150 J0.000 F160.000
G2 X19.000 Y-154.850 Z-1.500 I0.150 J0.000 F160.000
G2 X18.700 Y-154.850 Z-2.250 I-0.150 J0.000 F160.000
G2 X19.000 Y-154.850 Z-3.000 I0.150 J0.000 F160.000
G2 X18.700 Y-154.850 Z-3.000 I-0.150 J0.000 F160.000
G2 X19.000 Y-154.850 Z-3.000 I0.150 J0.000 F160.000
G0 X18.850 Y-154.850 Z-3.000
G0 Z0.000
G0 Z5.000
G0 X31.000 Y-160.000 Z5.000
G0 X31.000 Y-160.000 Z0.000
G0 X31.150 Y-160.000
G1 Z0.000 F120.000
G2 X30.850 Y-160.000 Z-0.750 I-0.150 J0.000 F160.000
G2 X31.150 Y-160.000 Z-1.500 I0.150 J0.000 F160.000
G2 X30.850 Y-160.000 Z-2.250 I-0.150 J0.000 F160.000
G2 X31.150 Y-160.000 Z-3.000 I0.150 J0.000 F160.000
G2 X30.850 Y-160.000 Z-3.000 I-0.150 J0.000 F160.000
G2 X31.150 Y-160.000 Z-3.000 I0.150 J0.000 F160.000
G0 X31.000 Y-160.000 Z-3.000
G0 Z0.000
G0 Z5.000
(finish operation: Helix)
(begin operation: Pocket_Shape001)
(machine: not set, mm/min)
(Pocket_Shape001)
G0 Z5.000
G0 X44.600 Y-13.900
G0 Z3.000
G1 X44.600 Y-13.900 Z-2.000 F120.000
G2 X44.622 Y-14.071 Z-2.000 I-0.100 J-0.100 F160.000
G2 X44.378 Y-13.929 Z-2.000 I-0.122 J0.071 F160.000
G2 X44.600 Y-13.900 Z-2.000 I0.122 J-0.071 F160.000
G1 X44.600 Y-13.900 Z-3.000 F120.000
G2 X44.622 Y-14.071 Z-3.000 I-0.100 J-0.100 F160.000
G2 X44.378 Y-13.929 Z-3.000 I-0.122 J0.071 F160.000
G2 X44.600 Y-13.900 Z-3.000 I0.122 J-0.071 F160.000
G0 Z5.000
G0 Z5.000
(finish operation: Pocket_Shape001)
(begin operation: Profile)
(machine: not set, mm/min)
(Profile)
(Compensated Tool Path. Diameter: 2.0)
G0 Z5.000
G0 X164.307 Y-27.050
G0 Z3.000
G1 X164.307 Y-27.050 Z-2.000 F120.000
G2 X167.997 Y-31.279 Z-2.000 I-0.660 J-4.301 F160.000
G1 X168.000 Y-54.650 Z-2.000 F160.000
G2 X163.721 Y-58.997 Z-2.000 I-4.352 J0.004 F160.000
G1 X100.386 Y-59.000 Z-2.000 F160.000
G3 X98.000 Y-61.386 Z-2.000 I-0.029 J-2.357 F160.000
G1 X98.000 Y-73.000 Z-2.000 F160.000
G2 X97.000 Y-74.000 Z-2.000 I-1.000 J0.000 F160.000
G1 X67.000 Y-74.000 Z-2.000 F160.000
G2 X66.000 Y-73.000 Z-2.000 I0.000 J1.000 F160.000
G1 X66.000 Y-61.386 Z-2.000 F160.000
G3 X63.614 Y-59.000 Z-2.000 I-2.357 J0.029 F160.000
G1 X42.791 Y-59.000 Z-2.000 F160.000
G3 X40.549 Y-60.535 Z-2.000 I-0.028 J-2.364 F160.000
G1 X35.168 Y-74.395 Z-2.000 F160.000
G3 X35.000 Y-75.291 Z-2.000 I2.246 J-0.884 F160.000
G1 X35.000 Y-159.650 Z-2.000 F160.000
G2 X31.198 Y-163.963 Z-2.000 I-4.352 J0.004 F160.000
G1 X30.721 Y-163.997 Z-2.000 F160.000
G2 X27.792 Y-163.469 Z-2.000 I-0.567 J5.241 F160.000
G1 X6.879 Y-151.780 Z-2.000 F160.000
G2 X5.291 Y-150.251 Z-2.000 I2.143 J3.814 F160.000
G1 X3.605 Y-147.401 Z-2.000 F160.000
G2 X3.002 Y-145.255 Z-2.000 I3.772 J2.217 F160.000
G1 X3.000 Y-73.504 Z-2.000 F160.000
G2 X3.202 Y-72.196 Z-2.000 I4.376 J-0.006 F160.000
G1 X15.868 Y-33.247 Z-2.000 F160.000
G3 X15.989 Y-32.481 Z-2.000 I-2.292 J0.756 F160.000
G1 X15.989 Y-4.000 Z-2.000 F160.000
G2 X16.989 Y-3.000 Z-2.000 I1.000 J-0.000 F160.000
G1 X47.000 Y-3.000 Z-2.000 F160.000
G2 X48.000 Y-4.000 Z-2.000 I-0.000 J-1.000 F160.000
G1 X48.000 Y-24.614 Z-2.000 F160.000
G3 X50.386 Y-27.000 Z-2.000 I2.357 J-0.029 F160.000
G1 X163.650 Y-27.000 Z-2.000 F160.000
G2 X164.307 Y-27.050 Z-2.000 I-0.004 J-4.352 F160.000
G1 X164.307 Y-27.050 Z-3.000 F120.000
G2 X167.997 Y-31.279 Z-3.000 I-0.660 J-4.301 F160.000
G1 X168.000 Y-54.650 Z-3.000 F160.000
G2 X163.721 Y-58.997 Z-3.000 I-4.352 J0.004 F160.000
G1 X100.386 Y-59.000 Z-3.000 F160.000
G3 X98.000 Y-61.386 Z-3.000 I-0.029 J-2.357 F160.000
G1 X98.000 Y-73.000 Z-3.000 F160.000
G2 X97.000 Y-74.000 Z-3.000 I-1.000 J0.000 F160.000
G1 X67.000 Y-74.000 Z-3.000 F160.000
G2 X66.000 Y-73.000 Z-3.000 I0.000 J1.000 F160.000
G1 X66.000 Y-61.386 Z-3.000 F160.000
G3 X63.614 Y-59.000 Z-3.000 I-2.357 J0.029 F160.000
G1 X42.791 Y-59.000 Z-3.000 F160.000
G3 X40.549 Y-60.535 Z-3.000 I-0.028 J-2.364 F160.000
G1 X35.168 Y-74.395 Z-3.000 F160.000
G3 X35.000 Y-75.291 Z-3.000 I2.246 J-0.884 F160.000
G1 X35.000 Y-159.650 Z-3.000 F160.000
G2 X31.198 Y-163.963 Z-3.000 I-4.352 J0.004 F160.000
G1 X30.721 Y-163.997 Z-3.000 F160.000
G2 X27.792 Y-163.469 Z-3.000 I-0.567 J5.241 F160.000
G1 X6.879 Y-151.780 Z-3.000 F160.000
G2 X5.291 Y-150.251 Z-3.000 I2.143 J3.814 F160.000
G1 X3.605 Y-147.401 Z-3.000 F160.000
G2 X3.002 Y-145.255 Z-3.000 I3.772 J2.217 F160.000
G1 X3.000 Y-73.504 Z-3.000 F160.000
G2 X3.202 Y-72.196 Z-3.000 I4.376 J-0.006 F160.000
G1 X15.868 Y-33.247 Z-3.000 F160.000
G3 X15.989 Y-32.481 Z-3.000 I-2.292 J0.756 F160.000
G1 X15.989 Y-4.000 Z-3.000 F160.000
G2 X16.989 Y-3.000 Z-3.000 I1.000 J-0.000 F160.000
G1 X47.000 Y-3.000 Z-3.000 F160.000
G2 X48.000 Y-4.000 Z-3.000 I-0.000 J-1.000 F160.000
G1 X48.000 Y-24.614 Z-3.000 F160.000
G3 X50.386 Y-27.000 Z-3.000 I2.357 J-0.029 F160.000
G1 X163.650 Y-27.000 Z-3.000 F160.000
G2 X164.307 Y-27.050 Z-3.000 I-0.004 J-4.352 F160.000
G0 Z5.000
G0 Z5.000
(finish operation: Profile)
(begin postamble)
M05 M09
G17 G90 G80 G40
M30
