(Exported by FreeCAD)
(Post Processor: KineticNCBeamicon2_post)
(Output Time:2024-12-17 14:46:54.835613)
(begin preamble)
G17 G21 G40 G49 G80 G90
M08
G21
(begin operation: Fixture)
(machine: not set, mm/min)
G54
(finish operation: Fixture)
(begin operation: 2mm_Endmill003)
(machine: not set, mm/min)
(2mm_Endmill003)
M05
M09M6 T2
M3 S10000
(finish operation: 2mm_Endmill003)
(begin operation: Pocket_Shape002)
(machine: not set, mm/min)
(Pocket_Shape002)
G0 Z5.000
G0 X123.007 Y-133.788
G0 Z3.000
G1 X123.007 Y-133.788 Z-1.500 F120.000
G1 X122.043 Y-135.392 Z-1.500 F170.000
G3 X121.865 Y-134.930 Z-1.500 I-3.902 J-1.236 F170.000
G1 X123.007 Y-133.788 Z-1.500 F170.000
G1 X124.071 Y-132.016 Z-1.500 F170.000
G1 X121.576 Y-134.512 Z-1.500 F170.000
G3 X121.202 Y-134.178 Z-1.500 I-1.308 J-1.090 F170.000
G1 X125.136 Y-130.245 Z-1.500 F170.000
G1 X125.891 Y-128.988 Z-1.500 F170.000
G1 X125.762 Y-128.911 Z-1.500 F170.000
G1 X120.742 Y-133.931 Z-1.500 F170.000
G3 X120.174 Y-133.793 Z-1.500 I-0.630 J-1.353 F170.000
G1 X125.321 Y-128.646 Z-1.500 F170.000
G1 X124.879 Y-128.380 Z-1.500 F170.000
G1 X119.413 Y-133.847 Z-1.500 F170.000
G3 X117.883 Y-135.377 Z-1.500 I0.549 J-2.079 F170.000
G1 X111.761 Y-141.498 Z-1.500 F170.000
G1 X111.320 Y-141.233 Z-1.500 F170.000
G1 X124.437 Y-128.115 Z-1.500 F170.000
G1 X123.995 Y-127.850 Z-1.500 F170.000
G1 X110.878 Y-140.967 Z-1.500 F170.000
G1 X110.436 Y-140.702 Z-1.500 F170.000
G1 X123.554 Y-127.584 Z-1.500 F170.000
G1 X123.112 Y-127.319 Z-1.500 F170.000
G1 X109.994 Y-140.436 Z-1.500 F170.000
G1 X109.553 Y-140.171 Z-1.500 F170.000
G1 X122.670 Y-127.053 Z-1.500 F170.000
G1 X122.229 Y-126.788 Z-1.500 F170.000
G1 X109.111 Y-139.906 Z-1.500 F170.000
G1 X108.669 Y-139.640 Z-1.500 F170.000
G1 X121.787 Y-126.523 Z-1.500 F170.000
G1 X121.345 Y-126.257 Z-1.500 F170.000
G1 X108.228 Y-139.375 Z-1.500 F170.000
G1 X107.786 Y-139.109 Z-1.500 F170.000
G1 X120.904 Y-125.992 Z-1.500 F170.000
G1 X120.462 Y-125.726 Z-1.500 F170.000
G1 X107.344 Y-138.844 Z-1.500 F170.000
G1 X106.903 Y-138.579 Z-1.500 F170.000
G1 X120.020 Y-125.461 Z-1.500 F170.000
G1 X119.578 Y-125.196 Z-1.500 F170.000
G1 X106.461 Y-138.313 Z-1.500 F170.000
G1 X106.019 Y-138.048 Z-1.500 F170.000
G1 X119.137 Y-124.930 Z-1.500 F170.000
G1 X118.695 Y-124.665 Z-1.500 F170.000
G1 X105.577 Y-137.782 Z-1.500 F170.000
G1 X105.136 Y-137.517 Z-1.500 F170.000
G1 X118.253 Y-124.399 Z-1.500 F170.000
G1 X117.812 Y-124.134 Z-1.500 F170.000
G1 X104.694 Y-137.252 Z-1.500 F170.000
G1 X104.252 Y-136.986 Z-1.500 F170.000
G1 X117.370 Y-123.869 Z-1.500 F170.000
G1 X116.928 Y-123.603 Z-1.500 F170.000
G1 X103.811 Y-136.721 Z-1.500 F170.000
G1 X103.369 Y-136.455 Z-1.500 F170.000
G1 X116.486 Y-123.338 Z-1.500 F170.000
G1 X116.045 Y-123.072 Z-1.500 F170.000
G1 X102.927 Y-136.190 Z-1.500 F170.000
G1 X102.486 Y-135.925 Z-1.500 F170.000
G1 X115.603 Y-122.807 Z-1.500 F170.000
G1 X115.161 Y-122.542 Z-1.500 F170.000
G1 X102.044 Y-135.659 Z-1.500 F170.000
G1 X101.602 Y-135.394 Z-1.500 F170.000
G1 X114.720 Y-122.276 Z-1.500 F170.000
G1 X114.278 Y-122.011 Z-1.500 F170.000
G1 X101.160 Y-135.128 Z-1.500 F170.000
G1 X100.719 Y-134.863 Z-1.500 F170.000
G1 X113.836 Y-121.745 Z-1.500 F170.000
G1 X113.395 Y-121.480 Z-1.500 F170.000
G1 X100.277 Y-134.597 Z-1.500 F170.000
G1 X99.835 Y-134.332 Z-1.500 F170.000
G1 X112.953 Y-121.215 Z-1.500 F170.000
G1 X112.511 Y-120.949 Z-1.500 F170.000
G1 X99.394 Y-134.067 Z-1.500 F170.000
G1 X98.952 Y-133.801 Z-1.500 F170.000
G1 X112.069 Y-120.684 Z-1.500 F170.000
G1 X111.628 Y-120.418 Z-1.500 F170.000
G1 X98.510 Y-133.536 Z-1.500 F170.000
G1 X98.068 Y-133.270 Z-1.500 F170.000
G1 X111.186 Y-120.153 Z-1.500 F170.000
G1 X110.744 Y-119.888 Z-1.500 F170.000
G1 X97.627 Y-133.005 Z-1.500 F170.000
G1 X97.185 Y-132.740 Z-1.500 F170.000
G1 X110.303 Y-119.622 Z-1.500 F170.000
G1 X109.861 Y-119.357 Z-1.500 F170.000
G1 X96.743 Y-132.474 Z-1.500 F170.000
G1 X96.302 Y-132.209 Z-1.500 F170.000
G1 X109.419 Y-119.091 Z-1.500 F170.000
G1 X108.978 Y-118.826 Z-1.500 F170.000
G1 X95.860 Y-131.943 Z-1.500 F170.000
G1 X95.418 Y-131.678 Z-1.500 F170.000
G1 X108.536 Y-118.560 Z-1.500 F170.000
G1 X108.094 Y-118.295 Z-1.500 F170.000
G1 X94.977 Y-131.413 Z-1.500 F170.000
G1 X94.535 Y-131.147 Z-1.500 F170.000
G1 X107.652 Y-118.030 Z-1.500 F170.000
G1 X107.211 Y-117.764 Z-1.500 F170.000
G1 X94.093 Y-130.882 Z-1.500 F170.000
G1 X93.651 Y-130.616 Z-1.500 F170.000
G1 X99.171 Y-125.097 Z-1.500 F170.000
G2 X98.372 Y-125.189 Z-1.500 I-0.642 J2.068 F170.000
G1 X93.210 Y-130.351 Z-1.500 F170.000
G1 X92.768 Y-130.086 Z-1.500 F170.000
G1 X97.792 Y-125.061 Z-1.500 F170.000
G2 X97.324 Y-124.823 Z-1.500 I0.449 J1.462 F170.000
G1 X93.295 Y-128.852 Z-1.500 F170.000
G1 X94.359 Y-127.080 Z-1.500 F170.000
G1 X96.943 Y-124.496 Z-1.500 F170.000
G2 X96.648 Y-124.085 Z-1.500 I2.509 J2.114 F170.000
G2 X96.453 Y-123.596 Z-1.500 I3.031 J1.491 F170.000
G1 X95.423 Y-125.309 Z-1.500 F170.000
G1 X96.648 Y-124.085 Z-1.500 F170.000
G0 Z5.000
G0 X100.585 Y-123.683 Z5.000
G0 X100.585 Y-123.683 Z3.000
G1 X100.585 Y-123.683 Z-1.500 F120.000
G1 X106.769 Y-117.499 Z-1.500 F170.000
G1 X106.327 Y-117.233 Z-1.500 F170.000
G1 X100.668 Y-122.893 Z-1.500 F170.000
G3 X100.541 Y-122.312 Z-1.500 I-1.487 J-0.019 F170.000
G1 X105.886 Y-116.968 Z-1.500 F170.000
G1 X105.444 Y-116.703 Z-1.500 F170.000
G1 X100.302 Y-121.844 Z-1.500 F170.000
G3 X99.976 Y-121.463 Z-1.500 I-1.234 J-0.727 F170.000
G1 X105.002 Y-116.437 Z-1.500 F170.000
G1 X104.560 Y-116.172 Z-1.500 F170.000
G1 X99.566 Y-121.167 Z-1.500 F170.000
G3 X99.059 Y-120.966 Z-1.500 I-1.018 J-1.830 F170.000
G1 X104.119 Y-115.906 Z-1.500 F170.000
G1 X103.677 Y-115.641 Z-1.500 F170.000
G1 X98.409 Y-120.909 Z-1.500 F170.000
G3 X98.038 Y-120.957 Z-1.500 I0.076 J-2.039 F170.000
G1 X98.617 Y-119.994 Z-1.500 F170.000
G1 X103.235 Y-115.376 Z-1.500 F170.000
G1 X102.794 Y-115.110 Z-1.500 F170.000
G1 X99.681 Y-118.223 Z-1.500 F170.000
G1 X100.746 Y-116.451 Z-1.500 F170.000
G1 X102.352 Y-114.845 Z-1.500 F170.000
G1 X101.910 Y-114.579 Z-1.500 F170.000
G1 X101.881 Y-114.562 Z-1.500 F170.000
G1 X101.810 Y-114.679 Z-1.500 F170.000
G1 X101.910 Y-114.579 Z-1.500 F170.000
G0 Z5.000
G0 X111.761 Y-141.498 Z5.000
G0 X111.761 Y-141.498 Z3.000
G1 X111.761 Y-141.498 Z-1.500 F120.000
G1 X117.883 Y-135.377 Z-1.500 F170.000
G3 X117.831 Y-136.136 Z-1.500 I1.801 J-0.505 F170.000
G1 X112.203 Y-141.763 Z-1.500 F170.000
G1 X112.645 Y-142.029 Z-1.500 F170.000
G1 X117.968 Y-136.706 Z-1.500 F170.000
G3 X118.216 Y-137.165 Z-1.500 I1.280 J0.394 F170.000
G1 X113.086 Y-142.294 Z-1.500 F170.000
G1 X113.528 Y-142.560 Z-1.500 F170.000
G1 X118.550 Y-137.538 Z-1.500 F170.000
G3 X118.968 Y-137.827 Z-1.500 I1.127 J1.181 F170.000
G1 X113.970 Y-142.825 Z-1.500 F170.000
G1 X114.412 Y-143.090 Z-1.500 F170.000
G1 X119.485 Y-138.017 Z-1.500 F170.000
G3 X120.152 Y-138.057 Z-1.500 I0.436 J1.698 F170.000
G1 X114.853 Y-143.356 Z-1.500 F170.000
G1 X115.295 Y-143.621 Z-1.500 F170.000
G1 X119.813 Y-139.103 Z-1.500 F170.000
G1 X118.749 Y-140.874 Z-1.500 F170.000
G1 X115.737 Y-143.887 Z-1.500 F170.000
G1 X116.178 Y-144.152 Z-1.500 F170.000
G1 X117.685 Y-142.646 Z-1.500 F170.000
G1 X116.620 Y-144.417 Z-1.500 F170.000
G0 Z5.000
G0 Z5.000
(finish operation: Pocket_Shape002)
(begin operation: Helix001)
(machine: not set, mm/min)
(Helix001)
(helix cut operation)
G0 Z5.000
G0 Z5.000
G0 X17.474 Y-25.929 Z5.000
G0 X17.474 Y-25.929 Z0.000
G0 X17.624 Y-25.929
G1 Z0.000 F120.000
G2 X17.324 Y-25.929 Z-0.750 I-0.150 J0.000 F170.000
G2 X17.624 Y-25.929 Z-1.500 I0.150 J0.000 F170.000
G2 X17.324 Y-25.929 Z-2.250 I-0.150 J0.000 F170.000
G2 X17.624 Y-25.929 Z-3.000 I0.150 J0.000 F170.000
G2 X17.324 Y-25.929 Z-3.000 I-0.150 J0.000 F170.000
G2 X17.624 Y-25.929 Z-3.000 I0.150 J0.000 F170.000
G0 X17.474 Y-25.929 Z-3.000
G0 Z0.000
G0 Z5.000
G0 X10.607 Y-36.386 Z5.000
G0 X10.607 Y-36.386 Z0.000
G0 X10.757 Y-36.386
G1 Z0.000 F120.000
G2 X10.457 Y-36.386 Z-0.750 I-0.150 J0.000 F170.000
G2 X10.757 Y-36.386 Z-1.500 I0.150 J0.000 F170.000
G2 X10.457 Y-36.386 Z-2.250 I-0.150 J0.000 F170.000
G2 X10.757 Y-36.386 Z-3.000 I0.150 J0.000 F170.000
G2 X10.457 Y-36.386 Z-3.000 I-0.150 J0.000 F170.000
G2 X10.757 Y-36.386 Z-3.000 I0.150 J0.000 F170.000
G0 X10.607 Y-36.386 Z-3.000
G0 Z0.000
G0 Z5.000
G0 X4.598 Y-47.359 Z5.000
G0 X4.598 Y-47.359 Z0.000
G0 X4.748 Y-47.359
G1 Z0.000 F120.000
G2 X4.448 Y-47.359 Z-0.750 I-0.150 J0.000 F170.000
G2 X4.748 Y-47.359 Z-1.500 I0.150 J0.000 F170.000
G2 X4.448 Y-47.359 Z-2.250 I-0.150 J0.000 F170.000
G2 X4.748 Y-47.359 Z-3.000 I0.150 J0.000 F170.000
G2 X4.448 Y-47.359 Z-3.000 I-0.150 J0.000 F170.000
G2 X4.748 Y-47.359 Z-3.000 I0.150 J0.000 F170.000
G0 X4.598 Y-47.359 Z-3.000
G0 Z0.000
G0 Z5.000
G0 X33.742 Y-64.870 Z5.000
G0 X33.742 Y-64.870 Z0.000
G0 X33.892 Y-64.870
G1 Z0.000 F120.000
G2 X33.592 Y-64.870 Z-0.750 I-0.150 J0.000 F170.000
G2 X33.892 Y-64.870 Z-1.500 I0.150 J0.000 F170.000
G2 X33.592 Y-64.870 Z-2.250 I-0.150 J0.000 F170.000
G2 X33.892 Y-64.870 Z-3.000 I0.150 J0.000 F170.000
G2 X33.592 Y-64.870 Z-3.000 I-0.150 J0.000 F170.000
G2 X33.892 Y-64.870 Z-3.000 I0.150 J0.000 F170.000
G0 X33.742 Y-64.870 Z-3.000
G0 Z0.000
G0 Z5.000
G0 X46.618 Y-43.441 Z5.000
G0 X46.618 Y-43.441 Z0.000
G0 X46.768 Y-43.441
G1 Z0.000 F120.000
G2 X46.468 Y-43.441 Z-0.750 I-0.150 J0.000 F170.000
G2 X46.768 Y-43.441 Z-1.500 I0.150 J0.000 F170.000
G2 X46.468 Y-43.441 Z-2.250 I-0.150 J0.000 F170.000
G2 X46.768 Y-43.441 Z-3.000 I0.150 J0.000 F170.000
G2 X46.468 Y-43.441 Z-3.000 I-0.150 J0.000 F170.000
G2 X46.768 Y-43.441 Z-3.000 I0.150 J0.000 F170.000
G0 X46.618 Y-43.441 Z-3.000
G0 Z0.000
G0 Z5.000
G0 X76.876 Y-61.038 Z5.000
G0 X76.876 Y-61.038 Z0.000
G0 X77.026 Y-61.038
G1 Z0.000 F120.000
G2 X76.726 Y-61.038 Z-0.750 I-0.150 J0.000 F170.000
G2 X77.026 Y-61.038 Z-1.500 I0.150 J0.000 F170.000
G2 X76.726 Y-61.038 Z-2.250 I-0.150 J0.000 F170.000
G2 X77.026 Y-61.038 Z-3.000 I0.150 J0.000 F170.000
G2 X76.726 Y-61.038 Z-3.000 I-0.150 J0.000 F170.000
G2 X77.026 Y-61.038 Z-3.000 I0.150 J0.000 F170.000
G0 X76.876 Y-61.038 Z-3.000
G0 Z0.000
G0 Z5.000
G0 X68.028 Y-85.471 Z5.000
G0 X68.028 Y-85.471 Z0.000
G0 X68.178 Y-85.471
G1 Z0.000 F120.000
G2 X67.878 Y-85.471 Z-0.750 I-0.150 J0.000 F170.000
G2 X68.178 Y-85.471 Z-1.500 I0.150 J0.000 F170.000
G2 X67.878 Y-85.471 Z-2.250 I-0.150 J0.000 F170.000
G2 X68.178 Y-85.471 Z-3.000 I0.150 J0.000 F170.000
G2 X67.878 Y-85.471 Z-3.000 I-0.150 J0.000 F170.000
G2 X68.178 Y-85.471 Z-3.000 I0.150 J0.000 F170.000
G0 X68.028 Y-85.471 Z-3.000
G0 Z0.000
G0 Z5.000
G0 X99.162 Y-74.429 Z5.000
G0 X99.162 Y-74.429 Z0.000
G0 X99.312 Y-74.429
G1 Z0.000 F120.000
G2 X99.012 Y-74.429 Z-0.750 I-0.150 J0.000 F170.000
G2 X99.312 Y-74.429 Z-1.500 I0.150 J0.000 F170.000
G2 X99.012 Y-74.429 Z-2.250 I-0.150 J0.000 F170.000
G2 X99.312 Y-74.429 Z-3.000 I0.150 J0.000 F170.000
G2 X99.012 Y-74.429 Z-3.000 I-0.150 J0.000 F170.000
G2 X99.312 Y-74.429 Z-3.000 I0.150 J0.000 F170.000
G0 X99.162 Y-74.429 Z-3.000
G0 Z0.000
G0 Z5.000
G0 X125.584 Y-90.433 Z5.000
G0 X125.584 Y-90.433 Z0.000
G0 X125.734 Y-90.433
G1 Z0.000 F120.000
G2 X125.434 Y-90.433 Z-0.750 I-0.150 J0.000 F170.000
G2 X125.734 Y-90.433 Z-1.500 I0.150 J0.000 F170.000
G2 X125.434 Y-90.433 Z-2.250 I-0.150 J0.000 F170.000
G2 X125.734 Y-90.433 Z-3.000 I0.150 J0.000 F170.000
G2 X125.434 Y-90.433 Z-3.000 I-0.150 J0.000 F170.000
G2 X125.734 Y-90.433 Z-3.000 I0.150 J0.000 F170.000
G0 X125.584 Y-90.433 Z-3.000
G0 Z0.000
G0 Z5.000
G0 X138.990 Y-79.694 Z5.000
G0 X138.990 Y-79.694 Z0.000
G0 X139.140 Y-79.694
G1 Z0.000 F120.000
G2 X138.840 Y-79.694 Z-0.750 I-0.150 J0.000 F170.000
G2 X139.140 Y-79.694 Z-1.500 I0.150 J0.000 F170.000
G2 X138.840 Y-79.694 Z-2.250 I-0.150 J0.000 F170.000
G2 X139.140 Y-79.694 Z-3.000 I0.150 J0.000 F170.000
G2 X138.840 Y-79.694 Z-3.000 I-0.150 J0.000 F170.000
G2 X139.140 Y-79.694 Z-3.000 I0.150 J0.000 F170.000
G0 X138.990 Y-79.694 Z-3.000
G0 Z0.000
G0 Z5.000
G0 X161.038 Y-92.942 Z5.000
G0 X161.038 Y-92.942 Z0.000
G0 X161.188 Y-92.942
G1 Z0.000 F120.000
G2 X160.888 Y-92.942 Z-0.750 I-0.150 J0.000 F170.000
G2 X161.188 Y-92.942 Z-1.500 I0.150 J0.000 F170.000
G2 X160.888 Y-92.942 Z-2.250 I-0.150 J0.000 F170.000
G2 X161.188 Y-92.942 Z-3.000 I0.150 J0.000 F170.000
G2 X160.888 Y-92.942 Z-3.000 I-0.150 J0.000 F170.000
G2 X161.188 Y-92.942 Z-3.000 I0.150 J0.000 F170.000
G0 X161.038 Y-92.942 Z-3.000
G0 Z0.000
G0 Z5.000
G0 X145.619 Y-105.843 Z5.000
G0 X145.619 Y-105.843 Z0.000
G0 X145.769 Y-105.843
G1 Z0.000 F120.000
G2 X145.469 Y-105.843 Z-0.750 I-0.150 J0.000 F170.000
G2 X145.769 Y-105.843 Z-1.500 I0.150 J0.000 F170.000
G2 X145.469 Y-105.843 Z-2.250 I-0.150 J0.000 F170.000
G2 X145.769 Y-105.843 Z-3.000 I0.150 J0.000 F170.000
G2 X145.469 Y-105.843 Z-3.000 I-0.150 J0.000 F170.000
G2 X145.769 Y-105.843 Z-3.000 I0.150 J0.000 F170.000
G0 X145.619 Y-105.843 Z-3.000
G0 Z0.000
G0 Z5.000
G0 X130.261 Y-118.781 Z5.000
G0 X130.261 Y-118.781 Z0.000
G0 X130.411 Y-118.781
G1 Z0.000 F120.000
G2 X130.111 Y-118.781 Z-0.750 I-0.150 J0.000 F170.000
G2 X130.411 Y-118.781 Z-1.500 I0.150 J0.000 F170.000
G2 X130.111 Y-118.781 Z-2.250 I-0.150 J0.000 F170.000
G2 X130.411 Y-118.781 Z-3.000 I0.150 J0.000 F170.000
G2 X130.111 Y-118.781 Z-3.000 I-0.150 J0.000 F170.000
G2 X130.411 Y-118.781 Z-3.000 I0.150 J0.000 F170.000
G0 X130.261 Y-118.781 Z-3.000
G0 Z0.000
G0 Z5.000
G0 X119.961 Y-135.925 Z5.000
G0 X119.961 Y-135.925 Z0.000
G0 X120.111 Y-135.925
G1 Z0.000 F120.000
G2 X119.811 Y-135.925 Z-0.750 I-0.150 J0.000 F170.000
G2 X120.111 Y-135.925 Z-1.500 I0.150 J0.000 F170.000
G2 X119.811 Y-135.925 Z-2.250 I-0.150 J0.000 F170.000
G2 X120.111 Y-135.925 Z-3.000 I0.150 J0.000 F170.000
G2 X119.811 Y-135.925 Z-3.000 I-0.150 J0.000 F170.000
G2 X120.111 Y-135.925 Z-3.000 I0.150 J0.000 F170.000
G0 X119.961 Y-135.925 Z-3.000
G0 Z0.000
G0 Z5.000
G0 X102.315 Y-106.073 Z5.000
G0 X102.315 Y-106.073 Z0.000
G0 X102.465 Y-106.073
G1 Z0.000 F120.000
G2 X102.165 Y-106.073 Z-0.750 I-0.150 J0.000 F170.000
G2 X102.465 Y-106.073 Z-1.500 I0.150 J0.000 F170.000
G2 X102.165 Y-106.073 Z-2.250 I-0.150 J0.000 F170.000
G2 X102.465 Y-106.073 Z-3.000 I0.150 J0.000 F170.000
G2 X102.165 Y-106.073 Z-3.000 I-0.150 J0.000 F170.000
G2 X102.465 Y-106.073 Z-3.000 I0.150 J0.000 F170.000
G0 X102.315 Y-106.073 Z-3.000
G0 Z0.000
G0 Z5.000
G0 X160.148 Y-45.742 Z5.000
G0 X160.148 Y-45.742 Z0.000
G0 X160.298 Y-45.742
G1 Z0.000 F120.000
G2 X159.998 Y-45.742 Z-0.750 I-0.150 J0.000 F170.000
G2 X160.298 Y-45.742 Z-1.500 I0.150 J0.000 F170.000
G2 X159.998 Y-45.742 Z-2.250 I-0.150 J0.000 F170.000
G2 X160.298 Y-45.742 Z-3.000 I0.150 J0.000 F170.000
G2 X159.998 Y-45.742 Z-3.000 I-0.150 J0.000 F170.000
G2 X160.298 Y-45.742 Z-3.000 I0.150 J0.000 F170.000
G0 X160.148 Y-45.742 Z-3.000
G0 Z0.000
G0 Z5.000
G0 X181.640 Y-58.655 Z5.000
G0 X181.640 Y-58.655 Z0.000
G0 X181.790 Y-58.655
G1 Z0.000 F120.000
G2 X181.490 Y-58.655 Z-0.750 I-0.150 J0.000 F170.000
G2 X181.790 Y-58.655 Z-1.500 I0.150 J0.000 F170.000
G2 X181.490 Y-58.655 Z-2.250 I-0.150 J0.000 F170.000
G2 X181.790 Y-58.655 Z-3.000 I0.150 J0.000 F170.000
G2 X181.490 Y-58.655 Z-3.000 I-0.150 J0.000 F170.000
G2 X181.790 Y-58.655 Z-3.000 I0.150 J0.000 F170.000
G0 X181.640 Y-58.655 Z-3.000
G0 Z0.000
G0 Z5.000
G0 X198.491 Y-25.615 Z5.000
G0 X198.491 Y-25.615 Z0.000
G0 X198.641 Y-25.615
G1 Z0.000 F120.000
G2 X198.341 Y-25.615 Z-0.750 I-0.150 J0.000 F170.000
G2 X198.641 Y-25.615 Z-1.500 I0.150 J0.000 F170.000
G2 X198.341 Y-25.615 Z-2.250 I-0.150 J0.000 F170.000
G2 X198.641 Y-25.615 Z-3.000 I0.150 J0.000 F170.000
G2 X198.341 Y-25.615 Z-3.000 I-0.150 J0.000 F170.000
G2 X198.641 Y-25.615 Z-3.000 I0.150 J0.000 F170.000
G0 X198.491 Y-25.615 Z-3.000
G0 Z0.000
G0 Z5.000
G0 X193.061 Y-15.528 Z5.000
G0 X193.061 Y-15.528 Z0.000
G0 X193.211 Y-15.528
G1 Z0.000 F120.000
G2 X192.911 Y-15.528 Z-0.750 I-0.150 J0.000 F170.000
G2 X193.211 Y-15.528 Z-1.500 I0.150 J0.000 F170.000
G2 X192.911 Y-15.528 Z-2.250 I-0.150 J0.000 F170.000
G2 X193.211 Y-15.528 Z-3.000 I0.150 J0.000 F170.000
G2 X192.911 Y-15.528 Z-3.000 I-0.150 J0.000 F170.000
G2 X193.211 Y-15.528 Z-3.000 I0.150 J0.000 F170.000
G0 X193.061 Y-15.528 Z-3.000
G0 Z0.000
G0 Z5.000
G0 X185.299 Y-4.855 Z5.000
G0 X185.299 Y-4.855 Z0.000
G0 X185.449 Y-4.855
G1 Z0.000 F120.000
G2 X185.149 Y-4.855 Z-0.750 I-0.150 J0.000 F170.000
G2 X185.449 Y-4.855 Z-1.500 I0.150 J0.000 F170.000
G2 X185.149 Y-4.855 Z-2.250 I-0.150 J0.000 F170.000
G2 X185.449 Y-4.855 Z-3.000 I0.150 J0.000 F170.000
G2 X185.149 Y-4.855 Z-3.000 I-0.150 J0.000 F170.000
G2 X185.449 Y-4.855 Z-3.000 I0.150 J0.000 F170.000
G0 X185.299 Y-4.855 Z-3.000
G0 Z0.000
G0 Z5.000
(finish operation: Helix001)
(begin operation: Pocket_Shape003)
(machine: not set, mm/min)
(Pocket_Shape003)
G0 Z5.000
G0 X98.631 Y-122.949
G0 Z3.000
G1 X98.631 Y-122.949 Z-2.000 F120.000
G2 X98.654 Y-123.120 Z-2.000 I-0.100 J-0.100 F170.000
G2 X98.461 Y-123.171 Z-2.000 I-0.122 J0.071 F170.000
G2 X98.409 Y-122.978 Z-2.000 I0.071 J0.122 F170.000
G2 X98.631 Y-122.949 Z-2.000 I0.122 J-0.071 F170.000
G1 X98.631 Y-122.949 Z-3.000 F120.000
G2 X98.654 Y-123.120 Z-3.000 I-0.100 J-0.100 F170.000
G2 X98.461 Y-123.171 Z-3.000 I-0.122 J0.071 F170.000
G2 X98.409 Y-122.978 Z-3.000 I0.071 J0.122 F170.000
G2 X98.631 Y-122.949 Z-3.000 I0.122 J-0.071 F170.000
G0 Z5.000
G0 Z5.000
(finish operation: Pocket_Shape003)
(begin operation: Profile002)
(machine: not set, mm/min)
(Profile002)
(Compensated Tool Path. Diameter: 2.0)
G0 Z5.000
G0 X191.819 Y-6.998
G0 Z3.000
G1 X191.819 Y-6.998 Z-2.000 F120.000
G1 X201.741 Y-24.325 Z-2.000 F170.000
G2 X202.314 Y-26.453 Z-2.000 I-3.802 J-2.165 F170.000
G1 X202.292 Y-29.764 Z-2.000 F170.000
G2 X201.703 Y-31.914 Z-2.000 I-4.375 J0.042 F170.000
G1 X164.751 Y-93.418 Z-2.000 F170.000
G2 X163.904 Y-94.435 Z-2.000 I-3.748 J2.259 F170.000
G1 X132.986 Y-121.298 Z-2.000 F170.000
G3 X132.488 Y-121.891 Z-2.000 I1.576 J-1.828 F170.000
G1 X117.819 Y-146.305 Z-2.000 F170.000
G2 X116.447 Y-146.647 Z-2.000 I-0.857 J0.515 F170.000
G2 X90.723 Y-131.190 Z-2.000 I4676349.274 J7782781.242 F170.000
G2 X90.381 Y-129.818 Z-2.000 I0.515 J0.857 F170.000
G1 X100.998 Y-112.148 Z-2.000 F170.000
G3 X100.182 Y-108.874 Z-2.000 I-2.005 J1.239 F170.000
G1 X3.095 Y-50.539 Z-2.000 F170.000
G2 X1.573 Y-44.632 Z-2.000 I2.244 J3.728 F170.000
G1 X13.607 Y-24.598 Z-2.000 F170.000
G2 X19.514 Y-23.075 Z-2.000 I3.728 J-2.244 F170.000
G1 X73.805 Y-55.693 Z-2.000 F170.000
G3 X77.078 Y-54.877 Z-2.000 I1.239 J2.005 F170.000
G1 X83.060 Y-44.921 Z-2.000 F170.000
G2 X84.432 Y-44.579 Z-2.000 I0.857 J-0.515 F170.000
G1 X110.147 Y-60.030 Z-2.000 F170.000
G2 X110.489 Y-61.403 Z-2.000 I-0.515 J-0.857 F170.000
G1 X104.508 Y-71.358 Z-2.000 F170.000
G3 X105.324 Y-74.632 Z-2.000 I2.005 J-1.239 F170.000
G1 X123.173 Y-85.357 Z-2.000 F170.000
G3 X125.885 Y-85.196 Z-2.000 I1.242 J2.012 F170.000
G1 X137.637 Y-76.086 Z-2.000 F170.000
G3 X138.241 Y-75.405 Z-2.000 I-1.470 J1.914 F170.000
G1 X181.690 Y-3.095 Z-2.000 F170.000
G2 X187.596 Y-1.573 Z-2.000 I3.728 J-2.244 F170.000
G2 X189.835 Y-3.534 Z-2.000 I-2.213 J-4.784 F170.000
G1 X191.819 Y-6.998 Z-2.000 F170.000
G1 X191.819 Y-6.998 Z-3.000 F120.000
G1 X201.741 Y-24.325 Z-3.000 F170.000
G2 X202.314 Y-26.453 Z-3.000 I-3.802 J-2.165 F170.000
G1 X202.292 Y-29.764 Z-3.000 F170.000
G2 X201.703 Y-31.914 Z-3.000 I-4.375 J0.042 F170.000
G1 X164.751 Y-93.418 Z-3.000 F170.000
G2 X163.904 Y-94.435 Z-3.000 I-3.748 J2.259 F170.000
G1 X132.986 Y-121.298 Z-3.000 F170.000
G3 X132.488 Y-121.891 Z-3.000 I1.576 J-1.828 F170.000
G1 X117.819 Y-146.305 Z-3.000 F170.000
G2 X116.447 Y-146.647 Z-3.000 I-0.857 J0.515 F170.000
G2 X90.723 Y-131.190 Z-3.000 I4676349.274 J7782781.242 F170.000
G2 X90.381 Y-129.818 Z-3.000 I0.515 J0.857 F170.000
G1 X100.998 Y-112.148 Z-3.000 F170.000
G3 X100.182 Y-108.874 Z-3.000 I-2.005 J1.239 F170.000
G1 X3.095 Y-50.539 Z-3.000 F170.000
G2 X1.573 Y-44.632 Z-3.000 I2.244 J3.728 F170.000
G1 X13.607 Y-24.598 Z-3.000 F170.000
G2 X19.514 Y-23.075 Z-3.000 I3.728 J-2.244 F170.000
G1 X73.805 Y-55.693 Z-3.000 F170.000
G3 X77.078 Y-54.877 Z-3.000 I1.239 J2.005 F170.000
G1 X83.060 Y-44.921 Z-3.000 F170.000
G2 X84.432 Y-44.579 Z-3.000 I0.857 J-0.515 F170.000
G1 X110.147 Y-60.030 Z-3.000 F170.000
G2 X110.489 Y-61.403 Z-3.000 I-0.515 J-0.857 F170.000
G1 X104.508 Y-71.358 Z-3.000 F170.000
G3 X105.324 Y-74.632 Z-3.000 I2.005 J-1.239 F170.000
G1 X123.173 Y-85.357 Z-3.000 F170.000
G3 X125.885 Y-85.196 Z-3.000 I1.242 J2.012 F170.000
G1 X137.637 Y-76.086 Z-3.000 F170.000
G3 X138.241 Y-75.405 Z-3.000 I-1.470 J1.914 F170.000
G1 X181.690 Y-3.095 Z-3.000 F170.000
G2 X187.596 Y-1.573 Z-3.000 I3.728 J-2.244 F170.000
G2 X189.835 Y-3.534 Z-3.000 I-2.213 J-4.784 F170.000
G1 X191.819 Y-6.998 Z-3.000 F170.000
G0 Z5.000
G0 Z5.000
(finish operation: Profile002)
(begin postamble)
M05 M09
G17 G90 G80 G40
M30
