(Exported by FreeCAD)
(Post Processor: KineticNCBeamicon2_post)
(Output Time:2024-12-17 11:59:31.690250)
(begin preamble)
G17 G21 G40 G49 G80 G90
M08
G21
(begin operation: Fixture)
(machine: not set, mm/min)
G54
(finish operation: Fixture)
(begin operation: 2mm_Endmill001)
(machine: not set, mm/min)
(2mm_Endmill001)
M05
M09M6 T2
M3 S10000
(finish operation: 2mm_Endmill001)
(begin operation: Helix)
(machine: not set, mm/min)
(Helix)
(helix cut operation)
G0 Z5.000
G0 Z5.000
G0 X9.125 Y-6.400 Z5.000
G0 X9.125 Y-6.400 Z0.000
G0 X9.775 Y-6.400
G1 Z0.000 F120.000
G2 X8.475 Y-6.400 Z-0.750 I-0.650 J0.000 F170.000
G2 X9.775 Y-6.400 Z-1.500 I0.650 J0.000 F170.000
G2 X8.475 Y-6.400 Z-2.250 I-0.650 J0.000 F170.000
G2 X9.775 Y-6.400 Z-3.000 I0.650 J0.000 F170.000
G2 X8.475 Y-6.400 Z-3.000 I-0.650 J0.000 F170.000
G2 X9.775 Y-6.400 Z-3.000 I0.650 J0.000 F170.000
G0 X9.125 Y-6.400 Z-3.000
G0 Z0.000
G0 Z5.000
G0 X27.001 Y-18.005 Z5.000
G0 X27.001 Y-18.005 Z0.000
G0 X30.001 Y-18.005
G1 Z0.000 F120.000
G2 X24.001 Y-18.005 Z-0.750 I-3.000 J0.000 F170.000
G2 X30.001 Y-18.005 Z-1.500 I3.000 J0.000 F170.000
G2 X24.001 Y-18.005 Z-2.250 I-3.000 J0.000 F170.000
G2 X30.001 Y-18.005 Z-3.000 I3.000 J0.000 F170.000
G2 X24.001 Y-18.005 Z-3.000 I-3.000 J0.000 F170.000
G2 X30.001 Y-18.005 Z-3.000 I3.000 J0.000 F170.000
G0 Z0.000
G0 X29.001 Y-18.005
G1 Z0.000 F120.000
G2 X25.001 Y-18.005 Z-0.750 I-2.000 J0.000 F170.000
G2 X29.001 Y-18.005 Z-1.500 I2.000 J0.000 F170.000
G2 X25.001 Y-18.005 Z-2.250 I-2.000 J0.000 F170.000
G2 X29.001 Y-18.005 Z-3.000 I2.000 J0.000 F170.000
G2 X25.001 Y-18.005 Z-3.000 I-2.000 J0.000 F170.000
G2 X29.001 Y-18.005 Z-3.000 I2.000 J0.000 F170.000
G0 Z0.000
G0 X28.001 Y-18.005
G1 Z0.000 F120.000
G2 X26.001 Y-18.005 Z-0.750 I-1.000 J0.000 F170.000
G2 X28.001 Y-18.005 Z-1.500 I1.000 J0.000 F170.000
G2 X26.001 Y-18.005 Z-2.250 I-1.000 J0.000 F170.000
G2 X28.001 Y-18.005 Z-3.000 I1.000 J0.000 F170.000
G2 X26.001 Y-18.005 Z-3.000 I-1.000 J0.000 F170.000
G2 X28.001 Y-18.005 Z-3.000 I1.000 J0.000 F170.000
G0 Z0.000
G0 Z5.000
G0 X47.001 Y-18.005 Z5.000
G0 X47.001 Y-18.005 Z0.000
G0 X50.001 Y-18.005
G1 Z0.000 F120.000
G2 X44.001 Y-18.005 Z-0.750 I-3.000 J0.000 F170.000
G2 X50.001 Y-18.005 Z-1.500 I3.000 J0.000 F170.000
G2 X44.001 Y-18.005 Z-2.250 I-3.000 J0.000 F170.000
G2 X50.001 Y-18.005 Z-3.000 I3.000 J0.000 F170.000
G2 X44.001 Y-18.005 Z-3.000 I-3.000 J0.000 F170.000
G2 X50.001 Y-18.005 Z-3.000 I3.000 J0.000 F170.000
G0 Z0.000
G0 X49.001 Y-18.005
G1 Z0.000 F120.000
G2 X45.001 Y-18.005 Z-0.750 I-2.000 J0.000 F170.000
G2 X49.001 Y-18.005 Z-1.500 I2.000 J0.000 F170.000
G2 X45.001 Y-18.005 Z-2.250 I-2.000 J0.000 F170.000
G2 X49.001 Y-18.005 Z-3.000 I2.000 J0.000 F170.000
G2 X45.001 Y-18.005 Z-3.000 I-2.000 J0.000 F170.000
G2 X49.001 Y-18.005 Z-3.000 I2.000 J0.000 F170.000
G0 Z0.000
G0 X48.001 Y-18.005
G1 Z0.000 F120.000
G2 X46.001 Y-18.005 Z-0.750 I-1.000 J0.000 F170.000
G2 X48.001 Y-18.005 Z-1.500 I1.000 J0.000 F170.000
G2 X46.001 Y-18.005 Z-2.250 I-1.000 J0.000 F170.000
G2 X48.001 Y-18.005 Z-3.000 I1.000 J0.000 F170.000
G2 X46.001 Y-18.005 Z-3.000 I-1.000 J0.000 F170.000
G2 X48.001 Y-18.005 Z-3.000 I1.000 J0.000 F170.000
G0 Z0.000
G0 Z5.000
G0 X72.001 Y-18.005 Z5.000
G0 X72.001 Y-18.005 Z0.000
G0 X76.001 Y-18.005
G1 Z0.000 F120.000
G2 X68.001 Y-18.005 Z-0.750 I-4.000 J0.000 F170.000
G2 X76.001 Y-18.005 Z-1.500 I4.000 J0.000 F170.000
G2 X68.001 Y-18.005 Z-2.250 I-4.000 J0.000 F170.000
G2 X76.001 Y-18.005 Z-3.000 I4.000 J0.000 F170.000
G2 X68.001 Y-18.005 Z-3.000 I-4.000 J0.000 F170.000
G2 X76.001 Y-18.005 Z-3.000 I4.000 J0.000 F170.000
G0 Z0.000
G0 X75.001 Y-18.005
G1 Z0.000 F120.000
G2 X69.001 Y-18.005 Z-0.750 I-3.000 J0.000 F170.000
G2 X75.001 Y-18.005 Z-1.500 I3.000 J0.000 F170.000
G2 X69.001 Y-18.005 Z-2.250 I-3.000 J0.000 F170.000
G2 X75.001 Y-18.005 Z-3.000 I3.000 J0.000 F170.000
G2 X69.001 Y-18.005 Z-3.000 I-3.000 J0.000 F170.000
G2 X75.001 Y-18.005 Z-3.000 I3.000 J0.000 F170.000
G0 Z0.000
G0 X74.001 Y-18.005
G1 Z0.000 F120.000
G2 X70.001 Y-18.005 Z-0.750 I-2.000 J0.000 F170.000
G2 X74.001 Y-18.005 Z-1.500 I2.000 J0.000 F170.000
G2 X70.001 Y-18.005 Z-2.250 I-2.000 J0.000 F170.000
G2 X74.001 Y-18.005 Z-3.000 I2.000 J0.000 F170.000
G2 X70.001 Y-18.005 Z-3.000 I-2.000 J0.000 F170.000
G2 X74.001 Y-18.005 Z-3.000 I2.000 J0.000 F170.000
G0 Z0.000
G0 X73.001 Y-18.005
G1 Z0.000 F120.000
G2 X71.001 Y-18.005 Z-0.750 I-1.000 J0.000 F170.000
G2 X73.001 Y-18.005 Z-1.500 I1.000 J0.000 F170.000
G2 X71.001 Y-18.005 Z-2.250 I-1.000 J0.000 F170.000
G2 X73.001 Y-18.005 Z-3.000 I1.000 J0.000 F170.000
G2 X71.001 Y-18.005 Z-3.000 I-1.000 J0.000 F170.000
G2 X73.001 Y-18.005 Z-3.000 I1.000 J0.000 F170.000
G0 Z0.000
G0 Z5.000
G0 X97.001 Y-18.005 Z5.000
G0 X97.001 Y-18.005 Z0.000
G0 X100.001 Y-18.005
G1 Z0.000 F120.000
G2 X94.001 Y-18.005 Z-0.750 I-3.000 J0.000 F170.000
G2 X100.001 Y-18.005 Z-1.500 I3.000 J0.000 F170.000
G2 X94.001 Y-18.005 Z-2.250 I-3.000 J0.000 F170.000
G2 X100.001 Y-18.005 Z-3.000 I3.000 J0.000 F170.000
G2 X94.001 Y-18.005 Z-3.000 I-3.000 J0.000 F170.000
G2 X100.001 Y-18.005 Z-3.000 I3.000 J0.000 F170.000
G0 Z0.000
G0 X99.001 Y-18.005
G1 Z0.000 F120.000
G2 X95.001 Y-18.005 Z-0.750 I-2.000 J0.000 F170.000
G2 X99.001 Y-18.005 Z-1.500 I2.000 J0.000 F170.000
G2 X95.001 Y-18.005 Z-2.250 I-2.000 J0.000 F170.000
G2 X99.001 Y-18.005 Z-3.000 I2.000 J0.000 F170.000
G2 X95.001 Y-18.005 Z-3.000 I-2.000 J0.000 F170.000
G2 X99.001 Y-18.005 Z-3.000 I2.000 J0.000 F170.000
G0 Z0.000
G0 X98.001 Y-18.005
G1 Z0.000 F120.000
G2 X96.001 Y-18.005 Z-0.750 I-1.000 J0.000 F170.000
G2 X98.001 Y-18.005 Z-1.500 I1.000 J0.000 F170.000
G2 X96.001 Y-18.005 Z-2.250 I-1.000 J0.000 F170.000
G2 X98.001 Y-18.005 Z-3.000 I1.000 J0.000 F170.000
G2 X96.001 Y-18.005 Z-3.000 I-1.000 J0.000 F170.000
G2 X98.001 Y-18.005 Z-3.000 I1.000 J0.000 F170.000
G0 Z0.000
G0 Z5.000
G0 X114.875 Y-6.400 Z5.000
G0 X114.875 Y-6.400 Z0.000
G0 X115.525 Y-6.400
G1 Z0.000 F120.000
G2 X114.225 Y-6.400 Z-0.750 I-0.650 J0.000 F170.000
G2 X115.525 Y-6.400 Z-1.500 I0.650 J0.000 F170.000
G2 X114.225 Y-6.400 Z-2.250 I-0.650 J0.000 F170.000
G2 X115.525 Y-6.400 Z-3.000 I0.650 J0.000 F170.000
G2 X114.225 Y-6.400 Z-3.000 I-0.650 J0.000 F170.000
G2 X115.525 Y-6.400 Z-3.000 I0.650 J0.000 F170.000
G0 X114.875 Y-6.400 Z-3.000
G0 Z0.000
G0 Z5.000
G0 X114.875 Y-30.698 Z5.000
G0 X114.875 Y-30.698 Z0.000
G0 X115.525 Y-30.698
G1 Z0.000 F120.000
G2 X114.225 Y-30.698 Z-0.750 I-0.650 J0.000 F170.000
G2 X115.525 Y-30.698 Z-1.500 I0.650 J0.000 F170.000
G2 X114.225 Y-30.698 Z-2.250 I-0.650 J0.000 F170.000
G2 X115.525 Y-30.698 Z-3.000 I0.650 J0.000 F170.000
G2 X114.225 Y-30.698 Z-3.000 I-0.650 J0.000 F170.000
G2 X115.525 Y-30.698 Z-3.000 I0.650 J0.000 F170.000
G0 X114.875 Y-30.698 Z-3.000
G0 Z0.000
G0 Z5.000
G0 X9.125 Y-30.698 Z5.000
G0 X9.125 Y-30.698 Z0.000
G0 X9.775 Y-30.698
G1 Z0.000 F120.000
G2 X8.475 Y-30.698 Z-0.750 I-0.650 J0.000 F170.000
G2 X9.775 Y-30.698 Z-1.500 I0.650 J0.000 F170.000
G2 X8.475 Y-30.698 Z-2.250 I-0.650 J0.000 F170.000
G2 X9.775 Y-30.698 Z-3.000 I0.650 J0.000 F170.000
G2 X8.475 Y-30.698 Z-3.000 I-0.650 J0.000 F170.000
G2 X9.775 Y-30.698 Z-3.000 I0.650 J0.000 F170.000
G0 X9.125 Y-30.698 Z-3.000
G0 Z0.000
G0 Z5.000
(finish operation: Helix)
(begin operation: Profile)
(machine: not set, mm/min)
(Profile)
(Compensated Tool Path. Diameter: 2.0)
G0 Z5.000
G0 X120.949 Y-3.051
G0 Z3.000
G1 X120.949 Y-3.051 Z-2.000 F120.000
G2 X122.998 Y-7.944 Z-2.000 I-4.951 J-4.950 F170.000
G1 X123.000 Y-29.000 Z-2.000 F170.000
G2 X116.056 Y-35.998 Z-2.000 I-7.001 J0.002 F170.000
G1 X8.000 Y-36.000 Z-2.000 F170.000
G2 X1.002 Y-29.056 Z-2.000 I0.002 J7.001 F170.000
G1 X1.000 Y-8.000 Z-2.000 F170.000
G2 X7.944 Y-1.002 Z-2.000 I7.001 J-0.002 F170.000
G1 X116.000 Y-1.000 Z-2.000 F170.000
G2 X120.949 Y-3.051 Z-2.000 I-0.002 J-7.001 F170.000
G1 X120.949 Y-3.051 Z-3.000 F120.000
G2 X122.998 Y-7.944 Z-3.000 I-4.951 J-4.950 F170.000
G1 X123.000 Y-29.000 Z-3.000 F170.000
G2 X116.056 Y-35.998 Z-3.000 I-7.001 J0.002 F170.000
G1 X8.000 Y-36.000 Z-3.000 F170.000
G2 X1.002 Y-29.056 Z-3.000 I0.002 J7.001 F170.000
G1 X1.000 Y-8.000 Z-3.000 F170.000
G2 X7.944 Y-1.002 Z-3.000 I7.001 J-0.002 F170.000
G1 X116.000 Y-1.000 Z-3.000 F170.000
G2 X120.949 Y-3.051 Z-3.000 I-0.002 J-7.001 F170.000
G0 Z5.000
G0 Z5.000
(finish operation: Profile)
(begin postamble)
M05 M09
G17 G90 G80 G40
M30
