(G-CODE GENERATED BY FLATCAM v8.994 - www.flatcam.org - Version Date: 2020/11/7)

(Name: cnc mill pcb tester-F_Cu.gbr_iso_combined_cnc)
(Type: G-code from Geometry)
(Units: MM)

(Created on Thursday, 11 April 2024 at 22:42)

(This preprocessor is the default preprocessor used by FlatCAM.)
(It is made to work with MACH3 compatible motion controllers.)

(TOOL DIAMETER: 0.39 mm)
(Feedrate_XY: 120.0 mm/min)
(Feedrate_Z: 60.0 mm/min)
(Feedrate rapids 1500.0 mm/min)

(Z_Cut: -0.05 mm)
(Z_Move: 2.0 mm)
(Z Start: None mm)
(Z End: 15.0 mm)
(X,Y End: None mm)
(Steps per circle: 64)
(Preprocessor Geometry: default)

(X range:   13.2010 ...   54.1771  mm)
(Y range:  -33.8689 ...   -9.9348  mm)

(Spindle Speed: 0.0 RPM)
G21
G90
G94

G01 F120.00

M5
G00 Z15.0000
G00 X0.0000 Y0.0000
T1
M6    
(MSG, Change to Tool Dia = 0.3900)
M0
G00 Z15.0000

M03
G01 F120.00
G00 X14.8652 Y-11.6148
G01 F60.00
G01 Z-0.0500
G01 F120.00
G01 X14.8380 Y-11.6053
G01 X14.8157 Y-11.5967
G01 X14.7938 Y-11.5870
G01 X14.7712 Y-11.5762
G01 X14.7687 Y-11.5862
G01 X14.7687 Y-11.6435
G01 X14.7712 Y-11.6535
G01 X14.7938 Y-11.6426
G01 X14.8157 Y-11.6329
G01 X14.8380 Y-11.6243
G01 X14.8652 Y-11.6148
G00 Z2.0000
G00 X15.3574 Y-12.0479
G01 F60.00
G01 Z-0.0500
G01 F120.00
G01 X15.3574 Y-11.1817
G01 X15.3466 Y-11.1994
G01 X15.3323 Y-11.2191
G01 X15.3233 Y-11.2303
G01 X15.3070 Y-11.2483
G01 X15.2967 Y-11.2583
G01 X15.2786 Y-11.2744
G01 X15.2592 Y-11.2891
G01 X15.2474 Y-11.2972
G01 X15.2223 Y-11.3120
G01 X15.2005 Y-11.3226
G01 X15.1873 Y-11.3283
G01 X15.1644 Y-11.3365
G01 X15.1506 Y-11.3405
G01 X15.1270 Y-11.3461
G01 X15.1030 Y-11.3499
G01 X15.0887 Y-11.3515
G01 X15.0644 Y-11.3527
G01 X15.0501 Y-11.3525
G01 X15.0258 Y-11.3511
G01 X15.0018 Y-11.3478
G01 X14.9877 Y-11.3451
G01 X14.9641 Y-11.3392
G01 X14.9549 Y-11.3365
G01 X14.9320 Y-11.3283
G01 X14.9188 Y-11.3226
G01 X14.8970 Y-11.3120
G01 X14.8760 Y-11.2997
G01 X14.8640 Y-11.2919
G01 X14.8445 Y-11.2774
G01 X14.8371 Y-11.2714
G01 X14.8191 Y-11.2550
G01 X14.8018 Y-11.2379
G01 X14.7179 Y-11.2099
G01 X14.6871 Y-11.2099
G01 X14.6032 Y-11.2379
G01 X14.5575 Y-11.2835
G01 X14.5281 Y-11.3424
G01 X14.4762 Y-11.5502
G01 X14.4762 Y-11.6795
G01 X14.5281 Y-11.8872
G01 X14.5575 Y-11.9461
G01 X14.6032 Y-11.9918
G01 X14.6871 Y-12.0198
G01 X14.7179 Y-12.0198
G01 X14.8018 Y-11.9918
G01 X14.8191 Y-11.9746
G01 X14.8371 Y-11.9583
G01 X14.8483 Y-11.9493
G01 X14.8679 Y-11.9351
G01 X14.8887 Y-11.9224
G01 X14.9012 Y-11.9154
G01 X14.9232 Y-11.9050
G01 X14.9365 Y-11.8997
G01 X14.9595 Y-11.8918
G01 X14.9830 Y-11.8856
G01 X14.9970 Y-11.8827
G01 X15.0211 Y-11.8791
G01 X15.0354 Y-11.8779
G01 X15.0597 Y-11.8769
G01 X15.0839 Y-11.8779
G01 X15.0982 Y-11.8791
G01 X15.1223 Y-11.8827
G01 X15.1363 Y-11.8856
G01 X15.1598 Y-11.8918
G01 X15.1828 Y-11.8997
G01 X15.1961 Y-11.9050
G01 X15.2181 Y-11.9154
G01 X15.2306 Y-11.9224
G01 X15.2514 Y-11.9351
G01 X15.2786 Y-11.9552
G01 X15.2967 Y-11.9714
G01 X15.3070 Y-11.9814
G01 X15.3233 Y-11.9994
G01 X15.3323 Y-12.0106
G01 X15.3466 Y-12.0303
G01 X15.3574 Y-12.0479
G00 Z2.0000
G00 X16.9047 Y-11.2760
G01 F60.00
G01 Z-0.0500
G01 F120.00
G01 X16.9047 Y-10.8600
G01 X16.9031 Y-10.8310
G01 X16.8990 Y-10.8022
G01 X16.8960 Y-10.7882
G01 X16.8912 Y-10.7693
G01 X16.8884 Y-10.7601
G01 X16.8802 Y-10.7372
G01 X16.8746 Y-10.7240
G01 X16.8640 Y-10.7022
G01 X16.8517 Y-10.6812
G01 X16.8439 Y-10.6692
G01 X16.8294 Y-10.6497
G01 X16.8201 Y-10.6387
G01 X16.8037 Y-10.6208
G01 X16.7858 Y-10.6043
G01 X16.7748 Y-10.5951
G01 X16.7553 Y-10.5806
G01 X16.7433 Y-10.5728
G01 X16.7223 Y-10.5605
G01 X16.7005 Y-10.5499
G01 X16.6873 Y-10.5442
G01 X16.6644 Y-10.5361
G01 X16.6552 Y-10.5333
G01 X16.6363 Y-10.5285
G01 X16.6223 Y-10.5255
G01 X16.5935 Y-10.5214
G01 X16.5644 Y-10.5198
G01 X16.5501 Y-10.5200
G01 X16.5306 Y-10.5210
G01 X16.5211 Y-10.5219
G01 X16.4923 Y-10.5264
G01 X16.4641 Y-10.5333
G01 X16.4549 Y-10.5361
G01 X16.4365 Y-10.5426
G01 X16.4232 Y-10.5479
G01 X16.3970 Y-10.5605
G01 X16.3720 Y-10.5753
G01 X16.3640 Y-10.5806
G01 X16.3483 Y-10.5922
G01 X16.3371 Y-10.6012
G01 X16.3156 Y-10.6208
G01 X16.2960 Y-10.6423
G01 X16.2870 Y-10.6535
G01 X16.2727 Y-10.6731
G01 X16.2576 Y-10.6980
G01 X16.2510 Y-10.7107
G01 X16.2408 Y-10.7328
G01 X16.2309 Y-10.7601
G01 X16.2269 Y-10.7739
G01 X16.2212 Y-10.7975
G01 X16.2162 Y-10.8310
G01 X16.2146 Y-10.8600
G01 X16.2146 Y-11.0654
G01 X16.0021 Y-10.6936
G01 X15.9894 Y-10.6731
G01 X15.9811 Y-10.6612
G01 X15.9722 Y-10.6497
G01 X15.9598 Y-10.6349
G01 X15.9499 Y-10.6242
G01 X15.9395 Y-10.6140
G01 X15.9214 Y-10.5981
G01 X15.9100 Y-10.5891
G01 X15.8982 Y-10.5806
G01 X15.8820 Y-10.5701
G01 X15.8694 Y-10.5628
G01 X15.8565 Y-10.5560
G01 X15.8346 Y-10.5460
G01 X15.8210 Y-10.5408
G01 X15.8072 Y-10.5361
G01 X15.7887 Y-10.5307
G01 X15.7698 Y-10.5264
G01 X15.7555 Y-10.5239
G01 X15.7316 Y-10.5210
G01 X15.7073 Y-10.5198
G01 X15.6928 Y-10.5199
G01 X15.6735 Y-10.5210
G01 X15.6543 Y-10.5232
G01 X15.6305 Y-10.5274
G01 X15.6069 Y-10.5333
G01 X15.5930 Y-10.5376
G01 X15.5749 Y-10.5442
G01 X15.5572 Y-10.5519
G01 X15.5398 Y-10.5605
G01 X15.5271 Y-10.5677
G01 X15.5108 Y-10.5779
G01 X15.4989 Y-10.5863
G01 X15.4799 Y-10.6012
G01 X15.4619 Y-10.6175
G01 X15.4517 Y-10.6278
G01 X15.4388 Y-10.6423
G01 X15.4297 Y-10.6535
G01 X15.4183 Y-10.6692
G01 X15.4078 Y-10.6854
G01 X15.3982 Y-10.7022
G01 X15.3916 Y-10.7151
G01 X15.3819 Y-10.7372
G01 X15.3737 Y-10.7601
G01 X15.3684 Y-10.7787
G01 X15.3641 Y-10.7975
G01 X15.3616 Y-10.8118
G01 X15.3587 Y-10.8357
G01 X15.3492 Y-10.8200
G01 X15.3439 Y-10.8120
G01 X15.3294 Y-10.7925
G01 X15.3201 Y-10.7815
G01 X15.3037 Y-10.7637
G01 X15.2322 Y-10.6923
G01 X15.2179 Y-10.6787
G01 X15.2071 Y-10.6695
G01 X15.1915 Y-10.6575
G01 X15.1759 Y-10.6467
G01 X15.1632 Y-10.6389
G01 X15.1509 Y-10.6319
G01 X15.1333 Y-10.6232
G01 X15.1203 Y-10.6174
G01 X15.0973 Y-10.6089
G01 X14.8831 Y-10.5375
G01 X14.8695 Y-10.5333
G01 X14.8551 Y-10.5295
G01 X14.8366 Y-10.5255
G01 X14.8218 Y-10.5231
G01 X14.8078 Y-10.5214
G01 X14.7881 Y-10.5201
G01 X14.7739 Y-10.5198
G01 X14.6217 Y-10.5199
G01 X14.6020 Y-10.5210
G01 X14.5832 Y-10.5231
G01 X14.5685 Y-10.5255
G01 X14.5546 Y-10.5283
G01 X14.5309 Y-10.5346
G01 X14.3032 Y-10.6105
G01 X14.2847 Y-10.6174
G01 X14.2718 Y-10.6232
G01 X14.2501 Y-10.6342
G01 X14.2291 Y-10.6467
G01 X14.2173 Y-10.6547
G01 X14.2016 Y-10.6665
G01 X14.1907 Y-10.6756
G01 X14.1762 Y-10.6889
G01 X14.0299 Y-10.8351
G01 X14.0201 Y-10.8454
G01 X14.0042 Y-10.8639
G01 X13.9897 Y-10.8835
G01 X13.9819 Y-10.8953
G01 X13.9719 Y-10.9123
G01 X13.9653 Y-10.9248
G01 X13.8939 Y-11.0676
G01 X13.8890 Y-11.0779
G01 X13.8816 Y-11.0952
G01 X13.8763 Y-11.1094
G01 X13.8707 Y-11.1273
G01 X13.8677 Y-11.1383
G01 X13.7936 Y-11.4357
G01 X13.7897 Y-11.4572
G01 X13.7877 Y-11.4739
G01 X13.7864 Y-11.4909
G01 X13.7860 Y-11.5077
G01 X13.7861 Y-11.7268
G01 X13.7873 Y-11.7510
G01 X13.7897 Y-11.7724
G01 X13.7926 Y-11.7893
G01 X13.7963 Y-11.8057
G01 X13.8677 Y-12.0914
G01 X13.8707 Y-12.1024
G01 X13.8783 Y-12.1258
G01 X13.8866 Y-12.1463
G01 X13.8929 Y-12.1601
G01 X13.9696 Y-12.3132
G01 X13.9794 Y-12.3303
G01 X13.9870 Y-12.3423
G01 X13.9984 Y-12.3583
G01 X14.0103 Y-12.3731
G01 X14.0201 Y-12.3843
G01 X14.0299 Y-12.3945
G01 X14.1762 Y-12.5407
G01 X14.1942 Y-12.5571
G01 X14.2135 Y-12.5722
G01 X14.2291 Y-12.5829
G01 X14.2459 Y-12.5932
G01 X14.2584 Y-12.5999
G01 X14.2761 Y-12.6085
G01 X14.2892 Y-12.6140
G01 X14.3077 Y-12.6208
G01 X14.5309 Y-12.6950
G01 X14.5546 Y-12.7013
G01 X14.5685 Y-12.7041
G01 X14.5832 Y-12.7065
G01 X14.6020 Y-12.7087
G01 X14.6217 Y-12.7098
G01 X14.7739 Y-12.7099
G01 X14.7881 Y-12.7096
G01 X14.8078 Y-12.7082
G01 X14.8218 Y-12.7065
G01 X14.8366 Y-12.7041
G01 X14.8551 Y-12.7002
G01 X14.8695 Y-12.6964
G01 X14.8831 Y-12.6922
G01 X15.0973 Y-12.6208
G01 X15.1203 Y-12.6122
G01 X15.1333 Y-12.6065
G01 X15.1509 Y-12.5977
G01 X15.1633 Y-12.5907
G01 X15.1759 Y-12.5829
G01 X15.1915 Y-12.5722
G01 X15.2071 Y-12.5601
G01 X15.2179 Y-12.5509
G01 X15.2322 Y-12.5374
G01 X15.3037 Y-12.4660
G01 X15.3201 Y-12.4481
G01 X15.3294 Y-12.4371
G01 X15.3439 Y-12.4176
G01 X15.3492 Y-12.4097
G01 X15.3587 Y-12.3939
G01 X15.3603 Y-12.4082
G01 X15.3641 Y-12.4321
G01 X15.3697 Y-12.4558
G01 X15.3737 Y-12.4696
G01 X15.3819 Y-12.4924
G01 X15.3876 Y-12.5056
G01 X15.3982 Y-12.5275
G01 X15.4105 Y-12.5485
G01 X15.4183 Y-12.5605
G01 X15.4328 Y-12.5800
G01 X15.4420 Y-12.5910
G01 X15.4585 Y-12.6088
G01 X15.4836 Y-12.6316
G01 X15.5030 Y-12.6462
G01 X15.5148 Y-12.6544
G01 X15.5357 Y-12.6668
G01 X15.5484 Y-12.6735
G01 X15.5705 Y-12.6836
G01 X15.5933 Y-12.6920
G01 X15.6069 Y-12.6964
G01 X15.6305 Y-12.7023
G01 X15.6446 Y-12.7049
G01 X15.6687 Y-12.7082
G01 X15.7025 Y-12.7099
G01 X15.7268 Y-12.7089
G01 X15.7411 Y-12.7077
G01 X15.7651 Y-12.7041
G01 X15.7792 Y-12.7012
G01 X15.8027 Y-12.6950
G01 X15.8256 Y-12.6871
G01 X15.8390 Y-12.6818
G01 X15.8609 Y-12.6714
G01 X15.8694 Y-12.6668
G01 X15.8902 Y-12.6544
G01 X15.8982 Y-12.6490
G01 X15.9177 Y-12.6346
G01 X15.9251 Y-12.6285
G01 X15.9431 Y-12.6122
G01 X15.9531 Y-12.6019
G01 X15.9693 Y-12.5837
G01 X15.9894 Y-12.5565
G01 X16.0068 Y-12.5275
G01 X16.0213 Y-12.4969
G01 X16.0327 Y-12.4650
G01 X16.0389 Y-12.4415
G01 X16.0426 Y-12.4227
G01 X16.0454 Y-12.4034
G01 X16.0463 Y-12.3939
G01 X16.0476 Y-12.3648
G01 X16.0476 Y-12.1642
G01 X16.2600 Y-12.5360
G01 X16.2701 Y-12.5525
G01 X16.2811 Y-12.5684
G01 X16.2899 Y-12.5800
G01 X16.2992 Y-12.5912
G01 X16.3156 Y-12.6088
G01 X16.3262 Y-12.6189
G01 X16.3371 Y-12.6285
G01 X16.3522 Y-12.6405
G01 X16.3720 Y-12.6544
G01 X16.3928 Y-12.6668
G01 X16.4100 Y-12.6757
G01 X16.4320 Y-12.6854
G01 X16.4549 Y-12.6936
G01 X16.4735 Y-12.6989
G01 X16.4923 Y-12.7033
G01 X16.5067 Y-12.7058
G01 X16.5211 Y-12.7077
G01 X16.5356 Y-12.7091
G01 X16.5549 Y-12.7098
G01 X16.5742 Y-12.7096
G01 X16.5982 Y-12.7077
G01 X16.6223 Y-12.7041
G01 X16.6412 Y-12.7001
G01 X16.6552 Y-12.6964
G01 X16.6691 Y-12.6921
G01 X16.6873 Y-12.6854
G01 X16.7007 Y-12.6798
G01 X16.7181 Y-12.6714
G01 X16.7350 Y-12.6620
G01 X16.7555 Y-12.6489
G01 X16.7748 Y-12.6346
G01 X16.7896 Y-12.6221
G01 X16.8037 Y-12.6088
G01 X16.8137 Y-12.5983
G01 X16.8233 Y-12.5874
G01 X16.8325 Y-12.5761
G01 X16.8439 Y-12.5605
G01 X16.8544 Y-12.5443
G01 X16.8640 Y-12.5275
G01 X16.8705 Y-12.5145
G01 X16.8802 Y-12.4924
G01 X16.8884 Y-12.4696
G01 X16.8938 Y-12.4510
G01 X16.8971 Y-12.4368
G01 X16.8999 Y-12.4226
G01 X16.9031 Y-12.3987
G01 X16.9042 Y-12.3842
G01 X16.9047 Y-12.3696
G01 X16.9047 Y-11.9536
G01 X16.9421 Y-12.1024
G01 X16.9509 Y-12.1290
G01 X16.9604 Y-12.1517
G01 X17.0367 Y-12.3049
G01 X17.0433 Y-12.3174
G01 X17.0559 Y-12.3384
G01 X17.0699 Y-12.3583
G01 X17.0817 Y-12.3731
G01 X17.0948 Y-12.3878
G01 X17.2442 Y-12.5374
G01 X17.2586 Y-12.5509
G01 X17.2693 Y-12.5601
G01 X17.2849 Y-12.5722
G01 X17.2965 Y-12.5803
G01 X17.3132 Y-12.5908
G01 X17.3256 Y-12.5977
G01 X17.3432 Y-12.6065
G01 X17.3562 Y-12.6122
G01 X17.3747 Y-12.6192
G01 X17.5934 Y-12.6922
G01 X17.6069 Y-12.6964
G01 X17.6260 Y-12.7013
G01 X17.6399 Y-12.7041
G01 X17.6546 Y-12.7065
G01 X17.6735 Y-12.7087
G01 X17.6883 Y-12.7096
G01 X17.7025 Y-12.7099
G01 X17.8454 Y-12.7099
G01 X17.8595 Y-12.7096
G01 X17.8838 Y-12.7077
G01 X17.9080 Y-12.7041
G01 X17.9265 Y-12.7002
G01 X17.9455 Y-12.6950
G01 X18.1733 Y-12.6192
G01 X18.1873 Y-12.6140
G01 X18.2003 Y-12.6085
G01 X18.2181 Y-12.5999
G01 X18.2306 Y-12.5932
G01 X18.2474 Y-12.5829
G01 X18.2591 Y-12.5750
G01 X18.2748 Y-12.5631
G01 X18.2893 Y-12.5509
G01 X18.3037 Y-12.5374
G01 X18.3751 Y-12.4660
G01 X18.3916 Y-12.4481
G01 X18.4008 Y-12.4371
G01 X18.4180 Y-12.4137
G01 X18.4354 Y-12.3846
G01 X18.4499 Y-12.3540
G01 X18.4613 Y-12.3221
G01 X18.4695 Y-12.2893
G01 X18.4745 Y-12.2558
G01 X18.4762 Y-12.2220
G01 X18.4745 Y-12.1881
G01 X18.4695 Y-12.1546
G01 X18.4613 Y-12.1218
G01 X18.4499 Y-12.0899
G01 X18.4376 Y-12.0635
G01 X18.4331 Y-12.0551
G01 X18.4206 Y-12.0343
G01 X18.4153 Y-12.0263
G01 X18.4008 Y-12.0068
G01 X18.3947 Y-11.9994
G01 X18.3784 Y-11.9814
G01 X18.3717 Y-11.9746
G01 X18.3572 Y-11.9615
G01 X18.3463 Y-11.9522
G01 X18.3267 Y-11.9378
G01 X18.3188 Y-11.9324
G01 X18.2979 Y-11.9199
G01 X18.2895 Y-11.9154
G01 X18.2675 Y-11.9050
G01 X18.2587 Y-11.9014
G01 X18.2403 Y-11.8948
G01 X18.2267 Y-11.8904
G01 X18.2077 Y-11.8856
G01 X18.1890 Y-11.8819
G01 X18.1697 Y-11.8791
G01 X18.1601 Y-11.8781
G01 X18.1359 Y-11.8770
G01 X18.1215 Y-11.8771
G01 X18.1020 Y-11.8781
G01 X18.0925 Y-11.8791
G01 X18.0685 Y-11.8827
G01 X18.0591 Y-11.8845
G01 X18.0355 Y-11.8904
G01 X18.0263 Y-11.8932
G01 X18.0035 Y-11.9014
G01 X17.9946 Y-11.9050
G01 X17.9727 Y-11.9154
G01 X17.9642 Y-11.9200
G01 X17.9434 Y-11.9324
G01 X17.9354 Y-11.9378
G01 X17.9159 Y-11.9522
G01 X17.9085 Y-11.9583
G01 X17.8905 Y-11.9746
G01 X17.8733 Y-11.9918
G01 X17.7894 Y-12.0198
G01 X17.7585 Y-12.0198
G01 X17.6746 Y-11.9918
G01 X17.6290 Y-11.9461
G01 X17.5995 Y-11.8872
G01 X17.5476 Y-11.6795
G01 X17.5476 Y-11.5502
G01 X17.5995 Y-11.3424
G01 X17.6290 Y-11.2835
G01 X17.6746 Y-11.2379
G01 X17.7585 Y-11.2099
G01 X17.7894 Y-11.2099
G01 X17.8733 Y-11.2379
G01 X17.8905 Y-11.2550
G01 X17.9085 Y-11.2714
G01 X17.9159 Y-11.2774
G01 X17.9354 Y-11.2919
G01 X17.9475 Y-11.2997
G01 X17.9684 Y-11.3120
G01 X17.9990 Y-11.3265
G01 X18.0309 Y-11.3379
G01 X18.0544 Y-11.3440
G01 X18.0685 Y-11.3470
G01 X18.0925 Y-11.3506
G01 X18.1020 Y-11.3515
G01 X18.1263 Y-11.3527
G01 X18.1407 Y-11.3525
G01 X18.1649 Y-11.3511
G01 X18.1890 Y-11.3478
G01 X18.2031 Y-11.3451
G01 X18.2267 Y-11.3392
G01 X18.2403 Y-11.3349
G01 X18.2631 Y-11.3265
G01 X18.2937 Y-11.3120
G01 X18.3147 Y-11.2997
G01 X18.3267 Y-11.2919
G01 X18.3463 Y-11.2774
G01 X18.3572 Y-11.2682
G01 X18.3751 Y-11.2517
G01 X18.3916 Y-11.2338
G01 X18.4008 Y-11.2229
G01 X18.4153 Y-11.2033
G01 X18.4231 Y-11.1913
G01 X18.4354 Y-11.1704
G01 X18.4499 Y-11.1397
G01 X18.4613 Y-11.1079
G01 X18.4674 Y-11.0843
G01 X18.4704 Y-11.0703
G01 X18.4740 Y-11.0463
G01 X18.4749 Y-11.0367
G01 X18.4761 Y-11.0125
G01 X18.4759 Y-10.9981
G01 X18.4745 Y-10.9739
G01 X18.4712 Y-10.9498
G01 X18.4685 Y-10.9357
G01 X18.4639 Y-10.9167
G01 X18.4599 Y-10.9030
G01 X18.4517 Y-10.8801
G01 X18.4480 Y-10.8712
G01 X18.4376 Y-10.8493
G01 X18.4331 Y-10.8408
G01 X18.4206 Y-10.8200
G01 X18.4153 Y-10.8120
G01 X18.4037 Y-10.7963
G01 X18.3947 Y-10.7851
G01 X18.3751 Y-10.7637
G01 X18.3002 Y-10.6889
G01 X18.2857 Y-10.6756
G01 X18.2748 Y-10.6665
G01 X18.2630 Y-10.6575
G01 X18.2514 Y-10.6493
G01 X18.2347 Y-10.6389
G01 X18.2264 Y-10.6342
G01 X18.2181 Y-10.6297
G01 X18.2003 Y-10.6212
G01 X18.1873 Y-10.6157
G01 X18.1732 Y-10.6104
G01 X17.9545 Y-10.5375
G01 X17.9409 Y-10.5333
G01 X17.9172 Y-10.5273
G01 X17.8933 Y-10.5231
G01 X17.8792 Y-10.5214
G01 X17.8595 Y-10.5201
G01 X17.8454 Y-10.5198
G01 X17.6931 Y-10.5199
G01 X17.6735 Y-10.5210
G01 X17.6641 Y-10.5219
G01 X17.6546 Y-10.5231
G01 X17.6352 Y-10.5264
G01 X17.6213 Y-10.5295
G01 X17.6069 Y-10.5333
G01 X17.5934 Y-10.5375
G01 X17.3791 Y-10.6089
G01 X17.3606 Y-10.6157
G01 X17.3475 Y-10.6212
G01 X17.3256 Y-10.6319
G01 X17.3132 Y-10.6389
G01 X17.3005 Y-10.6467
G01 X17.2849 Y-10.6575
G01 X17.2693 Y-10.6695
G01 X17.2586 Y-10.6787
G01 X17.2442 Y-10.6923
G01 X17.0948 Y-10.8418
G01 X17.0817 Y-10.8565
G01 X17.0756 Y-10.8639
G01 X17.0699 Y-10.8714
G01 X17.0584 Y-10.8874
G01 X17.0508 Y-10.8994
G01 X17.0433 Y-10.9123
G01 X17.0367 Y-10.9248
G01 X16.9643 Y-11.0696
G01 X16.9530 Y-11.0952
G01 X16.9478 Y-11.1094
G01 X16.9406 Y-11.1329
G01 X16.9047 Y-11.2760
G00 Z2.0000
G00 X17.0574 Y-10.4664
G01 F60.00
G01 Z-0.0500
G01 F120.00
G01 X17.0448 Y-10.4512
G01 X17.0369 Y-10.4422
G01 X17.0188 Y-10.4226
G01 X17.0105 Y-10.4140
G01 X16.9932 Y-10.3975
G01 X16.9733 Y-10.3797
G01 X16.9641 Y-10.3720
G01 X16.9453 Y-10.3573
G01 X16.9237 Y-10.3415
G01 X16.9139 Y-10.3347
G01 X16.9038 Y-10.3282
G01 X16.8810 Y-10.3143
G01 X16.8707 Y-10.3083
G01 X16.8496 Y-10.2970
G01 X16.8146 Y-10.2805
G01 X16.7925 Y-10.2713
G01 X16.7561 Y-10.2583
G01 X16.7332 Y-10.2514
G01 X16.7217 Y-10.2483
G01 X16.6957 Y-10.2420
G01 X16.6840 Y-10.2395
G01 X16.6723 Y-10.2373
G01 X16.6459 Y-10.2333
G01 X16.6221 Y-10.2303
G01 X16.6102 Y-10.2293
G01 X16.5716 Y-10.2274
G01 X16.5477 Y-10.2274
G01 X16.5091 Y-10.2293
G01 X16.4853 Y-10.2316
G01 X16.4470 Y-10.2373
G01 X16.4236 Y-10.2420
G01 X16.3861 Y-10.2514
G01 X16.3632 Y-10.2583
G01 X16.3268 Y-10.2713
G01 X16.3047 Y-10.2805
G01 X16.2697 Y-10.2970
G01 X16.2486 Y-10.3083
G01 X16.2155 Y-10.3282
G01 X16.1956 Y-10.3415
G01 X16.1645 Y-10.3645
G01 X16.1460 Y-10.3797
G01 X16.1312 Y-10.3929
G01 X16.1096 Y-10.3741
G01 X16.0902 Y-10.3587
G01 X16.0595 Y-10.3366
G01 X16.0387 Y-10.3231
G01 X16.0060 Y-10.3041
G01 X15.9840 Y-10.2928
G01 X15.9590 Y-10.2812
G01 X15.9362 Y-10.2716
G01 X15.9169 Y-10.2644
G01 X15.9006 Y-10.2589
G01 X15.8769 Y-10.2516
G01 X15.8570 Y-10.2463
G01 X15.8402 Y-10.2424
G01 X15.8201 Y-10.2382
G01 X15.7957 Y-10.2341
G01 X15.7684 Y-10.2307
G01 X15.7437 Y-10.2286
G01 X15.7059 Y-10.2273
G01 X15.6811 Y-10.2276
G01 X15.6434 Y-10.2300
G01 X15.6188 Y-10.2328
G01 X15.5916 Y-10.2370
G01 X15.5714 Y-10.2409
G01 X15.5472 Y-10.2465
G01 X15.5207 Y-10.2537
G01 X15.4874 Y-10.2647
G01 X15.4617 Y-10.2745
G01 X15.4389 Y-10.2843
G01 X15.4049 Y-10.3010
G01 X15.3828 Y-10.3132
G01 X15.3598 Y-10.3273
G01 X15.3391 Y-10.3410
G01 X15.3224 Y-10.3530
G01 X15.3087 Y-10.3635
G01 X15.2929 Y-10.3762
G01 X15.2766 Y-10.3677
G01 X15.2514 Y-10.3555
G01 X15.2289 Y-10.3459
G01 X15.2008 Y-10.3352
G01 X14.9692 Y-10.2579
G01 X14.9556 Y-10.2537
G01 X14.9287 Y-10.2464
G01 X14.9048 Y-10.2408
G01 X14.8848 Y-10.2370
G01 X14.8673 Y-10.2342
G01 X14.8471 Y-10.2315
G01 X14.8227 Y-10.2292
G01 X14.7948 Y-10.2276
G01 X14.7739 Y-10.2273
G01 X14.6244 Y-10.2273
G01 X14.6000 Y-10.2281
G01 X14.5721 Y-10.2300
G01 X14.5377 Y-10.2342
G01 X14.5202 Y-10.2370
G01 X14.5002 Y-10.2408
G01 X14.4863 Y-10.2439
G01 X14.4592 Y-10.2509
G01 X14.4295 Y-10.2600
G01 X14.2152 Y-10.3314
G01 X14.1856 Y-10.3421
G01 X14.1536 Y-10.3555
G01 X14.1285 Y-10.3677
G01 X14.1068 Y-10.3791
G01 X14.0883 Y-10.3899
G01 X14.0655 Y-10.4042
G01 X14.0372 Y-10.4241
G01 X14.0151 Y-10.4412
G01 X13.9888 Y-10.4637
G01 X13.9660 Y-10.4854
G01 X13.8184 Y-10.6330
G01 X13.8086 Y-10.6433
G01 X13.7900 Y-10.6641
G01 X13.7681 Y-10.6910
G01 X13.7516 Y-10.7136
G01 X13.7402 Y-10.7304
G01 X13.7325 Y-10.7425
G01 X13.7183 Y-10.7665
G01 X13.7037 Y-10.7940
G01 X13.6284 Y-10.9447
G01 X13.6222 Y-10.9580
G01 X13.6104 Y-10.9855
G01 X13.5991 Y-11.0162
G01 X13.5901 Y-11.0447
G01 X13.5840 Y-11.0673
G01 X13.5125 Y-11.3531
G01 X13.5057 Y-11.3834
G01 X13.5023 Y-11.4025
G01 X13.4988 Y-11.4262
G01 X13.4966 Y-11.4453
G01 X13.4950 Y-11.4646
G01 X13.4938 Y-11.4886
G01 X13.4935 Y-11.5077
G01 X13.4937 Y-11.7338
G01 X13.4950 Y-11.7650
G01 X13.4979 Y-11.7962
G01 X13.5023 Y-11.8272
G01 X13.5082 Y-11.8580
G01 X13.5125 Y-11.8766
G01 X13.5853 Y-12.1676
G01 X13.5901 Y-12.1850
G01 X13.5945 Y-12.1990
G01 X13.6040 Y-12.2273
G01 X13.6104 Y-12.2442
G01 X13.6222 Y-12.2716
G01 X13.6322 Y-12.2928
G01 X13.7067 Y-12.4416
G01 X13.7183 Y-12.4631
G01 X13.7325 Y-12.4872
G01 X13.7458 Y-12.5077
G01 X13.7681 Y-12.5386
G01 X13.7833 Y-12.5578
G01 X13.8017 Y-12.5788
G01 X13.8231 Y-12.6014
G01 X13.9660 Y-12.7442
G01 X13.9964 Y-12.7727
G01 X14.0231 Y-12.7948
G01 X14.0454 Y-12.8116
G01 X14.0571 Y-12.8198
G01 X14.0741 Y-12.8310
G01 X14.0892 Y-12.8403
G01 X14.1194 Y-12.8574
G01 X14.1444 Y-12.8698
G01 X14.1629 Y-12.8782
G01 X14.1856 Y-12.8875
G01 X14.2152 Y-12.8983
G01 X14.4358 Y-12.9717
G01 X14.4494 Y-12.9760
G01 X14.4764 Y-12.9833
G01 X14.5102 Y-12.9908
G01 X14.5478 Y-12.9969
G01 X14.5823 Y-13.0005
G01 X14.6102 Y-13.0021
G01 X14.6244 Y-13.0024
G01 X14.7739 Y-13.0024
G01 X14.7948 Y-13.0021
G01 X14.8227 Y-13.0005
G01 X14.8471 Y-12.9982
G01 X14.8673 Y-12.9955
G01 X14.8848 Y-12.9926
G01 X14.9048 Y-12.9888
G01 X14.9287 Y-12.9833
G01 X14.9556 Y-12.9760
G01 X14.9692 Y-12.9717
G01 X15.2011 Y-12.8943
G01 X15.2289 Y-12.8838
G01 X15.2514 Y-12.8741
G01 X15.2766 Y-12.8620
G01 X15.2930 Y-12.8534
G01 X15.3169 Y-12.8724
G01 X15.3384 Y-12.8882
G01 X15.3483 Y-12.8950
G01 X15.3583 Y-12.9015
G01 X15.3811 Y-12.9153
G01 X15.4020 Y-12.9271
G01 X15.4233 Y-12.9379
G01 X15.4475 Y-12.9492
G01 X15.4585 Y-12.9539
G01 X15.4696 Y-12.9583
G01 X15.4947 Y-12.9674
G01 X15.5174 Y-12.9749
G01 X15.5289 Y-12.9783
G01 X15.5548 Y-12.9849
G01 X15.5781 Y-12.9902
G01 X15.6017 Y-12.9942
G01 X15.6281 Y-12.9980
G01 X15.6400 Y-12.9993
G01 X15.6519 Y-13.0004
G01 X15.6786 Y-13.0018
G01 X15.7025 Y-13.0024
G01 X15.7264 Y-13.0018
G01 X15.7531 Y-13.0004
G01 X15.7650 Y-12.9993
G01 X15.7888 Y-12.9964
G01 X15.8151 Y-12.9923
G01 X15.8386 Y-12.9877
G01 X15.8645 Y-12.9813
G01 X15.8876 Y-12.9749
G01 X15.9103 Y-12.9674
G01 X15.9354 Y-12.9583
G01 X15.9575 Y-12.9492
G01 X15.9817 Y-12.9379
G01 X16.0031 Y-12.9271
G01 X16.0239 Y-12.9153
G01 X16.0467 Y-12.9015
G01 X16.0666 Y-12.8882
G01 X16.0976 Y-12.8652
G01 X16.1161 Y-12.8500
G01 X16.1310 Y-12.8367
G01 X16.1526 Y-12.8555
G01 X16.1802 Y-12.8771
G01 X16.2026 Y-12.8931
G01 X16.2322 Y-12.9119
G01 X16.2561 Y-12.9255
G01 X16.2874 Y-12.9413
G01 X16.3125 Y-12.9526
G01 X16.3260 Y-12.9580
G01 X16.3452 Y-12.9652
G01 X16.3616 Y-12.9708
G01 X16.3952 Y-12.9808
G01 X16.4320 Y-12.9895
G01 X16.4563 Y-12.9940
G01 X16.4938 Y-12.9990
G01 X16.5185 Y-13.0011
G01 X16.5563 Y-13.0024
G01 X16.5811 Y-13.0020
G01 X16.6188 Y-12.9997
G01 X16.6434 Y-12.9969
G01 X16.6807 Y-12.9908
G01 X16.7050 Y-12.9856
G01 X16.7415 Y-12.9759
G01 X16.7651 Y-12.9684
G01 X16.8005 Y-12.9552
G01 X16.8233 Y-12.9453
G01 X16.8572 Y-12.9287
G01 X16.8793 Y-12.9165
G01 X16.9111 Y-12.8968
G01 X16.9315 Y-12.8828
G01 X16.9615 Y-12.8598
G01 X16.9804 Y-12.8438
G01 X17.0081 Y-12.8180
G01 X17.0323 Y-12.7927
G01 X17.0437 Y-12.7797
G01 X17.0574 Y-12.7632
G01 X17.0755 Y-12.7794
G01 X17.0945 Y-12.7948
G01 X17.1168 Y-12.8116
G01 X17.1370 Y-12.8255
G01 X17.1606 Y-12.8403
G01 X17.1818 Y-12.8525
G01 X17.1999 Y-12.8620
G01 X17.2251 Y-12.8741
G01 X17.2570 Y-12.8875
G01 X17.2866 Y-12.8983
G01 X17.5009 Y-12.9697
G01 X17.5208 Y-12.9760
G01 X17.5577 Y-12.9857
G01 X17.5816 Y-12.9908
G01 X17.6192 Y-12.9969
G01 X17.6537 Y-13.0005
G01 X17.6816 Y-13.0021
G01 X17.6959 Y-13.0024
G01 X17.8454 Y-13.0024
G01 X17.8663 Y-13.0021
G01 X17.8942 Y-13.0005
G01 X17.9145 Y-12.9986
G01 X17.9286 Y-12.9969
G01 X17.9562 Y-12.9926
G01 X17.9902 Y-12.9857
G01 X18.0172 Y-12.9788
G01 X18.0368 Y-12.9730
G01 X18.2613 Y-12.8983
G01 X18.2909 Y-12.8875
G01 X18.3228 Y-12.8741
G01 X18.3480 Y-12.8620
G01 X18.3696 Y-12.8505
G01 X18.3881 Y-12.8398
G01 X18.4109 Y-12.8255
G01 X18.4227 Y-12.8175
G01 X18.4393 Y-12.8056
G01 X18.4534 Y-12.7948
G01 X18.4801 Y-12.7727
G01 X18.5019 Y-12.7526
G01 X18.5819 Y-12.6728
G01 X18.5984 Y-12.6555
G01 X18.6162 Y-12.6356
G01 X18.6239 Y-12.6264
G01 X18.6387 Y-12.6076
G01 X18.6544 Y-12.5861
G01 X18.6612 Y-12.5762
G01 X18.6740 Y-12.5560
G01 X18.6876 Y-12.5330
G01 X18.6934 Y-12.5225
G01 X18.6989 Y-12.5119
G01 X18.7104 Y-12.4878
G01 X18.7154 Y-12.4770
G01 X18.7246 Y-12.4548
G01 X18.7376 Y-12.4185
G01 X18.7412 Y-12.4070
G01 X18.7476 Y-12.3840
G01 X18.7539 Y-12.3581
G01 X18.7564 Y-12.3464
G01 X18.7586 Y-12.3346
G01 X18.7627 Y-12.3082
G01 X18.7656 Y-12.2845
G01 X18.7666 Y-12.2725
G01 X18.7681 Y-12.2459
G01 X18.7687 Y-12.2220
G01 X18.7681 Y-12.1980
G01 X18.7666 Y-12.1714
G01 X18.7643 Y-12.1476
G01 X18.7586 Y-12.1093
G01 X18.7539 Y-12.0859
G01 X18.7476 Y-12.0599
G01 X18.7412 Y-12.0369
G01 X18.7337 Y-12.0142
G01 X18.7246 Y-11.9891
G01 X18.7201 Y-11.9780
G01 X18.7154 Y-11.9670
G01 X18.7041 Y-11.9428
G01 X18.6934 Y-11.9214
G01 X18.6816 Y-11.9006
G01 X18.6677 Y-11.8778
G01 X18.6544 Y-11.8579
G01 X18.6314 Y-11.8268
G01 X18.6162 Y-11.8083
G01 X18.5984 Y-11.7885
G01 X18.5819 Y-11.7711
G01 X18.5646 Y-11.7546
G01 X18.5447 Y-11.7368
G01 X18.5262 Y-11.7216
G01 X18.5049 Y-11.7056
G01 X18.4853 Y-11.6918
G01 X18.4651 Y-11.6790
G01 X18.4421 Y-11.6654
G01 X18.4316 Y-11.6597
G01 X18.4210 Y-11.6542
G01 X18.3969 Y-11.6426
G01 X18.3751 Y-11.6329
G01 X18.3527 Y-11.6243
G01 X18.3256 Y-11.6148
G01 X18.3640 Y-11.6012
G01 X18.3861 Y-11.5920
G01 X18.4210 Y-11.5755
G01 X18.4421 Y-11.5642
G01 X18.4525 Y-11.5582
G01 X18.4753 Y-11.5443
G01 X18.4853 Y-11.5378
G01 X18.4952 Y-11.5310
G01 X18.5167 Y-11.5153
G01 X18.5356 Y-11.5005
G01 X18.5447 Y-11.4928
G01 X18.5734 Y-11.4669
G01 X18.5903 Y-11.4500
G01 X18.5984 Y-11.4412
G01 X18.6162 Y-11.4213
G01 X18.6239 Y-11.4122
G01 X18.6387 Y-11.3933
G01 X18.6544 Y-11.3718
G01 X18.6612 Y-11.3619
G01 X18.6677 Y-11.3519
G01 X18.6816 Y-11.3291
G01 X18.6934 Y-11.3082
G01 X18.6989 Y-11.2976
G01 X18.7104 Y-11.2735
G01 X18.7201 Y-11.2517
G01 X18.7246 Y-11.2406
G01 X18.7376 Y-11.2042
G01 X18.7445 Y-11.1813
G01 X18.7539 Y-11.1438
G01 X18.7586 Y-11.1203
G01 X18.7605 Y-11.1085
G01 X18.7643 Y-11.0821
G01 X18.7656 Y-11.0702
G01 X18.7666 Y-11.0583
G01 X18.7681 Y-11.0316
G01 X18.7685 Y-11.0196
G01 X18.7685 Y-10.9957
G01 X18.7666 Y-10.9571
G01 X18.7656 Y-10.9452
G01 X18.7627 Y-10.9214
G01 X18.7586 Y-10.8951
G01 X18.7564 Y-10.8833
G01 X18.7512 Y-10.8600
G01 X18.7445 Y-10.8341
G01 X18.7412 Y-10.8226
G01 X18.7376 Y-10.8112
G01 X18.7287 Y-10.7860
G01 X18.7201 Y-10.7637
G01 X18.7154 Y-10.7527
G01 X18.7041 Y-10.7285
G01 X18.6934 Y-10.7071
G01 X18.6876 Y-10.6967
G01 X18.6740 Y-10.6737
G01 X18.6612 Y-10.6535
G01 X18.6544 Y-10.6436
G01 X18.6387 Y-10.6221
G01 X18.6314 Y-10.6126
G01 X18.6162 Y-10.5941
G01 X18.5984 Y-10.5742
G01 X18.5819 Y-10.5569
G01 X18.5019 Y-10.4771
G01 X18.4876 Y-10.4637
G01 X18.4724 Y-10.4503
G01 X18.4534 Y-10.4348
G01 X18.4311 Y-10.4180
G01 X18.4109 Y-10.4042
G01 X18.3872 Y-10.3893
G01 X18.3571 Y-10.3723
G01 X18.3228 Y-10.3555
G01 X18.2909 Y-10.3421
G01 X18.2613 Y-10.3314
G01 X18.0470 Y-10.2600
G01 X18.0270 Y-10.2537
G01 X18.0001 Y-10.2464
G01 X17.9763 Y-10.2408
G01 X17.9562 Y-10.2370
G01 X17.9286 Y-10.2327
G01 X17.8942 Y-10.2292
G01 X17.8765 Y-10.2281
G01 X17.8561 Y-10.2274
G01 X17.7025 Y-10.2273
G01 X17.6714 Y-10.2281
G01 X17.6436 Y-10.2300
G01 X17.6294 Y-10.2315
G01 X17.6092 Y-10.2342
G01 X17.5916 Y-10.2370
G01 X17.5577 Y-10.2439
G01 X17.5306 Y-10.2509
G01 X17.5009 Y-10.2600
G01 X17.2866 Y-10.3314
G01 X17.2570 Y-10.3421
G01 X17.2251 Y-10.3555
G01 X17.1999 Y-10.3677
G01 X17.1818 Y-10.3771
G01 X17.1598 Y-10.3899
G01 X17.1370 Y-10.4042
G01 X17.1168 Y-10.4180
G01 X17.0945 Y-10.4348
G01 X17.0755 Y-10.4503
G01 X17.0574 Y-10.4664
G00 Z2.0000
G00 X17.9366 Y-11.6148
G01 F60.00
G01 Z-0.0500
G01 F120.00
G01 X17.9094 Y-11.6053
G01 X17.8871 Y-11.5967
G01 X17.8652 Y-11.5870
G01 X17.8426 Y-11.5762
G01 X17.8401 Y-11.5862
G01 X17.8401 Y-11.6435
G01 X17.8426 Y-11.6535
G01 X17.8652 Y-11.6426
G01 X17.8871 Y-11.6329
G01 X17.9094 Y-11.6243
G01 X17.9366 Y-11.6148
G00 Z2.0000
G00 X22.0003 Y-11.1505
G01 F60.00
G01 Z-0.0500
G01 F120.00
G01 X22.0013 Y-11.1242
G01 X21.9929 Y-11.1316
G01 X21.9853 Y-11.1375
G01 X21.9696 Y-11.1490
G01 X21.9616 Y-11.1544
G01 X21.9366 Y-11.1692
G01 X21.9104 Y-11.1818
G01 X21.9015 Y-11.1854
G01 X21.8832 Y-11.1920
G01 X21.8649 Y-11.1976
G01 X21.8413 Y-11.2033
G01 X21.8078 Y-11.2082
G01 X21.7739 Y-11.2099
G01 X21.4047 Y-11.2099
G01 X21.4047 Y-11.2340
G01 X21.5692 Y-11.2343
G01 X21.5887 Y-11.2353
G01 X21.5982 Y-11.2362
G01 X21.6223 Y-11.2398
G01 X21.6363 Y-11.2428
G01 X21.6552 Y-11.2476
G01 X21.6644 Y-11.2503
G01 X21.6873 Y-11.2585
G01 X21.6961 Y-11.2622
G01 X21.7181 Y-11.2726
G01 X21.7265 Y-11.2771
G01 X21.7474 Y-11.2896
G01 X21.7592 Y-11.2977
G01 X21.7786 Y-11.3124
G01 X21.7967 Y-11.3285
G01 X21.8070 Y-11.3385
G01 X21.8233 Y-11.3565
G01 X21.8323 Y-11.3677
G01 X21.8466 Y-11.3874
G01 X21.8593 Y-11.4081
G01 X21.8662 Y-11.4207
G01 X21.8766 Y-11.4427
G01 X21.8819 Y-11.4560
G01 X21.8899 Y-11.4789
G01 X21.8960 Y-11.5025
G01 X21.8990 Y-11.5165
G01 X21.9025 Y-11.5405
G01 X21.9038 Y-11.5548
G01 X21.9047 Y-11.5791
G01 X21.9031 Y-11.6129
G01 X21.8997 Y-11.6370
G01 X21.8971 Y-11.6511
G01 X21.8912 Y-11.6747
G01 X21.8884 Y-11.6838
G01 X21.8802 Y-11.7067
G01 X21.8746 Y-11.7199
G01 X21.8662 Y-11.7375
G01 X21.8593 Y-11.7501
G01 X21.8466 Y-11.7708
G01 X21.8323 Y-11.7905
G01 X21.8233 Y-11.8017
G01 X21.8070 Y-11.8197
G01 X21.8002 Y-11.8265
G01 X21.7822 Y-11.8428
G01 X21.7710 Y-11.8517
G01 X21.7514 Y-11.8660
G01 X21.7306 Y-11.8787
G01 X21.7181 Y-11.8856
G01 X21.6961 Y-11.8960
G01 X21.6828 Y-11.9014
G01 X21.6598 Y-11.9093
G01 X21.6317 Y-11.9166
G01 X21.6223 Y-11.9184
G01 X21.5982 Y-11.9220
G01 X21.5887 Y-11.9229
G01 X21.5644 Y-11.9241
G01 X21.4047 Y-11.9242
G01 X21.4047 Y-12.0198
G01 X21.7787 Y-12.0198
G01 X21.8078 Y-12.0214
G01 X21.8413 Y-12.0264
G01 X21.8741 Y-12.0346
G01 X21.9015 Y-12.0442
G01 X21.9104 Y-12.0479
G01 X21.9281 Y-12.0562
G01 X21.9449 Y-12.0652
G01 X21.9657 Y-12.0779
G01 X21.9929 Y-12.0981
G01 X22.0179 Y-12.1208
G01 X22.0361 Y-12.1406
G01 X22.0456 Y-12.1225
G01 X22.0584 Y-12.1019
G01 X22.0666 Y-12.0901
G01 X22.0816 Y-12.0710
G01 X22.0911 Y-12.0602
G01 X22.1081 Y-12.0428
G01 X22.1264 Y-12.0268
G01 X22.1376 Y-12.0179
G01 X22.1575 Y-12.0040
G01 X22.1698 Y-11.9965
G01 X22.1910 Y-11.9848
G01 X22.2176 Y-11.9729
G01 X22.2311 Y-11.9679
G01 X22.2542 Y-11.9606
G01 X22.2779 Y-11.9551
G01 X22.2920 Y-11.9525
G01 X22.3209 Y-11.9492
G01 X22.3548 Y-11.9485
G01 X22.3885 Y-11.9510
G01 X22.4172 Y-11.9559
G01 X22.4312 Y-11.9593
G01 X22.4545 Y-11.9660
G01 X22.6157 Y-12.0198
G01 X22.8353 Y-12.0198
G01 X22.8501 Y-12.0124
G01 X22.8524 Y-12.0077
G01 X22.8501 Y-12.0030
G01 X22.7964 Y-11.9761
G01 X22.5420 Y-11.9125
G01 X22.5185 Y-11.9053
G01 X22.5098 Y-11.9022
G01 X22.4870 Y-11.8927
G01 X22.4787 Y-11.8887
G01 X22.3298 Y-11.8142
G01 X22.3085 Y-11.8022
G01 X22.2965 Y-11.7946
G01 X22.2805 Y-11.7832
G01 X22.2731 Y-11.7774
G01 X22.2657 Y-11.7714
G01 X22.2510 Y-11.7582
G01 X22.1728 Y-11.6803
G01 X22.1630 Y-11.6700
G01 X22.1531 Y-11.6588
G01 X22.1413 Y-11.6440
G01 X22.1273 Y-11.6240
G01 X22.1148 Y-11.6031
G01 X22.1082 Y-11.5906
G01 X22.0346 Y-11.4434
G01 X22.0248 Y-11.4210
G01 X22.0166 Y-11.3981
G01 X22.0113 Y-11.3799
G01 X22.0069 Y-11.3607
G01 X22.0045 Y-11.3468
G01 X22.0025 Y-11.3320
G01 X22.0012 Y-11.3179
G01 X22.0003 Y-11.2934
G01 X22.0003 Y-11.1505
G00 Z2.0000
G00 X22.1178 Y-10.8357
G01 F60.00
G01 Z-0.0500
G01 F120.00
G01 X22.1168 Y-10.8262
G01 X22.1133 Y-10.8022
G01 X22.1114 Y-10.7928
G01 X22.1067 Y-10.7739
G01 X22.1027 Y-10.7601
G01 X22.0962 Y-10.7417
G01 X22.0889 Y-10.7240
G01 X22.0805 Y-10.7064
G01 X22.0760 Y-10.6980
G01 X22.0635 Y-10.6771
G01 X22.0582 Y-10.6692
G01 X22.0407 Y-10.6459
G01 X22.0179 Y-10.6208
G01 X21.9929 Y-10.5981
G01 X21.9696 Y-10.5806
G01 X21.9616 Y-10.5753
G01 X21.9449 Y-10.5652
G01 X21.9281 Y-10.5562
G01 X21.9104 Y-10.5479
G01 X21.9015 Y-10.5442
G01 X21.8787 Y-10.5361
G01 X21.8695 Y-10.5333
G01 X21.8413 Y-10.5264
G01 X21.8078 Y-10.5214
G01 X21.7739 Y-10.5198
G01 X21.0597 Y-10.5198
G01 X21.0258 Y-10.5214
G01 X20.9923 Y-10.5264
G01 X20.9595 Y-10.5346
G01 X20.9276 Y-10.5460
G01 X20.9012 Y-10.5583
G01 X20.8928 Y-10.5628
G01 X20.8720 Y-10.5753
G01 X20.8640 Y-10.5806
G01 X20.8483 Y-10.5922
G01 X20.8335 Y-10.6043
G01 X20.8191 Y-10.6175
G01 X20.8097 Y-10.6271
G01 X20.8002 Y-10.6175
G01 X20.7822 Y-10.6012
G01 X20.7748 Y-10.5951
G01 X20.7553 Y-10.5806
G01 X20.7474 Y-10.5753
G01 X20.7265 Y-10.5628
G01 X20.7181 Y-10.5583
G01 X20.6961 Y-10.5479
G01 X20.6873 Y-10.5442
G01 X20.6644 Y-10.5361
G01 X20.6552 Y-10.5333
G01 X20.6317 Y-10.5274
G01 X20.6223 Y-10.5255
G01 X20.5982 Y-10.5219
G01 X20.5887 Y-10.5210
G01 X20.5644 Y-10.5198
G01 X19.7025 Y-10.5198
G01 X19.6735 Y-10.5210
G01 X19.6639 Y-10.5219
G01 X19.6446 Y-10.5247
G01 X19.6305 Y-10.5274
G01 X19.6023 Y-10.5346
G01 X19.5749 Y-10.5442
G01 X19.5661 Y-10.5479
G01 X19.5484 Y-10.5562
G01 X19.5357 Y-10.5628
G01 X19.5108 Y-10.5779
G01 X19.4873 Y-10.5951
G01 X19.4799 Y-10.6012
G01 X19.4654 Y-10.6142
G01 X19.4552 Y-10.6242
G01 X19.4358 Y-10.6459
G01 X19.4211 Y-10.6653
G01 X19.4130 Y-10.6771
G01 X19.3982 Y-10.7022
G01 X19.3856 Y-10.7284
G01 X19.3803 Y-10.7417
G01 X19.3723 Y-10.7647
G01 X19.3651 Y-10.7928
G01 X19.3624 Y-10.8069
G01 X19.3596 Y-10.8262
G01 X19.3587 Y-10.8358
G01 X19.3574 Y-10.8648
G01 X19.3584 Y-10.8891
G01 X19.3596 Y-10.9034
G01 X19.3641 Y-10.9321
G01 X19.3723 Y-10.9650
G01 X19.3837 Y-10.9969
G01 X19.3982 Y-11.0275
G01 X19.4156 Y-11.0565
G01 X19.4358 Y-11.0837
G01 X19.4585 Y-11.1088
G01 X19.4836 Y-11.1316
G01 X19.5108 Y-11.1517
G01 X19.5398 Y-11.1692
G01 X19.5705 Y-11.1836
G01 X19.6023 Y-11.1950
G01 X19.6352 Y-11.2033
G01 X19.6687 Y-11.2082
G01 X19.6929 Y-11.2097
G01 X19.7860 Y-11.2099
G01 X19.7860 Y-12.3648
G01 X19.7870 Y-12.3891
G01 X19.7888 Y-12.4082
G01 X19.7918 Y-12.4274
G01 X19.7936 Y-12.4368
G01 X19.8009 Y-12.4650
G01 X19.8105 Y-12.4924
G01 X19.8162 Y-12.5056
G01 X19.8245 Y-12.5232
G01 X19.8291 Y-12.5317
G01 X19.8442 Y-12.5565
G01 X19.8613 Y-12.5800
G01 X19.8706 Y-12.5910
G01 X19.8871 Y-12.6088
G01 X19.9049 Y-12.6253
G01 X19.9159 Y-12.6346
G01 X19.9394 Y-12.6517
G01 X19.9601 Y-12.6644
G01 X19.9727 Y-12.6714
G01 X19.9946 Y-12.6818
G01 X20.0080 Y-12.6871
G01 X20.0309 Y-12.6950
G01 X20.0544 Y-12.7012
G01 X20.0685 Y-12.7041
G01 X20.0925 Y-12.7077
G01 X20.1068 Y-12.7089
G01 X20.1311 Y-12.7099
G01 X20.1554 Y-12.7089
G01 X20.1697 Y-12.7077
G01 X20.1937 Y-12.7041
G01 X20.2077 Y-12.7012
G01 X20.2313 Y-12.6950
G01 X20.2542 Y-12.6871
G01 X20.2675 Y-12.6818
G01 X20.2895 Y-12.6714
G01 X20.3021 Y-12.6644
G01 X20.3228 Y-12.6517
G01 X20.3424 Y-12.6375
G01 X20.3537 Y-12.6285
G01 X20.3717 Y-12.6122
G01 X20.3817 Y-12.6019
G01 X20.3978 Y-12.5837
G01 X20.4153 Y-12.5605
G01 X20.4231 Y-12.5485
G01 X20.4354 Y-12.5275
G01 X20.4480 Y-12.5013
G01 X20.4533 Y-12.4880
G01 X20.4613 Y-12.4650
G01 X20.4674 Y-12.4415
G01 X20.4704 Y-12.4274
G01 X20.4745 Y-12.3987
G01 X20.4759 Y-12.3744
G01 X20.4762 Y-11.2099
G01 X20.5644 Y-11.2098
G01 X20.5935 Y-11.2082
G01 X20.6175 Y-11.2049
G01 X20.6363 Y-11.2012
G01 X20.6552 Y-11.1964
G01 X20.6644 Y-11.1936
G01 X20.6917 Y-11.1836
G01 X20.7146 Y-11.1731
G01 X20.7146 Y-12.3648
G01 X20.7162 Y-12.3987
G01 X20.7212 Y-12.4321
G01 X20.7269 Y-12.4558
G01 X20.7309 Y-12.4696
G01 X20.7391 Y-12.4924
G01 X20.7427 Y-12.5013
G01 X20.7531 Y-12.5232
G01 X20.7600 Y-12.5358
G01 X20.7727 Y-12.5565
G01 X20.7870 Y-12.5762
G01 X20.7960 Y-12.5874
G01 X20.8123 Y-12.6054
G01 X20.8226 Y-12.6154
G01 X20.8407 Y-12.6316
G01 X20.8679 Y-12.6517
G01 X20.8928 Y-12.6668
G01 X20.9055 Y-12.6735
G01 X20.9276 Y-12.6836
G01 X20.9549 Y-12.6936
G01 X20.9687 Y-12.6976
G01 X20.9923 Y-12.7033
G01 X21.0211 Y-12.7077
G01 X21.0354 Y-12.7089
G01 X21.0597 Y-12.7099
G01 X21.7739 Y-12.7099
G01 X21.8078 Y-12.7082
G01 X21.8318 Y-12.7049
G01 X21.8459 Y-12.7023
G01 X21.8741 Y-12.6950
G01 X21.8971 Y-12.6871
G01 X21.9104 Y-12.6818
G01 X21.9366 Y-12.6692
G01 X21.9576 Y-12.6569
G01 X21.9696 Y-12.6490
G01 X21.9929 Y-12.6316
G01 X22.0110 Y-12.6154
G01 X22.0213 Y-12.6054
G01 X22.0376 Y-12.5874
G01 X22.0466 Y-12.5762
G01 X22.0609 Y-12.5565
G01 X22.0760 Y-12.5317
G01 X22.0832 Y-12.5175
G01 X22.0981 Y-12.5341
G01 X22.1157 Y-12.5509
G01 X22.1229 Y-12.5572
G01 X22.1420 Y-12.5722
G01 X22.1539 Y-12.5803
G01 X22.1745 Y-12.5932
G01 X22.2047 Y-12.6085
G01 X22.2362 Y-12.6208
G01 X22.4505 Y-12.6922
G01 X22.4641 Y-12.6964
G01 X22.4785 Y-12.7002
G01 X22.4970 Y-12.7041
G01 X22.5118 Y-12.7065
G01 X22.5258 Y-12.7082
G01 X22.5455 Y-12.7096
G01 X22.5550 Y-12.7098
G01 X22.9216 Y-12.7098
G01 X22.9365 Y-12.7093
G01 X22.9506 Y-12.7082
G01 X22.9701 Y-12.7057
G01 X22.9841 Y-12.7033
G01 X23.0033 Y-12.6989
G01 X23.0125 Y-12.6963
G01 X23.0215 Y-12.6936
G01 X23.0401 Y-12.6871
G01 X23.0532 Y-12.6818
G01 X23.0711 Y-12.6735
G01 X23.2223 Y-12.5977
G01 X23.2435 Y-12.5854
G01 X23.2553 Y-12.5776
G01 X23.2674 Y-12.5689
G01 X23.2822 Y-12.5571
G01 X23.2969 Y-12.5440
G01 X23.3816 Y-12.4592
G01 X23.3947 Y-12.4445
G01 X23.4037 Y-12.4335
G01 X23.4153 Y-12.4176
G01 X23.4256 Y-12.4017
G01 X23.4331 Y-12.3888
G01 X23.4397 Y-12.3763
G01 X23.5112 Y-12.2334
G01 X23.5194 Y-12.2156
G01 X23.5248 Y-12.2024
G01 X23.5313 Y-12.1838
G01 X23.5353 Y-12.1703
G01 X23.5400 Y-12.1511
G01 X23.5434 Y-12.1325
G01 X23.5459 Y-12.1129
G01 X23.5470 Y-12.0988
G01 X23.5476 Y-12.0791
G01 X23.5475 Y-11.9315
G01 X23.5467 Y-11.9118
G01 X23.5454 Y-11.8977
G01 X23.5427 Y-11.8782
G01 X23.5400 Y-11.8643
G01 X23.5340 Y-11.8405
G01 X23.5265 Y-11.8174
G01 X23.5213 Y-11.8042
G01 X23.5132 Y-11.7862
G01 X23.4397 Y-11.6391
G01 X23.4331 Y-11.6265
G01 X23.4206 Y-11.6057
G01 X23.4153 Y-11.5977
G01 X23.4037 Y-11.5818
G01 X23.3947 Y-11.5708
G01 X23.3816 Y-11.5561
G01 X23.2969 Y-11.4714
G01 X23.2822 Y-11.4583
G01 X23.2712 Y-11.4494
G01 X23.2553 Y-11.4378
G01 X23.2474 Y-11.4324
G01 X23.2394 Y-11.4274
G01 X23.2223 Y-11.4176
G01 X23.0692 Y-11.3409
G01 X23.0436 Y-11.3296
G01 X23.0294 Y-11.3244
G01 X23.0026 Y-11.3163
G01 X22.7515 Y-11.2535
G01 X22.6978 Y-11.2267
G01 X22.6955 Y-11.2220
G01 X22.6978 Y-11.2173
G01 X22.7125 Y-11.2099
G01 X22.9322 Y-11.2099
G01 X23.0934 Y-11.2636
G01 X23.1260 Y-11.2727
G01 X23.1546 Y-11.2780
G01 X23.1689 Y-11.2796
G01 X23.1931 Y-11.2812
G01 X23.2270 Y-11.2805
G01 X23.2606 Y-11.2764
G01 X23.2937 Y-11.2691
G01 X23.3258 Y-11.2585
G01 X23.3568 Y-11.2449
G01 X23.3863 Y-11.2283
G01 X23.4141 Y-11.2089
G01 X23.4398 Y-11.1868
G01 X23.4609 Y-11.1649
G01 X23.4727 Y-11.1714
G01 X23.4903 Y-11.1798
G01 X23.5080 Y-11.1871
G01 X23.5263 Y-11.1936
G01 X23.5355 Y-11.1964
G01 X23.5591 Y-11.2023
G01 X23.5685 Y-11.2041
G01 X23.5973 Y-11.2082
G01 X23.6215 Y-11.2097
G01 X23.7146 Y-11.2099
G01 X23.7148 Y-12.3744
G01 X23.7162 Y-12.3987
G01 X23.7203 Y-12.4274
G01 X23.7233 Y-12.4415
G01 X23.7294 Y-12.4650
G01 X23.7374 Y-12.4880
G01 X23.7427 Y-12.5013
G01 X23.7553 Y-12.5275
G01 X23.7676 Y-12.5485
G01 X23.7754 Y-12.5605
G01 X23.7929 Y-12.5837
G01 X23.8090 Y-12.6019
G01 X23.8191 Y-12.6122
G01 X23.8371 Y-12.6285
G01 X23.8483 Y-12.6375
G01 X23.8679 Y-12.6517
G01 X23.8887 Y-12.6644
G01 X23.9012 Y-12.6714
G01 X23.9232 Y-12.6818
G01 X23.9365 Y-12.6871
G01 X23.9595 Y-12.6950
G01 X23.9830 Y-12.7012
G01 X23.9970 Y-12.7041
G01 X24.0211 Y-12.7077
G01 X24.0354 Y-12.7089
G01 X24.0597 Y-12.7099
G01 X24.0839 Y-12.7089
G01 X24.0982 Y-12.7077
G01 X24.1223 Y-12.7041
G01 X24.1363 Y-12.7012
G01 X24.1598 Y-12.6950
G01 X24.1828 Y-12.6871
G01 X24.1961 Y-12.6818
G01 X24.2181 Y-12.6714
G01 X24.2306 Y-12.6644
G01 X24.2514 Y-12.6517
G01 X24.2748 Y-12.6346
G01 X24.2858 Y-12.6253
G01 X24.3037 Y-12.6088
G01 X24.3201 Y-12.5910
G01 X24.3294 Y-12.5800
G01 X24.3466 Y-12.5565
G01 X24.3617 Y-12.5317
G01 X24.3683 Y-12.5189
G01 X24.3766 Y-12.5013
G01 X24.3802 Y-12.4924
G01 X24.3899 Y-12.4650
G01 X24.3971 Y-12.4368
G01 X24.3990 Y-12.4274
G01 X24.4019 Y-12.4082
G01 X24.4038 Y-12.3891
G01 X24.4047 Y-12.3648
G01 X24.4047 Y-11.2099
G01 X24.4978 Y-11.2097
G01 X24.5220 Y-11.2082
G01 X24.5555 Y-11.2033
G01 X24.5884 Y-11.1950
G01 X24.6203 Y-11.1836
G01 X24.6509 Y-11.1692
G01 X24.6799 Y-11.1517
G01 X24.7071 Y-11.1316
G01 X24.7322 Y-11.1088
G01 X24.7550 Y-11.0837
G01 X24.7751 Y-11.0565
G01 X24.7926 Y-11.0275
G01 X24.8070 Y-10.9969
G01 X24.8184 Y-10.9650
G01 X24.8267 Y-10.9321
G01 X24.8311 Y-10.9034
G01 X24.8323 Y-10.8891
G01 X24.8333 Y-10.8648
G01 X24.8320 Y-10.8358
G01 X24.8311 Y-10.8262
G01 X24.8283 Y-10.8069
G01 X24.8257 Y-10.7928
G01 X24.8184 Y-10.7647
G01 X24.8105 Y-10.7417
G01 X24.8051 Y-10.7284
G01 X24.7926 Y-10.7022
G01 X24.7778 Y-10.6771
G01 X24.7696 Y-10.6653
G01 X24.7550 Y-10.6459
G01 X24.7356 Y-10.6242
G01 X24.7253 Y-10.6142
G01 X24.7108 Y-10.6012
G01 X24.7034 Y-10.5951
G01 X24.6799 Y-10.5779
G01 X24.6551 Y-10.5628
G01 X24.6423 Y-10.5562
G01 X24.6247 Y-10.5479
G01 X24.6158 Y-10.5442
G01 X24.5884 Y-10.5346
G01 X24.5602 Y-10.5274
G01 X24.5461 Y-10.5247
G01 X24.5268 Y-10.5219
G01 X24.5173 Y-10.5210
G01 X24.4882 Y-10.5198
G01 X23.6263 Y-10.5198
G01 X23.6020 Y-10.5210
G01 X23.5925 Y-10.5219
G01 X23.5685 Y-10.5255
G01 X23.5591 Y-10.5274
G01 X23.5355 Y-10.5333
G01 X23.5263 Y-10.5361
G01 X23.5035 Y-10.5442
G01 X23.4903 Y-10.5499
G01 X23.4727 Y-10.5583
G01 X23.4642 Y-10.5628
G01 X23.4434 Y-10.5753
G01 X23.4315 Y-10.5834
G01 X23.4159 Y-10.5951
G01 X23.4049 Y-10.6043
G01 X23.3871 Y-10.6208
G01 X23.3729 Y-10.6362
G01 X23.3432 Y-10.6212
G01 X23.3116 Y-10.6089
G01 X23.0884 Y-10.5346
G01 X23.0647 Y-10.5283
G01 X23.0508 Y-10.5255
G01 X23.0361 Y-10.5231
G01 X23.0173 Y-10.5210
G01 X23.0024 Y-10.5201
G01 X22.9882 Y-10.5198
G01 X22.6311 Y-10.5198
G01 X22.6114 Y-10.5203
G01 X22.5973 Y-10.5214
G01 X22.5730 Y-10.5247
G01 X22.5591 Y-10.5274
G01 X22.5446 Y-10.5308
G01 X22.5263 Y-10.5361
G01 X22.5122 Y-10.5409
G01 X22.4990 Y-10.5460
G01 X22.4768 Y-10.5562
G01 X22.3339 Y-10.6276
G01 X22.3214 Y-10.6342
G01 X22.3085 Y-10.6417
G01 X22.2965 Y-10.6493
G01 X22.2805 Y-10.6608
G01 X22.2729 Y-10.6666
G01 X22.2657 Y-10.6726
G01 X22.2510 Y-10.6857
G01 X22.1662 Y-10.7704
G01 X22.1531 Y-10.7851
G01 X22.1413 Y-10.7999
G01 X22.1299 Y-10.8160
G01 X22.1178 Y-10.8357
G00 Z2.0000
G00 X22.1835 Y-10.3762
G01 F60.00
G01 Z-0.0500
G01 F120.00
G01 X22.1691 Y-10.3645
G01 X22.1380 Y-10.3415
G01 X22.1181 Y-10.3282
G01 X22.0953 Y-10.3143
G01 X22.0745 Y-10.3025
G01 X22.0531 Y-10.2918
G01 X22.0289 Y-10.2805
G01 X22.0068 Y-10.2713
G01 X21.9817 Y-10.2622
G01 X21.9590 Y-10.2547
G01 X21.9360 Y-10.2483
G01 X21.9100 Y-10.2420
G01 X21.8866 Y-10.2373
G01 X21.8602 Y-10.2333
G01 X21.8364 Y-10.2303
G01 X21.8126 Y-10.2286
G01 X21.7859 Y-10.2274
G01 X21.7739 Y-10.2273
G01 X21.0597 Y-10.2273
G01 X21.0477 Y-10.2274
G01 X21.0210 Y-10.2286
G01 X20.9972 Y-10.2303
G01 X20.9734 Y-10.2333
G01 X20.9470 Y-10.2373
G01 X20.9236 Y-10.2420
G01 X20.8861 Y-10.2514
G01 X20.8632 Y-10.2583
G01 X20.8268 Y-10.2713
G01 X20.8097 Y-10.2784
G01 X20.7925 Y-10.2713
G01 X20.7561 Y-10.2583
G01 X20.7332 Y-10.2514
G01 X20.6957 Y-10.2420
G01 X20.6723 Y-10.2373
G01 X20.6340 Y-10.2316
G01 X20.6102 Y-10.2293
G01 X20.5836 Y-10.2278
G01 X20.5597 Y-10.2273
G01 X19.7025 Y-10.2273
G01 X19.6786 Y-10.2278
G01 X19.6519 Y-10.2293
G01 X19.6400 Y-10.2303
G01 X19.6281 Y-10.2316
G01 X19.6017 Y-10.2354
G01 X19.5781 Y-10.2395
G01 X19.5548 Y-10.2447
G01 X19.5289 Y-10.2514
G01 X19.5174 Y-10.2547
G01 X19.5060 Y-10.2583
G01 X19.4808 Y-10.2672
G01 X19.4585 Y-10.2758
G01 X19.4475 Y-10.2805
G01 X19.4233 Y-10.2918
G01 X19.4020 Y-10.3025
G01 X19.3811 Y-10.3143
G01 X19.3583 Y-10.3282
G01 X19.3483 Y-10.3347
G01 X19.3384 Y-10.3415
G01 X19.3169 Y-10.3573
G01 X19.2980 Y-10.3720
G01 X19.2799 Y-10.3876
G01 X19.2602 Y-10.4056
G01 X19.2517 Y-10.4140
G01 X19.2352 Y-10.4313
G01 X19.2174 Y-10.4512
G01 X19.2097 Y-10.4604
G01 X19.2022 Y-10.4697
G01 X19.1862 Y-10.4910
G01 X19.1724 Y-10.5106
G01 X19.1659 Y-10.5206
G01 X19.1460 Y-10.5538
G01 X19.1347 Y-10.5749
G01 X19.1295 Y-10.5857
G01 X19.1182 Y-10.6098
G01 X19.1135 Y-10.6208
G01 X19.1049 Y-10.6432
G01 X19.0960 Y-10.6683
G01 X19.0891 Y-10.6912
G01 X19.0860 Y-10.7028
G01 X19.0797 Y-10.7287
G01 X19.0772 Y-10.7404
G01 X19.0750 Y-10.7522
G01 X19.0709 Y-10.7786
G01 X19.0680 Y-10.8023
G01 X19.0670 Y-10.8143
G01 X19.0651 Y-10.8529
G01 X19.0651 Y-10.8768
G01 X19.0655 Y-10.8887
G01 X19.0670 Y-10.9154
G01 X19.0680 Y-10.9273
G01 X19.0709 Y-10.9511
G01 X19.0750 Y-10.9775
G01 X19.0772 Y-10.9892
G01 X19.0824 Y-11.0126
G01 X19.0891 Y-11.0384
G01 X19.0924 Y-11.0499
G01 X19.0999 Y-11.0726
G01 X19.1090 Y-11.0977
G01 X19.1182 Y-11.1198
G01 X19.1232 Y-11.1307
G01 X19.1347 Y-11.1548
G01 X19.1402 Y-11.1654
G01 X19.1520 Y-11.1862
G01 X19.1659 Y-11.2090
G01 X19.1792 Y-11.2289
G01 X19.1949 Y-11.2504
G01 X19.2097 Y-11.2693
G01 X19.2174 Y-11.2785
G01 X19.2352 Y-11.2983
G01 X19.2517 Y-11.3157
G01 X19.2602 Y-11.3240
G01 X19.2799 Y-11.3421
G01 X19.2980 Y-11.3577
G01 X19.3074 Y-11.3652
G01 X19.3287 Y-11.3812
G01 X19.3483 Y-11.3950
G01 X19.3583 Y-11.4015
G01 X19.3811 Y-11.4153
G01 X19.4020 Y-11.4271
G01 X19.4126 Y-11.4326
G01 X19.4366 Y-11.4442
G01 X19.4585 Y-11.4539
G01 X19.4696 Y-11.4583
G01 X19.4935 Y-11.4670
G01 X19.4935 Y-12.3648
G01 X19.4937 Y-12.3768
G01 X19.4948 Y-12.4035
G01 X19.4966 Y-12.4273
G01 X19.4979 Y-12.4392
G01 X19.5017 Y-12.4656
G01 X19.5058 Y-12.4892
G01 X19.5110 Y-12.5126
G01 X19.5176 Y-12.5384
G01 X19.5246 Y-12.5613
G01 X19.5334 Y-12.5865
G01 X19.5420 Y-12.6088
G01 X19.5517 Y-12.6307
G01 X19.5633 Y-12.6548
G01 X19.5746 Y-12.6759
G01 X19.5882 Y-12.6988
G01 X19.6010 Y-12.7190
G01 X19.6077 Y-12.7289
G01 X19.6235 Y-12.7504
G01 X19.6382 Y-12.7693
G01 X19.6539 Y-12.7874
G01 X19.6719 Y-12.8071
G01 X19.6888 Y-12.8240
G01 X19.6976 Y-12.8322
G01 X19.7175 Y-12.8500
G01 X19.7266 Y-12.8577
G01 X19.7455 Y-12.8724
G01 X19.7670 Y-12.8882
G01 X19.7769 Y-12.8950
G01 X19.7869 Y-12.9015
G01 X19.8097 Y-12.9153
G01 X19.8305 Y-12.9271
G01 X19.8519 Y-12.9379
G01 X19.8761 Y-12.9492
G01 X19.8871 Y-12.9539
G01 X19.8982 Y-12.9583
G01 X19.9233 Y-12.9674
G01 X19.9460 Y-12.9749
G01 X19.9575 Y-12.9783
G01 X19.9834 Y-12.9849
G01 X20.0067 Y-12.9902
G01 X20.0303 Y-12.9942
G01 X20.0567 Y-12.9980
G01 X20.0686 Y-12.9993
G01 X20.0805 Y-13.0004
G01 X20.1072 Y-13.0018
G01 X20.1311 Y-13.0024
G01 X20.1550 Y-13.0018
G01 X20.1817 Y-13.0004
G01 X20.1936 Y-12.9993
G01 X20.2055 Y-12.9980
G01 X20.2319 Y-12.9942
G01 X20.2555 Y-12.9902
G01 X20.2788 Y-12.9849
G01 X20.3047 Y-12.9783
G01 X20.3162 Y-12.9749
G01 X20.3276 Y-12.9713
G01 X20.3527 Y-12.9625
G01 X20.3751 Y-12.9539
G01 X20.3861 Y-12.9492
G01 X20.4210 Y-12.9326
G01 X20.4421 Y-12.9213
G01 X20.4753 Y-12.9015
G01 X20.4952 Y-12.8882
G01 X20.5262 Y-12.8652
G01 X20.5447 Y-12.8500
G01 X20.5734 Y-12.8240
G01 X20.5819 Y-12.8157
G01 X20.5954 Y-12.8016
G01 X20.6088 Y-12.8157
G01 X20.6174 Y-12.8240
G01 X20.6460 Y-12.8500
G01 X20.6645 Y-12.8652
G01 X20.6956 Y-12.8882
G01 X20.7155 Y-12.9015
G01 X20.7486 Y-12.9213
G01 X20.7697 Y-12.9326
G01 X20.8047 Y-12.9492
G01 X20.8157 Y-12.9539
G01 X20.8380 Y-12.9625
G01 X20.8632 Y-12.9713
G01 X20.8746 Y-12.9749
G01 X20.8861 Y-12.9783
G01 X20.9119 Y-12.9849
G01 X20.9353 Y-12.9902
G01 X20.9588 Y-12.9942
G01 X20.9853 Y-12.9980
G01 X20.9972 Y-12.9993
G01 X21.0091 Y-13.0004
G01 X21.0357 Y-13.0018
G01 X21.0597 Y-13.0024
G01 X21.7739 Y-13.0024
G01 X21.7979 Y-13.0018
G01 X21.8245 Y-13.0004
G01 X21.8364 Y-12.9993
G01 X21.8483 Y-12.9980
G01 X21.8747 Y-12.9942
G01 X21.8983 Y-12.9902
G01 X21.9100 Y-12.9877
G01 X21.9360 Y-12.9813
G01 X21.9590 Y-12.9749
G01 X21.9704 Y-12.9713
G01 X21.9956 Y-12.9625
G01 X22.0179 Y-12.9539
G01 X22.0289 Y-12.9492
G01 X22.0639 Y-12.9326
G01 X22.0850 Y-12.9213
G01 X22.0953 Y-12.9153
G01 X22.1181 Y-12.9015
G01 X22.1303 Y-12.8935
G01 X22.3580 Y-12.9697
G01 X22.3780 Y-12.9760
G01 X22.4049 Y-12.9833
G01 X22.4248 Y-12.9880
G01 X22.4488 Y-12.9926
G01 X22.4764 Y-12.9969
G01 X22.5109 Y-13.0005
G01 X22.5387 Y-13.0021
G01 X22.5597 Y-13.0024
G01 X22.9168 Y-13.0024
G01 X22.9483 Y-13.0016
G01 X22.9828 Y-12.9990
G01 X23.0105 Y-12.9954
G01 X23.0306 Y-12.9921
G01 X23.0447 Y-12.9894
G01 X23.0719 Y-12.9832
G01 X23.1053 Y-12.9739
G01 X23.1413 Y-12.9616
G01 X23.1641 Y-12.9525
G01 X23.1912 Y-12.9403
G01 X23.3448 Y-12.8637
G01 X23.3722 Y-12.8490
G01 X23.3963 Y-12.8349
G01 X23.4168 Y-12.8215
G01 X23.4477 Y-12.7992
G01 X23.4669 Y-12.7840
G01 X23.4879 Y-12.7656
G01 X23.5058 Y-12.7489
G01 X23.5320 Y-12.7227
G01 X23.5433 Y-12.7386
G01 X23.5593 Y-12.7600
G01 X23.5668 Y-12.7693
G01 X23.5824 Y-12.7874
G01 X23.6005 Y-12.8071
G01 X23.6088 Y-12.8157
G01 X23.6261 Y-12.8322
G01 X23.6460 Y-12.8500
G01 X23.6645 Y-12.8652
G01 X23.6740 Y-12.8724
G01 X23.6956 Y-12.8882
G01 X23.7054 Y-12.8950
G01 X23.7155 Y-12.9015
G01 X23.7383 Y-12.9153
G01 X23.7486 Y-12.9213
G01 X23.7697 Y-12.9326
G01 X23.7938 Y-12.9442
G01 X23.8157 Y-12.9539
G01 X23.8268 Y-12.9583
G01 X23.8519 Y-12.9674
G01 X23.8746 Y-12.9749
G01 X23.8861 Y-12.9783
G01 X23.9119 Y-12.9849
G01 X23.9353 Y-12.9902
G01 X23.9470 Y-12.9923
G01 X23.9734 Y-12.9964
G01 X23.9972 Y-12.9993
G01 X24.0091 Y-13.0004
G01 X24.0357 Y-13.0018
G01 X24.0597 Y-13.0024
G01 X24.0716 Y-13.0023
G01 X24.0983 Y-13.0011
G01 X24.1221 Y-12.9993
G01 X24.1340 Y-12.9980
G01 X24.1605 Y-12.9942
G01 X24.1840 Y-12.9902
G01 X24.2074 Y-12.9849
G01 X24.2332 Y-12.9783
G01 X24.2561 Y-12.9713
G01 X24.2925 Y-12.9583
G01 X24.3146 Y-12.9492
G01 X24.3388 Y-12.9379
G01 X24.3602 Y-12.9271
G01 X24.3810 Y-12.9153
G01 X24.4038 Y-12.9015
G01 X24.4139 Y-12.8950
G01 X24.4237 Y-12.8882
G01 X24.4453 Y-12.8724
G01 X24.4641 Y-12.8577
G01 X24.4822 Y-12.8421
G01 X24.5019 Y-12.8240
G01 X24.5188 Y-12.8071
G01 X24.5369 Y-12.7874
G01 X24.5525 Y-12.7693
G01 X24.5672 Y-12.7504
G01 X24.5830 Y-12.7289
G01 X24.5963 Y-12.7090
G01 X24.6162 Y-12.6759
G01 X24.6275 Y-12.6548
G01 X24.6390 Y-12.6307
G01 X24.6487 Y-12.6088
G01 X24.6531 Y-12.5977
G01 X24.6623 Y-12.5726
G01 X24.6698 Y-12.5499
G01 X24.6762 Y-12.5268
G01 X24.6825 Y-12.5009
G01 X24.6872 Y-12.4775
G01 X24.6912 Y-12.4511
G01 X24.6942 Y-12.4273
G01 X24.6952 Y-12.4154
G01 X24.6966 Y-12.3887
G01 X24.6972 Y-12.3648
G01 X24.6972 Y-11.4670
G01 X24.7211 Y-11.4583
G01 X24.7322 Y-11.4539
G01 X24.7541 Y-11.4442
G01 X24.7782 Y-11.4326
G01 X24.7888 Y-11.4271
G01 X24.8096 Y-11.4153
G01 X24.8324 Y-11.4015
G01 X24.8424 Y-11.3950
G01 X24.8620 Y-11.3812
G01 X24.8834 Y-11.3652
G01 X24.9019 Y-11.3500
G01 X24.9108 Y-11.3421
G01 X24.9305 Y-11.3240
G01 X24.9391 Y-11.3157
G01 X24.9556 Y-11.2983
G01 X24.9734 Y-11.2785
G01 X24.9811 Y-11.2693
G01 X24.9958 Y-11.2504
G01 X25.0116 Y-11.2289
G01 X25.0249 Y-11.2090
G01 X25.0387 Y-11.1862
G01 X25.0505 Y-11.1654
G01 X25.0560 Y-11.1548
G01 X25.0676 Y-11.1307
G01 X25.0773 Y-11.1088
G01 X25.0817 Y-11.0977
G01 X25.0908 Y-11.0726
G01 X25.0983 Y-11.0499
G01 X25.1017 Y-11.0384
G01 X25.1083 Y-11.0126
G01 X25.1135 Y-10.9892
G01 X25.1157 Y-10.9775
G01 X25.1214 Y-10.9392
G01 X25.1238 Y-10.9154
G01 X25.1245 Y-10.9035
G01 X25.1257 Y-10.8768
G01 X25.1258 Y-10.8648
G01 X25.1257 Y-10.8529
G01 X25.1245 Y-10.8262
G01 X25.1227 Y-10.8023
G01 X25.1214 Y-10.7904
G01 X25.1157 Y-10.7522
G01 X25.1111 Y-10.7287
G01 X25.1083 Y-10.7171
G01 X25.1017 Y-10.6912
G01 X25.0983 Y-10.6797
G01 X25.0947 Y-10.6683
G01 X25.0859 Y-10.6432
G01 X25.0773 Y-10.6208
G01 X25.0726 Y-10.6098
G01 X25.0560 Y-10.5749
G01 X25.0505 Y-10.5643
G01 X25.0387 Y-10.5435
G01 X25.0249 Y-10.5206
G01 X25.0183 Y-10.5106
G01 X25.0116 Y-10.5007
G01 X24.9958 Y-10.4792
G01 X24.9886 Y-10.4697
G01 X24.9734 Y-10.4512
G01 X24.9474 Y-10.4226
G01 X24.9305 Y-10.4056
G01 X24.9019 Y-10.3797
G01 X24.8834 Y-10.3645
G01 X24.8523 Y-10.3415
G01 X24.8324 Y-10.3282
G01 X24.7993 Y-10.3083
G01 X24.7782 Y-10.2970
G01 X24.7432 Y-10.2805
G01 X24.7211 Y-10.2713
G01 X24.6847 Y-10.2583
G01 X24.6618 Y-10.2514
G01 X24.6243 Y-10.2420
G01 X24.6008 Y-10.2373
G01 X24.5626 Y-10.2316
G01 X24.5388 Y-10.2293
G01 X24.5002 Y-10.2274
G01 X23.6311 Y-10.2273
G01 X23.6072 Y-10.2278
G01 X23.5805 Y-10.2293
G01 X23.5686 Y-10.2303
G01 X23.5448 Y-10.2333
G01 X23.5185 Y-10.2373
G01 X23.5067 Y-10.2395
G01 X23.4834 Y-10.2447
G01 X23.4575 Y-10.2514
G01 X23.4460 Y-10.2547
G01 X23.4346 Y-10.2583
G01 X23.4094 Y-10.2672
G01 X23.3871 Y-10.2758
G01 X23.3761 Y-10.2805
G01 X23.3519 Y-10.2918
G01 X23.3256 Y-10.3052
G01 X23.1898 Y-10.2600
G01 X23.1601 Y-10.2509
G01 X23.1330 Y-10.2439
G01 X23.1091 Y-10.2388
G01 X23.0816 Y-10.2342
G01 X23.0573 Y-10.2310
G01 X23.0370 Y-10.2292
G01 X23.0193 Y-10.2281
G01 X22.9882 Y-10.2273
G01 X22.6311 Y-10.2273
G01 X22.5894 Y-10.2286
G01 X22.5651 Y-10.2307
G01 X22.5373 Y-10.2342
G01 X22.5032 Y-10.2402
G01 X22.4760 Y-10.2465
G01 X22.4563 Y-10.2517
G01 X22.4329 Y-10.2589
G01 X22.4065 Y-10.2681
G01 X22.3745 Y-10.2812
G01 X22.3459 Y-10.2946
G01 X22.2031 Y-10.3660
G01 X22.1835 Y-10.3762
G00 Z2.0000
G00 X22.2023 Y-10.0394
G01 F60.00
G01 Z-0.0500
G01 F120.00
G01 X22.1782 Y-10.0274
G01 X22.1475 Y-10.0131
G01 X22.1121 Y-9.9984
G01 X22.0622 Y-9.9806
G01 X22.0255 Y-9.9695
G01 X21.9741 Y-9.9566
G01 X21.9554 Y-9.9526
G01 X21.9177 Y-9.9461
G01 X21.8841 Y-9.9413
G01 X21.8651 Y-9.9392
G01 X21.8460 Y-9.9376
G01 X21.8122 Y-9.9357
G01 X21.7739 Y-9.9348
G01 X21.0405 Y-9.9350
G01 X20.9876 Y-9.9376
G01 X20.9685 Y-9.9392
G01 X20.9305 Y-9.9439
G01 X20.8970 Y-9.9491
G01 X20.8782 Y-9.9526
G01 X20.8409 Y-9.9610
G01 X20.8097 Y-9.9690
G01 X20.7785 Y-9.9610
G01 X20.7411 Y-9.9526
G01 X20.7223 Y-9.9491
G01 X20.6888 Y-9.9439
G01 X20.6508 Y-9.9392
G01 X20.6317 Y-9.9376
G01 X20.5788 Y-9.9350
G01 X19.7025 Y-9.9348
G01 X19.6834 Y-9.9350
G01 X19.6495 Y-9.9364
G01 X19.6113 Y-9.9392
G01 X19.5923 Y-9.9413
G01 X19.5399 Y-9.9491
G01 X19.5023 Y-9.9566
G01 X19.4837 Y-9.9610
G01 X19.4509 Y-9.9695
G01 X19.4325 Y-9.9748
G01 X19.3962 Y-9.9868
G01 X19.3644 Y-9.9984
G01 X19.3466 Y-10.0056
G01 X19.3116 Y-10.0211
G01 X19.2811 Y-10.0358
G01 X19.2641 Y-10.0446
G01 X19.2473 Y-10.0538
G01 X19.2181 Y-10.0710
G01 X19.2018 Y-10.0811
G01 X19.1700 Y-10.1023
G01 X19.1427 Y-10.1223
G01 X19.1125 Y-10.1459
G01 X19.0978 Y-10.1582
G01 X19.0726 Y-10.1808
G01 X19.0586 Y-10.1938
G01 X19.0315 Y-10.2209
G01 X18.9959 Y-10.2601
G01 X18.9716 Y-10.2897
G01 X18.9600 Y-10.3050
G01 X18.9400 Y-10.3323
G01 X18.9292 Y-10.3481
G01 X18.9087 Y-10.3805
G01 X18.8915 Y-10.4096
G01 X18.8823 Y-10.4264
G01 X18.8722 Y-10.4460
G01 X18.8500 Y-10.4177
G01 X18.8377 Y-10.4030
G01 X18.8021 Y-10.3637
G01 X18.7173 Y-10.2786
G01 X18.6974 Y-10.2594
G01 X18.6755 Y-10.2392
G01 X18.6431 Y-10.2119
G01 X18.6195 Y-10.1937
G01 X18.5885 Y-10.1712
G01 X18.5693 Y-10.1582
G01 X18.5531 Y-10.1480
G01 X18.5276 Y-10.1325
G01 X18.5074 Y-10.1211
G01 X18.4735 Y-10.1034
G01 X18.4466 Y-10.0905
G01 X18.4254 Y-10.0811
G01 X18.3898 Y-10.0668
G01 X18.3538 Y-10.0539
G01 X18.1294 Y-9.9792
G01 X18.1072 Y-9.9724
G01 X18.0784 Y-9.9645
G01 X18.0599 Y-9.9598
G01 X18.0372 Y-9.9548
G01 X18.0184 Y-9.9510
G01 X17.9891 Y-9.9460
G01 X17.9701 Y-9.9432
G01 X17.9471 Y-9.9403
G01 X17.9090 Y-9.9370
G01 X17.8792 Y-9.9354
G01 X17.8601 Y-9.9349
G01 X17.6878 Y-9.9349
G01 X17.6687 Y-9.9354
G01 X17.6389 Y-9.9370
G01 X17.6008 Y-9.9403
G01 X17.5777 Y-9.9432
G01 X17.5294 Y-9.9510
G01 X17.5067 Y-9.9556
G01 X17.4694 Y-9.9645
G01 X17.4407 Y-9.9724
G01 X17.4084 Y-9.9825
G01 X17.1941 Y-10.0539
G01 X17.1680 Y-10.0631
G01 X17.1402 Y-10.0738
G01 X17.1225 Y-10.0811
G01 X17.1013 Y-10.0905
G01 X17.0857 Y-10.0979
G01 X17.0603 Y-10.0811
G01 X17.0314 Y-10.0634
G01 X16.9981 Y-10.0446
G01 X16.9811 Y-10.0358
G01 X16.9506 Y-10.0211
G01 X16.9156 Y-10.0056
G01 X16.8799 Y-9.9918
G01 X16.8479 Y-9.9806
G01 X16.8296 Y-9.9748
G01 X16.7927 Y-9.9646
G01 X16.7598 Y-9.9566
G01 X16.7411 Y-9.9526
G01 X16.7034 Y-9.9461
G01 X16.6698 Y-9.9413
G01 X16.6508 Y-9.9392
G01 X16.6126 Y-9.9364
G01 X16.5788 Y-9.9350
G01 X16.5597 Y-9.9348
G01 X16.5214 Y-9.9357
G01 X16.4876 Y-9.9376
G01 X16.4495 Y-9.9413
G01 X16.4159 Y-9.9461
G01 X16.3782 Y-9.9526
G01 X16.3595 Y-9.9566
G01 X16.3266 Y-9.9646
G01 X16.2897 Y-9.9748
G01 X16.2714 Y-9.9806
G01 X16.2394 Y-9.9918
G01 X16.2215 Y-9.9984
G01 X16.1861 Y-10.0131
G01 X16.1554 Y-10.0274
G01 X16.1311 Y-10.0394
G01 X16.1103 Y-10.0289
G01 X16.0834 Y-10.0164
G01 X16.0659 Y-10.0087
G01 X16.0443 Y-9.9998
G01 X16.0264 Y-9.9930
G01 X15.9984 Y-9.9832
G01 X15.9803 Y-9.9772
G01 X15.9578 Y-9.9705
G01 X15.9208 Y-9.9608
G01 X15.8919 Y-9.9542
G01 X15.8501 Y-9.9465
G01 X15.8017 Y-9.9401
G01 X15.7594 Y-9.9365
G01 X15.7298 Y-9.9352
G01 X15.6915 Y-9.9348
G01 X15.6681 Y-9.9354
G01 X15.6194 Y-9.9385
G01 X15.5962 Y-9.9409
G01 X15.5582 Y-9.9461
G01 X15.5290 Y-9.9511
G01 X15.5061 Y-9.9557
G01 X15.4689 Y-9.9647
G01 X15.4403 Y-9.9725
G01 X15.4180 Y-9.9794
G01 X15.3818 Y-9.9919
G01 X15.3541 Y-10.0025
G01 X15.3150 Y-10.0193
G01 X15.2883 Y-10.0321
G01 X15.2604 Y-10.0466
G01 X15.0681 Y-9.9825
G01 X15.0358 Y-9.9724
G01 X15.0173 Y-9.9672
G01 X14.9885 Y-9.9598
G01 X14.9470 Y-9.9510
G01 X14.8987 Y-9.9432
G01 X14.8757 Y-9.9403
G01 X14.8375 Y-9.9370
G01 X14.8078 Y-9.9354
G01 X14.7886 Y-9.9349
G01 X14.6311 Y-9.9348
G01 X14.5972 Y-9.9354
G01 X14.5484 Y-9.9384
G01 X14.5253 Y-9.9408
G01 X14.4874 Y-9.9460
G01 X14.4580 Y-9.9510
G01 X14.4392 Y-9.9548
G01 X14.4166 Y-9.9598
G01 X14.3980 Y-9.9645
G01 X14.3693 Y-9.9724
G01 X14.3510 Y-9.9780
G01 X14.1227 Y-10.0539
G01 X14.0866 Y-10.0668
G01 X14.0511 Y-10.0811
G01 X14.0298 Y-10.0905
G01 X13.9859 Y-10.1120
G01 X13.9488 Y-10.1325
G01 X13.9072 Y-10.1582
G01 X13.8879 Y-10.1712
G01 X13.8569 Y-10.1937
G01 X13.8334 Y-10.2119
G01 X13.8010 Y-10.2392
G01 X13.7790 Y-10.2594
G01 X13.7591 Y-10.2786
G01 X13.6088 Y-10.4290
G01 X13.5928 Y-10.4458
G01 X13.5800 Y-10.4600
G01 X13.5604 Y-10.4825
G01 X13.5458 Y-10.5005
G01 X13.5226 Y-10.5310
G01 X13.5054 Y-10.5553
G01 X13.4823 Y-10.5909
G01 X13.4672 Y-10.6165
G01 X13.4487 Y-10.6501
G01 X13.3668 Y-10.8138
G01 X13.3572 Y-10.8342
G01 X13.3450 Y-10.8621
G01 X13.3377 Y-10.8798
G01 X13.3296 Y-10.9009
G01 X13.3232 Y-10.9189
G01 X13.3138 Y-10.9479
G01 X13.3083 Y-10.9663
G01 X13.3024 Y-10.9880
G01 X13.2288 Y-11.2821
G01 X13.2188 Y-11.3264
G01 X13.2110 Y-11.3715
G01 X13.2076 Y-11.3977
G01 X13.2038 Y-11.4358
G01 X13.2021 Y-11.4624
G01 X13.2010 Y-11.5077
G01 X13.2010 Y-11.7220
G01 X13.2021 Y-11.7674
G01 X13.2055 Y-11.8130
G01 X13.2110 Y-11.8582
G01 X13.2188 Y-11.9032
G01 X13.2288 Y-11.9475
G01 X13.3032 Y-12.2449
G01 X13.3138 Y-12.2817
G01 X13.3232 Y-12.3108
G01 X13.3308 Y-12.3319
G01 X13.3450 Y-12.3675
G01 X13.3572 Y-12.3955
G01 X13.3668 Y-12.4158
G01 X13.4421 Y-12.5665
G01 X13.4577 Y-12.5965
G01 X13.4725 Y-12.6223
G01 X13.4925 Y-12.6550
G01 X13.5054 Y-12.6743
G01 X13.5340 Y-12.7140
G01 X13.5604 Y-12.7471
G01 X13.5928 Y-12.7838
G01 X13.6163 Y-12.8082
G01 X13.7591 Y-12.9511
G01 X13.7868 Y-12.9775
G01 X13.8155 Y-13.0029
G01 X13.8334 Y-13.0177
G01 X13.8485 Y-13.0295
G01 X13.8723 Y-13.0474
G01 X13.8913 Y-13.0608
G01 X13.9072 Y-13.0714
G01 X13.9324 Y-13.0873
G01 X13.9488 Y-13.0972
G01 X13.9690 Y-13.1086
G01 X14.0030 Y-13.1263
G01 X14.0298 Y-13.1392
G01 X14.0511 Y-13.1485
G01 X14.0866 Y-13.1628
G01 X14.1227 Y-13.1757
G01 X14.3471 Y-13.2505
G01 X14.3693 Y-13.2573
G01 X14.3877 Y-13.2624
G01 X14.4166 Y-13.2698
G01 X14.4352 Y-13.2740
G01 X14.4580 Y-13.2786
G01 X14.4874 Y-13.2837
G01 X14.5063 Y-13.2865
G01 X14.5294 Y-13.2893
G01 X14.5675 Y-13.2926
G01 X14.5972 Y-13.2943
G01 X14.6164 Y-13.2948
G01 X14.7846 Y-13.2948
G01 X14.8078 Y-13.2943
G01 X14.8375 Y-13.2926
G01 X14.8757 Y-13.2893
G01 X14.8987 Y-13.2865
G01 X14.9470 Y-13.2786
G01 X14.9698 Y-13.2740
G01 X15.0070 Y-13.2651
G01 X15.0358 Y-13.2573
G01 X15.0681 Y-13.2472
G01 X15.2604 Y-13.1831
G01 X15.2811 Y-13.1939
G01 X15.2983 Y-13.2023
G01 X15.3290 Y-13.2166
G01 X15.3466 Y-13.2241
G01 X15.3644 Y-13.2312
G01 X15.3962 Y-13.2428
G01 X15.4325 Y-13.2549
G01 X15.4509 Y-13.2602
G01 X15.4837 Y-13.2686
G01 X15.5211 Y-13.2770
G01 X15.5399 Y-13.2805
G01 X15.5734 Y-13.2857
G01 X15.6113 Y-13.2904
G01 X15.6304 Y-13.2921
G01 X15.6642 Y-13.2940
G01 X15.7025 Y-13.2949
G01 X15.7217 Y-13.2947
G01 X15.7555 Y-13.2932
G01 X15.7746 Y-13.2921
G01 X15.8127 Y-13.2883
G01 X15.8462 Y-13.2836
G01 X15.8840 Y-13.2770
G01 X15.9213 Y-13.2686
G01 X15.9541 Y-13.2602
G01 X15.9907 Y-13.2491
G01 X16.0088 Y-13.2428
G01 X16.0407 Y-13.2312
G01 X16.0760 Y-13.2166
G01 X16.1067 Y-13.2023
G01 X16.1310 Y-13.1902
G01 X16.1519 Y-13.2007
G01 X16.1787 Y-13.2132
G01 X16.2139 Y-13.2283
G01 X16.2358 Y-13.2367
G01 X16.2819 Y-13.2525
G01 X16.3043 Y-13.2592
G01 X16.3414 Y-13.2688
G01 X16.3703 Y-13.2754
G01 X16.3932 Y-13.2799
G01 X16.4310 Y-13.2859
G01 X16.4604 Y-13.2896
G01 X16.4837 Y-13.2918
G01 X16.5219 Y-13.2941
G01 X16.5515 Y-13.2949
G01 X16.5749 Y-13.2948
G01 X16.6132 Y-13.2933
G01 X16.6427 Y-13.2912
G01 X16.6660 Y-13.2888
G01 X16.7039 Y-13.2836
G01 X16.7331 Y-13.2786
G01 X16.7747 Y-13.2697
G01 X16.8034 Y-13.2623
G01 X16.8402 Y-13.2516
G01 X16.8624 Y-13.2443
G01 X16.8902 Y-13.2341
G01 X16.9257 Y-13.2198
G01 X16.9471 Y-13.2103
G01 X16.9738 Y-13.1975
G01 X17.0078 Y-13.1798
G01 X17.0281 Y-13.1683
G01 X17.0534 Y-13.1529
G01 X17.0858 Y-13.1318
G01 X17.1188 Y-13.1469
G01 X17.1402 Y-13.1559
G01 X17.1680 Y-13.1665
G01 X17.1941 Y-13.1757
G01 X17.4224 Y-13.2517
G01 X17.4407 Y-13.2573
G01 X17.4694 Y-13.2651
G01 X17.4880 Y-13.2698
G01 X17.5107 Y-13.2749
G01 X17.5483 Y-13.2819
G01 X17.5777 Y-13.2865
G01 X17.6198 Y-13.2912
G01 X17.6496 Y-13.2933
G01 X17.6687 Y-13.2943
G01 X17.7025 Y-13.2949
G01 X17.8454 Y-13.2949
G01 X17.8792 Y-13.2943
G01 X17.9280 Y-13.2912
G01 X17.9511 Y-13.2889
G01 X17.9891 Y-13.2837
G01 X18.0184 Y-13.2786
G01 X18.0412 Y-13.2740
G01 X18.0599 Y-13.2698
G01 X18.0887 Y-13.2624
G01 X18.1072 Y-13.2573
G01 X18.1395 Y-13.2472
G01 X18.3538 Y-13.1757
G01 X18.3898 Y-13.1628
G01 X18.4254 Y-13.1485
G01 X18.4466 Y-13.1392
G01 X18.4735 Y-13.1263
G01 X18.5074 Y-13.1086
G01 X18.5276 Y-13.0972
G01 X18.5693 Y-13.0714
G01 X18.5885 Y-13.0585
G01 X18.6195 Y-13.0360
G01 X18.6431 Y-13.0177
G01 X18.6579 Y-13.0056
G01 X18.6755 Y-12.9904
G01 X18.6974 Y-12.9703
G01 X18.7173 Y-12.9511
G01 X18.7887 Y-12.8796
G01 X18.8151 Y-12.8519
G01 X18.8377 Y-12.8266
G01 X18.8500 Y-12.8120
G01 X18.8620 Y-12.7971
G01 X18.8824 Y-12.7700
G01 X18.8936 Y-12.7545
G01 X18.9149 Y-12.7226
G01 X18.9421 Y-12.6772
G01 X18.9602 Y-12.6434
G01 X18.9686 Y-12.6262
G01 X18.9828 Y-12.5955
G01 X18.9904 Y-12.5779
G01 X19.0041 Y-12.5422
G01 X19.0153 Y-12.5102
G01 X19.0211 Y-12.4920
G01 X19.0264 Y-12.4736
G01 X19.0349 Y-12.4408
G01 X19.0393 Y-12.4221
G01 X19.0468 Y-12.3846
G01 X19.0520 Y-12.3511
G01 X19.0567 Y-12.3131
G01 X19.0583 Y-12.2941
G01 X19.0602 Y-12.2602
G01 X19.0612 Y-12.2220
G01 X19.0609 Y-12.2028
G01 X19.0583 Y-12.1499
G01 X19.0546 Y-12.1118
G01 X19.0520 Y-12.0928
G01 X19.0468 Y-12.0593
G01 X19.0433 Y-12.0405
G01 X19.0393 Y-12.0218
G01 X19.0313 Y-11.9889
G01 X19.0211 Y-11.9520
G01 X19.0153 Y-11.9337
G01 X19.0041 Y-11.9018
G01 X18.9904 Y-11.8660
G01 X18.9828 Y-11.8484
G01 X18.9685 Y-11.8177
G01 X18.9513 Y-11.7835
G01 X18.9421 Y-11.7668
G01 X18.9249 Y-11.7376
G01 X18.9044 Y-11.7052
G01 X18.8824 Y-11.6739
G01 X18.8620 Y-11.6469
G01 X18.8500 Y-11.6319
G01 X18.8355 Y-11.6148
G01 X18.8500 Y-11.5977
G01 X18.8620 Y-11.5828
G01 X18.8824 Y-11.5557
G01 X18.9044 Y-11.5244
G01 X18.9249 Y-11.4921
G01 X18.9421 Y-11.4629
G01 X18.9513 Y-11.4461
G01 X18.9614 Y-11.4265
G01 X18.9836 Y-11.4549
G01 X18.9959 Y-11.4695
G01 X19.0185 Y-11.4948
G01 X19.0448 Y-11.5225
G01 X19.0726 Y-11.5489
G01 X19.0978 Y-11.5715
G01 X19.1274 Y-11.5957
G01 X19.1700 Y-11.6273
G01 X19.2010 Y-11.6481
G01 X19.2010 Y-12.3648
G01 X19.2019 Y-12.4031
G01 X19.2038 Y-12.4369
G01 X19.2055 Y-12.4560
G01 X19.2076 Y-12.4750
G01 X19.2123 Y-12.5086
G01 X19.2189 Y-12.5463
G01 X19.2273 Y-12.5836
G01 X19.2357 Y-12.6164
G01 X19.2411 Y-12.6348
G01 X19.2468 Y-12.6531
G01 X19.2580 Y-12.6850
G01 X19.2718 Y-12.7208
G01 X19.2873 Y-12.7558
G01 X19.3020 Y-12.7863
G01 X19.3108 Y-12.8033
G01 X19.3297 Y-12.8366
G01 X19.3473 Y-12.8655
G01 X19.3578 Y-12.8815
G01 X19.3686 Y-12.8973
G01 X19.3886 Y-12.9247
G01 X19.4121 Y-12.9549
G01 X19.4244 Y-12.9695
G01 X19.4470 Y-12.9948
G01 X19.4734 Y-13.0225
G01 X19.5011 Y-13.0489
G01 X19.5264 Y-13.0715
G01 X19.5410 Y-13.0838
G01 X19.5712 Y-13.1073
G01 X19.5986 Y-13.1273
G01 X19.6144 Y-13.1382
G01 X19.6304 Y-13.1486
G01 X19.6593 Y-13.1662
G01 X19.6926 Y-13.1851
G01 X19.7268 Y-13.2023
G01 X19.7576 Y-13.2166
G01 X19.7752 Y-13.2241
G01 X19.7929 Y-13.2312
G01 X19.8247 Y-13.2428
G01 X19.8611 Y-13.2549
G01 X19.8795 Y-13.2602
G01 X19.9123 Y-13.2686
G01 X19.9496 Y-13.2770
G01 X19.9874 Y-13.2836
G01 X20.0209 Y-13.2883
G01 X20.0399 Y-13.2904
G01 X20.0590 Y-13.2921
G01 X20.0928 Y-13.2940
G01 X20.1311 Y-13.2949
G01 X20.1502 Y-13.2947
G01 X20.1841 Y-13.2932
G01 X20.2032 Y-13.2921
G01 X20.2413 Y-13.2883
G01 X20.2937 Y-13.2805
G01 X20.3313 Y-13.2731
G01 X20.3827 Y-13.2602
G01 X20.4193 Y-13.2491
G01 X20.4692 Y-13.2312
G01 X20.5046 Y-13.2166
G01 X20.5525 Y-13.1939
G01 X20.5695 Y-13.1851
G01 X20.5954 Y-13.1706
G01 X20.6212 Y-13.1851
G01 X20.6382 Y-13.1939
G01 X20.6861 Y-13.2166
G01 X20.7037 Y-13.2241
G01 X20.7394 Y-13.2379
G01 X20.7714 Y-13.2491
G01 X20.7897 Y-13.2549
G01 X20.8081 Y-13.2602
G01 X20.8409 Y-13.2686
G01 X20.8782 Y-13.2770
G01 X20.8970 Y-13.2805
G01 X20.9495 Y-13.2883
G01 X20.9685 Y-13.2904
G01 X21.0067 Y-13.2932
G01 X21.0405 Y-13.2947
G01 X21.0597 Y-13.2949
G01 X21.7739 Y-13.2949
G01 X21.8122 Y-13.2940
G01 X21.8460 Y-13.2921
G01 X21.8841 Y-13.2883
G01 X21.9366 Y-13.2805
G01 X21.9741 Y-13.2731
G01 X22.0070 Y-13.2651
G01 X22.0439 Y-13.2549
G01 X22.0803 Y-13.2428
G01 X22.1121 Y-13.2312
G01 X22.1299 Y-13.2241
G01 X22.1585 Y-13.2115
G01 X22.2756 Y-13.2505
G01 X22.2978 Y-13.2573
G01 X22.3266 Y-13.2651
G01 X22.3638 Y-13.2740
G01 X22.3866 Y-13.2786
G01 X22.4349 Y-13.2865
G01 X22.4579 Y-13.2893
G01 X22.4770 Y-13.2912
G01 X22.5067 Y-13.2933
G01 X22.5258 Y-13.2943
G01 X22.5490 Y-13.2948
G01 X22.9168 Y-13.2949
G01 X22.9551 Y-13.2940
G01 X22.9933 Y-13.2917
G01 X23.0164 Y-13.2895
G01 X23.0649 Y-13.2830
G01 X23.0878 Y-13.2790
G01 X23.1253 Y-13.2712
G01 X23.1542 Y-13.2641
G01 X23.1766 Y-13.2579
G01 X23.2131 Y-13.2464
G01 X23.2412 Y-13.2365
G01 X23.2591 Y-13.2296
G01 X23.2806 Y-13.2208
G01 X23.3078 Y-13.2086
G01 X23.3327 Y-13.1967
G01 X23.4756 Y-13.1253
G01 X23.5040 Y-13.1104
G01 X23.5271 Y-13.1273
G01 X23.5590 Y-13.1486
G01 X23.6044 Y-13.1759
G01 X23.6382 Y-13.1939
G01 X23.6687 Y-13.2086
G01 X23.7037 Y-13.2241
G01 X23.7394 Y-13.2379
G01 X23.7714 Y-13.2491
G01 X23.8081 Y-13.2602
G01 X23.8409 Y-13.2686
G01 X23.8782 Y-13.2770
G01 X23.9159 Y-13.2836
G01 X23.9495 Y-13.2883
G01 X23.9876 Y-13.2921
G01 X24.0405 Y-13.2947
G01 X24.0788 Y-13.2947
G01 X24.1126 Y-13.2932
G01 X24.1508 Y-13.2904
G01 X24.1698 Y-13.2883
G01 X24.2034 Y-13.2836
G01 X24.2411 Y-13.2770
G01 X24.2785 Y-13.2686
G01 X24.3113 Y-13.2602
G01 X24.3479 Y-13.2491
G01 X24.3799 Y-13.2379
G01 X24.4156 Y-13.2241
G01 X24.4506 Y-13.2086
G01 X24.4811 Y-13.1939
G01 X24.5149 Y-13.1759
G01 X24.5440 Y-13.1586
G01 X24.5764 Y-13.1382
G01 X24.6077 Y-13.1161
G01 X24.6347 Y-13.0957
G01 X24.6643 Y-13.0715
G01 X24.6896 Y-13.0489
G01 X24.7173 Y-13.0225
G01 X24.7437 Y-12.9948
G01 X24.7663 Y-12.9695
G01 X24.7906 Y-12.9399
G01 X24.8222 Y-12.8973
G01 X24.8434 Y-12.8655
G01 X24.8610 Y-12.8366
G01 X24.8799 Y-12.8033
G01 X24.8971 Y-12.7691
G01 X24.9114 Y-12.7383
G01 X24.9189 Y-12.7208
G01 X24.9327 Y-12.6850
G01 X24.9439 Y-12.6531
G01 X24.9550 Y-12.6164
G01 X24.9635 Y-12.5836
G01 X24.9719 Y-12.5463
G01 X24.9754 Y-12.5275
G01 X24.9831 Y-12.4750
G01 X24.9869 Y-12.4369
G01 X24.9895 Y-12.3840
G01 X24.9897 Y-11.6481
G01 X25.0207 Y-11.6273
G01 X25.0362 Y-11.6161
G01 X25.0633 Y-11.5957
G01 X25.0783 Y-11.5838
G01 X25.0929 Y-11.5715
G01 X25.1182 Y-11.5489
G01 X25.1459 Y-11.5225
G01 X25.1723 Y-11.4948
G01 X25.1949 Y-11.4695
G01 X25.2072 Y-11.4549
G01 X25.2307 Y-11.4247
G01 X25.2507 Y-11.3973
G01 X25.2616 Y-11.3815
G01 X25.2720 Y-11.3655
G01 X25.2896 Y-11.3366
G01 X25.3085 Y-11.3033
G01 X25.3257 Y-11.2691
G01 X25.3400 Y-11.2383
G01 X25.3475 Y-11.2208
G01 X25.3546 Y-11.2030
G01 X25.3662 Y-11.1712
G01 X25.3783 Y-11.1348
G01 X25.3836 Y-11.1164
G01 X25.3920 Y-11.0836
G01 X25.4004 Y-11.0463
G01 X25.4070 Y-11.0086
G01 X25.4117 Y-10.9750
G01 X25.4138 Y-10.9560
G01 X25.4155 Y-10.9369
G01 X25.4174 Y-10.9031
G01 X25.4181 Y-10.8840
G01 X25.4181 Y-10.8457
G01 X25.4155 Y-10.7927
G01 X25.4117 Y-10.7546
G01 X25.4039 Y-10.7022
G01 X25.4004 Y-10.6834
G01 X25.3920 Y-10.6460
G01 X25.3836 Y-10.6132
G01 X25.3783 Y-10.5948
G01 X25.3725 Y-10.5766
G01 X25.3613 Y-10.5446
G01 X25.3475 Y-10.5089
G01 X25.3400 Y-10.4913
G01 X25.3257 Y-10.4606
G01 X25.3085 Y-10.4264
G01 X25.2992 Y-10.4096
G01 X25.2720 Y-10.3642
G01 X25.2507 Y-10.3323
G01 X25.2191 Y-10.2897
G01 X25.2072 Y-10.2748
G01 X25.1822 Y-10.2458
G01 X25.1593 Y-10.2209
G01 X25.1459 Y-10.2072
G01 X25.1182 Y-10.1808
G01 X25.0929 Y-10.1582
G01 X25.0783 Y-10.1459
G01 X25.0481 Y-10.1223
G01 X25.0207 Y-10.1023
G01 X25.0049 Y-10.0915
G01 X24.9889 Y-10.0811
G01 X24.9600 Y-10.0634
G01 X24.9267 Y-10.0446
G01 X24.8925 Y-10.0274
G01 X24.8617 Y-10.0131
G01 X24.8441 Y-10.0056
G01 X24.8264 Y-9.9984
G01 X24.7946 Y-9.9868
G01 X24.7582 Y-9.9748
G01 X24.7398 Y-9.9695
G01 X24.7070 Y-9.9610
G01 X24.6697 Y-9.9526
G01 X24.6509 Y-9.9491
G01 X24.6174 Y-9.9439
G01 X24.5984 Y-9.9413
G01 X24.5603 Y-9.9376
G01 X24.5265 Y-9.9357
G01 X24.4882 Y-9.9348
G01 X23.6311 Y-9.9348
G01 X23.5928 Y-9.9357
G01 X23.5590 Y-9.9376
G01 X23.5209 Y-9.9413
G01 X23.4874 Y-9.9461
G01 X23.4496 Y-9.9526
G01 X23.4123 Y-9.9610
G01 X23.3795 Y-9.9695
G01 X23.3428 Y-9.9806
G01 X23.3106 Y-9.9919
G01 X23.2722 Y-9.9792
G01 X23.2500 Y-9.9724
G01 X23.2213 Y-9.9645
G01 X23.1841 Y-9.9556
G01 X23.1613 Y-9.9510
G01 X23.1319 Y-9.9460
G01 X23.0940 Y-9.9408
G01 X23.0709 Y-9.9384
G01 X23.0221 Y-9.9354
G01 X22.9882 Y-9.9348
G01 X22.6311 Y-9.9348
G01 X22.5928 Y-9.9356
G01 X22.5546 Y-9.9379
G01 X22.5314 Y-9.9401
G01 X22.4829 Y-9.9466
G01 X22.4413 Y-9.9543
G01 X22.3937 Y-9.9656
G01 X22.3529 Y-9.9773
G01 X22.3247 Y-9.9868
G01 X22.2888 Y-10.0000
G01 X22.2673 Y-10.0089
G01 X22.2498 Y-10.0166
G01 X22.2023 Y-10.0394
G00 Z2.0000
G00 X19.7261 Y-16.9465
G01 F60.00
G01 Z-0.0500
G01 F120.00
G01 X19.7031 Y-16.9139
G01 X19.6915 Y-16.8986
G01 X19.6796 Y-16.8836
G01 X19.6578 Y-16.8577
G01 X19.6451 Y-16.8434
G01 X19.6188 Y-16.8156
G01 X19.5805 Y-16.7789
G01 X19.5662 Y-16.7662
G01 X19.5367 Y-16.7418
G01 X19.5099 Y-16.7211
G01 X19.4944 Y-16.7099
G01 X19.4786 Y-16.6990
G01 X19.4502 Y-16.6806
G01 X19.4174 Y-16.6608
G01 X19.4007 Y-16.6515
G01 X19.3705 Y-16.6360
G01 X19.3534 Y-16.6276
G01 X19.3184 Y-16.6120
G01 X19.2690 Y-16.5928
G01 X19.2327 Y-16.5807
G01 X19.2143 Y-16.5753
G01 X19.1816 Y-16.5664
G01 X19.1630 Y-16.5619
G01 X19.1443 Y-16.5579
G01 X19.1110 Y-16.5518
G01 X19.0921 Y-16.5487
G01 X19.0541 Y-16.5439
G01 X19.0012 Y-16.5399
G01 X18.9630 Y-16.5388
G01 X18.9291 Y-16.5393
G01 X18.8909 Y-16.5411
G01 X18.8528 Y-16.5447
G01 X18.8192 Y-16.5490
G01 X18.7814 Y-16.5555
G01 X18.7483 Y-16.5626
G01 X18.7111 Y-16.5718
G01 X18.6745 Y-16.5828
G01 X18.6424 Y-16.5936
G01 X18.6066 Y-16.6072
G01 X18.5755 Y-16.6207
G01 X18.5409 Y-16.6369
G01 X18.5238 Y-16.6457
G01 X18.4776 Y-16.6717
G01 X18.4568 Y-16.6846
G01 X18.4359 Y-16.6717
G01 X18.4194 Y-16.6621
G01 X18.3898 Y-16.6457
G01 X18.3727 Y-16.6369
G01 X18.3555 Y-16.6286
G01 X18.3246 Y-16.6147
G01 X18.3070 Y-16.6072
G01 X18.2712 Y-16.5936
G01 X18.2391 Y-16.5828
G01 X18.2025 Y-16.5718
G01 X18.1839 Y-16.5670
G01 X18.1509 Y-16.5594
G01 X18.1133 Y-16.5520
G01 X18.0944 Y-16.5490
G01 X18.0418 Y-16.5427
G01 X18.0227 Y-16.5411
G01 X17.9845 Y-16.5393
G01 X17.9506 Y-16.5388
G01 X17.9315 Y-16.5391
G01 X17.9123 Y-16.5399
G01 X17.8786 Y-16.5422
G01 X17.8405 Y-16.5461
G01 X17.8215 Y-16.5487
G01 X17.7693 Y-16.5579
G01 X17.7320 Y-16.5664
G01 X17.7135 Y-16.5713
G01 X17.6809 Y-16.5807
G01 X17.6627 Y-16.5865
G01 X17.6267 Y-16.5995
G01 X17.5997 Y-16.6101
G01 X17.5669 Y-16.5972
G01 X17.5206 Y-16.5813
G01 X17.4984 Y-16.5747
G01 X17.4614 Y-16.5649
G01 X17.4323 Y-16.5583
G01 X17.3906 Y-16.5506
G01 X17.3612 Y-16.5464
G01 X17.3231 Y-16.5423
G01 X17.2999 Y-16.5405
G01 X17.2808 Y-16.5396
G01 X17.2425 Y-16.5388
G01 X16.9568 Y-16.5388
G01 X16.9185 Y-16.5396
G01 X16.8994 Y-16.5405
G01 X16.8762 Y-16.5423
G01 X16.8381 Y-16.5464
G01 X16.8087 Y-16.5506
G01 X16.7858 Y-16.5546
G01 X16.7483 Y-16.5625
G01 X16.7194 Y-16.5696
G01 X16.6787 Y-16.5813
G01 X16.6504 Y-16.5908
G01 X16.6145 Y-16.6040
G01 X16.5930 Y-16.6129
G01 X16.5755 Y-16.6206
G01 X16.5409 Y-16.6369
G01 X16.3885 Y-16.7132
G01 X16.3680 Y-16.7241
G01 X16.3421 Y-16.7388
G01 X16.3095 Y-16.7589
G01 X16.2902 Y-16.7717
G01 X16.2659 Y-16.7889
G01 X16.2354 Y-16.8121
G01 X16.2173 Y-16.8267
G01 X16.1948 Y-16.8463
G01 X16.1806 Y-16.8591
G01 X16.1638 Y-16.8751
G01 X16.0745 Y-16.9645
G01 X16.0485 Y-16.9926
G01 X16.0290 Y-17.0151
G01 X16.0026 Y-17.0482
G01 X15.9740 Y-17.0879
G01 X15.9509 Y-17.1234
G01 X15.9357 Y-17.1491
G01 X15.9173 Y-17.1826
G01 X15.8392 Y-17.3386
G01 X15.8273 Y-17.3636
G01 X15.8151 Y-17.3908
G01 X15.7994 Y-17.4301
G01 X15.7896 Y-17.4582
G01 X15.7780 Y-17.4947
G01 X15.7718 Y-17.5171
G01 X15.7648 Y-17.5461
G01 X15.7569 Y-17.5835
G01 X15.7529 Y-17.6064
G01 X15.7487 Y-17.6359
G01 X15.7445 Y-17.6740
G01 X15.7428 Y-17.6971
G01 X15.7419 Y-17.7162
G01 X15.7410 Y-17.7545
G01 X15.7412 Y-18.1308
G01 X15.7430 Y-18.1719
G01 X15.7464 Y-18.2113
G01 X15.7501 Y-18.2409
G01 X15.7561 Y-18.2787
G01 X15.7606 Y-18.3015
G01 X15.7648 Y-18.3202
G01 X15.7718 Y-18.3491
G01 X15.7769 Y-18.3676
G01 X15.7836 Y-18.3898
G01 X15.7930 Y-18.4181
G01 X15.7994 Y-18.4361
G01 X15.8078 Y-18.4578
G01 X15.8228 Y-18.4930
G01 X15.8392 Y-18.5276
G01 X15.9106 Y-18.6705
G01 X15.9245 Y-18.6970
G01 X15.9186 Y-18.7172
G01 X15.9101 Y-18.7500
G01 X15.9017 Y-18.7874
G01 X15.8982 Y-18.8062
G01 X15.8905 Y-18.8586
G01 X15.8883 Y-18.8777
G01 X15.8855 Y-18.9158
G01 X15.8841 Y-18.9497
G01 X15.8839 Y-18.9688
G01 X15.8841 Y-18.9880
G01 X15.8855 Y-19.0218
G01 X15.8867 Y-19.0409
G01 X15.8905 Y-19.0790
G01 X15.8982 Y-19.1315
G01 X15.9017 Y-19.1503
G01 X15.9101 Y-19.1876
G01 X15.9186 Y-19.2204
G01 X15.9239 Y-19.2388
G01 X15.9297 Y-19.2571
G01 X15.9409 Y-19.2890
G01 X15.9547 Y-19.3248
G01 X15.9622 Y-19.3423
G01 X15.9765 Y-19.3731
G01 X15.9937 Y-19.4073
G01 X16.0029 Y-19.4240
G01 X16.0201 Y-19.4532
G01 X16.0302 Y-19.4695
G01 X16.0514 Y-19.5013
G01 X16.0830 Y-19.5439
G01 X16.1073 Y-19.5735
G01 X16.1429 Y-19.6128
G01 X16.1563 Y-19.6265
G01 X16.1840 Y-19.6529
G01 X16.2093 Y-19.6755
G01 X16.2239 Y-19.6878
G01 X16.2389 Y-19.6997
G01 X16.2659 Y-19.7201
G01 X16.2972 Y-19.7422
G01 X16.3133 Y-19.7526
G01 X16.3587 Y-19.7799
G01 X16.3925 Y-19.7979
G01 X16.4097 Y-19.8063
G01 X16.4404 Y-19.8206
G01 X16.4580 Y-19.8281
G01 X16.4758 Y-19.8352
G01 X16.5076 Y-19.8468
G01 X16.5440 Y-19.8589
G01 X16.5623 Y-19.8642
G01 X16.5951 Y-19.8726
G01 X16.6325 Y-19.8810
G01 X16.6513 Y-19.8845
G01 X16.7037 Y-19.8923
G01 X16.7228 Y-19.8944
G01 X16.7610 Y-19.8972
G01 X16.7948 Y-19.8987
G01 X16.8139 Y-19.8989
G01 X17.0997 Y-19.8989
G01 X17.1273 Y-19.8984
G01 X17.1571 Y-19.8971
G01 X17.1993 Y-19.8935
G01 X17.2478 Y-19.8870
G01 X17.2895 Y-19.8793
G01 X17.3371 Y-19.8681
G01 X17.3778 Y-19.8563
G01 X17.4241 Y-19.8405
G01 X17.4634 Y-19.8248
G01 X17.4906 Y-19.8126
G01 X17.5156 Y-19.8007
G01 X17.6584 Y-19.7293
G01 X17.6884 Y-19.7136
G01 X17.7307 Y-19.6890
G01 X17.7504 Y-19.6766
G01 X17.7820 Y-19.6550
G01 X17.8084 Y-19.6355
G01 X17.8298 Y-19.6557
G01 X17.8490 Y-19.6728
G01 X17.8849 Y-19.7023
G01 X17.9054 Y-19.7178
G01 X17.9367 Y-19.7398
G01 X17.9595 Y-19.7548
G01 X17.9815 Y-19.7682
G01 X18.0148 Y-19.7871
G01 X18.0390 Y-19.7998
G01 X18.0795 Y-19.8189
G01 X18.1224 Y-19.8367
G01 X18.1466 Y-19.8456
G01 X18.1829 Y-19.8576
G01 X18.2091 Y-19.8653
G01 X18.2276 Y-19.8702
G01 X18.2526 Y-19.8762
G01 X18.2794 Y-19.8818
G01 X18.3171 Y-19.8883
G01 X18.3425 Y-19.8919
G01 X18.3888 Y-19.8964
G01 X18.4336 Y-19.8986
G01 X18.4609 Y-19.8988
G01 X18.4992 Y-19.8979
G01 X18.5248 Y-19.8964
G01 X18.5520 Y-19.8940
G01 X18.5900 Y-19.8893
G01 X18.6154 Y-19.8853
G01 X18.6610 Y-19.8762
G01 X18.7045 Y-19.8653
G01 X18.7489 Y-19.8518
G01 X18.7911 Y-19.8367
G01 X18.8341 Y-19.8189
G01 X18.8746 Y-19.7998
G01 X18.9156 Y-19.7779
G01 X18.9377 Y-19.7649
G01 X18.9701 Y-19.7444
G01 X18.9927 Y-19.7290
G01 X19.0082 Y-19.7178
G01 X19.0287 Y-19.7023
G01 X19.0436 Y-19.6903
G01 X19.0646 Y-19.6728
G01 X19.0838 Y-19.6557
G01 X19.0978 Y-19.6427
G01 X19.1173 Y-19.6236
G01 X19.1437 Y-19.5958
G01 X19.1608 Y-19.5766
G01 X19.1903 Y-19.5407
G01 X19.2170 Y-19.5047
G01 X19.2426 Y-19.4664
G01 X19.2549 Y-19.4855
G01 X19.2657 Y-19.5013
G01 X19.2973 Y-19.5439
G01 X19.3216 Y-19.5735
G01 X19.3572 Y-19.6128
G01 X19.3843 Y-19.6399
G01 X19.4235 Y-19.6755
G01 X19.4531 Y-19.6997
G01 X19.4957 Y-19.7313
G01 X19.5275 Y-19.7526
G01 X19.5438 Y-19.7626
G01 X19.5730 Y-19.7799
G01 X19.5898 Y-19.7891
G01 X19.6240 Y-19.8063
G01 X19.6547 Y-19.8206
G01 X19.6723 Y-19.8281
G01 X19.6901 Y-19.8352
G01 X19.7219 Y-19.8468
G01 X19.7582 Y-19.8589
G01 X19.7766 Y-19.8642
G01 X19.8094 Y-19.8726
G01 X19.8468 Y-19.8810
G01 X19.8845 Y-19.8876
G01 X19.9180 Y-19.8923
G01 X19.9371 Y-19.8944
G01 X19.9561 Y-19.8961
G01 X19.9900 Y-19.8980
G01 X20.0282 Y-19.8989
G01 X20.0665 Y-19.8980
G01 X20.1003 Y-19.8961
G01 X20.1194 Y-19.8944
G01 X20.1384 Y-19.8923
G01 X20.1720 Y-19.8876
G01 X20.2097 Y-19.8810
G01 X20.2470 Y-19.8726
G01 X20.2798 Y-19.8642
G01 X20.2982 Y-19.8589
G01 X20.3165 Y-19.8531
G01 X20.3484 Y-19.8419
G01 X20.3841 Y-19.8281
G01 X20.4017 Y-19.8206
G01 X20.4325 Y-19.8063
G01 X20.4667 Y-19.7891
G01 X20.4834 Y-19.7799
G01 X20.5126 Y-19.7626
G01 X20.5449 Y-19.7422
G01 X20.5607 Y-19.7313
G01 X20.5881 Y-19.7113
G01 X20.6183 Y-19.6878
G01 X20.6472 Y-19.6628
G01 X20.6722 Y-19.6399
G01 X20.6993 Y-19.6128
G01 X20.7222 Y-19.5879
G01 X20.7472 Y-19.5589
G01 X20.7707 Y-19.5287
G01 X20.7907 Y-19.5013
G01 X20.8120 Y-19.4695
G01 X20.8296 Y-19.4406
G01 X20.8485 Y-19.4073
G01 X20.8657 Y-19.3731
G01 X20.8800 Y-19.3423
G01 X20.8946 Y-19.3070
G01 X20.9062 Y-19.2754
G01 X20.9378 Y-19.2638
G01 X20.9732 Y-19.2491
G01 X21.0211 Y-19.2265
G01 X21.0549 Y-19.2084
G01 X21.0840 Y-19.1912
G01 X21.1164 Y-19.1707
G01 X21.1322 Y-19.1599
G01 X21.1595 Y-19.1399
G01 X21.1897 Y-19.1164
G01 X21.2043 Y-19.1040
G01 X21.2296 Y-19.0815
G01 X21.2573 Y-19.0551
G01 X21.2837 Y-19.0273
G01 X21.3063 Y-19.0021
G01 X21.3186 Y-18.9874
G01 X21.3422 Y-18.9573
G01 X21.3622 Y-18.9299
G01 X21.3730 Y-18.9141
G01 X21.3935 Y-18.8818
G01 X21.4107 Y-18.8526
G01 X21.4287 Y-18.8188
G01 X21.4371 Y-18.8016
G01 X21.4514 Y-18.7709
G01 X21.4589 Y-18.7533
G01 X21.4660 Y-18.7355
G01 X21.4777 Y-18.7037
G01 X21.4897 Y-18.6674
G01 X21.4950 Y-18.6490
G01 X21.5035 Y-18.6162
G01 X21.5119 Y-18.5788
G01 X21.5184 Y-18.5411
G01 X21.5231 Y-18.5076
G01 X21.5252 Y-18.4886
G01 X21.5269 Y-18.4695
G01 X21.5288 Y-18.4357
G01 X21.5297 Y-18.3974
G01 X21.5288 Y-18.3591
G01 X21.5269 Y-18.3253
G01 X21.5252 Y-18.3062
G01 X21.5231 Y-18.2872
G01 X21.5184 Y-18.2537
G01 X21.5119 Y-18.2160
G01 X21.5035 Y-18.1786
G01 X21.4950 Y-18.1458
G01 X21.4897 Y-18.1274
G01 X21.4839 Y-18.1092
G01 X21.4727 Y-18.0772
G01 X21.4589 Y-18.0415
G01 X21.4514 Y-18.0239
G01 X21.4371 Y-17.9932
G01 X21.4199 Y-17.9590
G01 X21.4010 Y-17.9257
G01 X21.3834 Y-17.8967
G01 X21.3730 Y-17.8807
G01 X21.3622 Y-17.8649
G01 X21.3422 Y-17.8375
G01 X21.3186 Y-17.8074
G01 X21.3063 Y-17.7927
G01 X21.2837 Y-17.7675
G01 X21.2573 Y-17.7397
G01 X21.2436 Y-17.7264
G01 X21.2187 Y-17.7034
G01 X21.2043 Y-17.6908
G01 X21.1747 Y-17.6665
G01 X21.1477 Y-17.6461
G01 X21.1164 Y-17.6241
G01 X21.1003 Y-17.6136
G01 X21.0714 Y-17.5960
G01 X21.0381 Y-17.5771
G01 X21.0211 Y-17.5683
G01 X20.9906 Y-17.5536
G01 X20.9556 Y-17.5381
G01 X20.9378 Y-17.5310
G01 X20.9062 Y-17.5194
G01 X20.8946 Y-17.4878
G01 X20.8800 Y-17.4525
G01 X20.8657 Y-17.4217
G01 X20.8485 Y-17.3875
G01 X20.8296 Y-17.3542
G01 X20.8120 Y-17.3253
G01 X20.8016 Y-17.3092
G01 X20.7795 Y-17.2779
G01 X20.7591 Y-17.2509
G01 X20.7349 Y-17.2213
G01 X20.7123 Y-17.1960
G01 X20.6859 Y-17.1683
G01 X20.6582 Y-17.1419
G01 X20.6329 Y-17.1193
G01 X20.6033 Y-17.0951
G01 X20.5762 Y-17.0747
G01 X20.5449 Y-17.0526
G01 X20.5289 Y-17.0422
G01 X20.5000 Y-17.0246
G01 X20.4834 Y-17.0149
G01 X20.4497 Y-16.9969
G01 X20.4017 Y-16.9742
G01 X20.3664 Y-16.9596
G01 X20.3484 Y-16.9529
G01 X20.3165 Y-16.9417
G01 X20.2982 Y-16.9359
G01 X20.2798 Y-16.9306
G01 X20.2470 Y-16.9222
G01 X20.2284 Y-16.9177
G01 X20.1909 Y-16.9103
G01 X20.1384 Y-16.9025
G01 X20.1003 Y-16.8987
G01 X20.0812 Y-16.8976
G01 X20.0474 Y-16.8961
G01 X20.0282 Y-16.8959
G01 X19.9900 Y-16.8968
G01 X19.9561 Y-16.8987
G01 X19.9371 Y-16.9004
G01 X19.9180 Y-16.9025
G01 X19.8845 Y-16.9072
G01 X19.8468 Y-16.9138
G01 X19.8280 Y-16.9177
G01 X19.7766 Y-16.9306
G01 X19.7582 Y-16.9359
G01 X19.7261 Y-16.9465
G00 Z2.0000
G00 X19.5861 Y-17.3667
G01 F60.00
G01 Z-0.0500
G01 F120.00
G01 X19.5831 Y-17.3497
G01 X19.5747 Y-17.3120
G01 X19.5684 Y-17.2889
G01 X19.5603 Y-17.2635
G01 X19.5523 Y-17.2410
G01 X19.5432 Y-17.2188
G01 X19.5323 Y-17.1945
G01 X19.5216 Y-17.1731
G01 X19.5086 Y-17.1497
G01 X19.4964 Y-17.1292
G01 X19.4831 Y-17.1092
G01 X19.4677 Y-17.0875
G01 X19.4530 Y-17.0686
G01 X19.4358 Y-17.0482
G01 X19.4197 Y-17.0304
G01 X19.4029 Y-17.0135
G01 X19.3835 Y-16.9951
G01 X19.3654 Y-16.9794
G01 X19.3445 Y-16.9628
G01 X19.3253 Y-16.9485
G01 X19.3155 Y-16.9417
G01 X19.2930 Y-16.9273
G01 X19.2725 Y-16.9149
G01 X19.2515 Y-16.9036
G01 X19.2276 Y-16.8917
G01 X19.2057 Y-16.8819
G01 X19.1809 Y-16.8721
G01 X19.1584 Y-16.8640
G01 X19.1355 Y-16.8570
G01 X19.1098 Y-16.8499
G01 X19.0865 Y-16.8446
G01 X19.0602 Y-16.8398
G01 X19.0365 Y-16.8363
G01 X19.0247 Y-16.8349
G01 X18.9980 Y-16.8327
G01 X18.9861 Y-16.8320
G01 X18.9622 Y-16.8313
G01 X18.9355 Y-16.8317
G01 X18.9116 Y-16.8329
G01 X18.8997 Y-16.8339
G01 X18.8732 Y-16.8369
G01 X18.8495 Y-16.8403
G01 X18.8377 Y-16.8425
G01 X18.8116 Y-16.8481
G01 X18.7884 Y-16.8539
G01 X18.7769 Y-16.8572
G01 X18.7515 Y-16.8654
G01 X18.7289 Y-16.8734
G01 X18.7178 Y-16.8778
G01 X18.6824 Y-16.8933
G01 X18.6610 Y-16.9040
G01 X18.6505 Y-16.9098
G01 X18.6273 Y-16.9230
G01 X18.6171 Y-16.9293
G01 X18.5972 Y-16.9425
G01 X18.5754 Y-16.9579
G01 X18.5659 Y-16.9651
G01 X18.5474 Y-16.9803
G01 X18.5272 Y-16.9978
G01 X18.5098 Y-17.0142
G01 X18.4831 Y-17.0421
G01 X18.4674 Y-17.0602
G01 X18.4568 Y-17.0735
G01 X18.4462 Y-17.0602
G01 X18.4305 Y-17.0421
G01 X18.4038 Y-17.0142
G01 X18.3864 Y-16.9978
G01 X18.3571 Y-16.9726
G01 X18.3382 Y-16.9579
G01 X18.3065 Y-16.9358
G01 X18.2862 Y-16.9230
G01 X18.2526 Y-16.9040
G01 X18.2312 Y-16.8933
G01 X18.2203 Y-16.8884
G01 X18.1958 Y-16.8778
G01 X18.1847 Y-16.8734
G01 X18.1734 Y-16.8692
G01 X18.1481 Y-16.8608
G01 X18.1252 Y-16.8539
G01 X18.1136 Y-16.8509
G01 X18.0876 Y-16.8450
G01 X18.0641 Y-16.8403
G01 X18.0523 Y-16.8385
G01 X18.0258 Y-16.8351
G01 X18.0020 Y-16.8329
G01 X17.9900 Y-16.8322
G01 X17.9634 Y-16.8314
G01 X17.9394 Y-16.8315
G01 X17.9155 Y-16.8327
G01 X17.8889 Y-16.8349
G01 X17.8652 Y-16.8379
G01 X17.8389 Y-16.8424
G01 X17.8154 Y-16.8471
G01 X17.7922 Y-16.8530
G01 X17.7666 Y-16.8603
G01 X17.7439 Y-16.8679
G01 X17.7189 Y-16.8774
G01 X17.6969 Y-16.8866
G01 X17.6753 Y-16.8969
G01 X17.6515 Y-16.9092
G01 X17.6306 Y-16.9211
G01 X17.6050 Y-16.9372
G01 X17.5169 Y-16.8933
G01 X17.4898 Y-16.8812
G01 X17.4671 Y-16.8721
G01 X17.4310 Y-16.8598
G01 X17.4075 Y-16.8530
G01 X17.3704 Y-16.8442
G01 X17.3362 Y-16.8382
G01 X17.3085 Y-16.8347
G01 X17.2943 Y-16.8334
G01 X17.2740 Y-16.8321
G01 X17.2425 Y-16.8313
G01 X16.9568 Y-16.8313
G01 X16.9253 Y-16.8321
G01 X16.8908 Y-16.8347
G01 X16.8530 Y-16.8398
G01 X16.8190 Y-16.8464
G01 X16.7918 Y-16.8530
G01 X16.7781 Y-16.8568
G01 X16.7586 Y-16.8629
G01 X16.7323 Y-16.8721
G01 X16.7002 Y-16.8852
G01 X16.6717 Y-16.8986
G01 X16.5288 Y-16.9700
G01 X16.5014 Y-16.9846
G01 X16.4860 Y-16.9935
G01 X16.4687 Y-17.0043
G01 X16.4568 Y-17.0121
G01 X16.4340 Y-17.0283
G01 X16.4067 Y-17.0497
G01 X16.3781 Y-17.0749
G01 X16.3631 Y-17.0894
G01 X16.2917 Y-17.1608
G01 X16.2703 Y-17.1834
G01 X16.2519 Y-17.2045
G01 X16.2367 Y-17.2236
G01 X16.2202 Y-17.2461
G01 X16.2087 Y-17.2630
G01 X16.2011 Y-17.2750
G01 X16.1869 Y-17.2991
G01 X16.1753 Y-17.3206
G01 X16.1008 Y-17.4694
G01 X16.0875 Y-17.4979
G01 X16.0795 Y-17.5167
G01 X16.0744 Y-17.5300
G01 X16.0651 Y-17.5564
G01 X16.0579 Y-17.5798
G01 X16.0527 Y-17.5994
G01 X16.0465 Y-17.6267
G01 X16.0438 Y-17.6407
G01 X16.0405 Y-17.6608
G01 X16.0369 Y-17.6885
G01 X16.0343 Y-17.7231
G01 X16.0335 Y-17.7545
G01 X16.0337 Y-18.1236
G01 X16.0349 Y-18.1533
G01 X16.0381 Y-18.1878
G01 X16.0420 Y-18.2155
G01 X16.0486 Y-18.2495
G01 X16.0527 Y-18.2668
G01 X16.0579 Y-18.2865
G01 X16.0620 Y-18.3002
G01 X16.0709 Y-18.3266
G01 X16.0834 Y-18.3590
G01 X16.1008 Y-18.3968
G01 X16.1722 Y-18.5397
G01 X16.1869 Y-18.5671
G01 X16.2011 Y-18.5912
G01 X16.2144 Y-18.6117
G01 X16.2367 Y-18.6426
G01 X16.2539 Y-18.6641
G01 X16.2461 Y-18.6789
G01 X16.2346 Y-18.7030
G01 X16.2296 Y-18.7138
G01 X16.2205 Y-18.7359
G01 X16.2074 Y-18.7723
G01 X16.2005 Y-18.7952
G01 X16.1974 Y-18.8068
G01 X16.1911 Y-18.8327
G01 X16.1886 Y-18.8444
G01 X16.1845 Y-18.8680
G01 X16.1808 Y-18.8944
G01 X16.1784 Y-18.9183
G01 X16.1777 Y-18.9302
G01 X16.1765 Y-18.9569
G01 X16.1764 Y-18.9688
G01 X16.1765 Y-18.9808
G01 X16.1777 Y-19.0075
G01 X16.1794 Y-19.0313
G01 X16.1808 Y-19.0432
G01 X16.1845 Y-19.0696
G01 X16.1886 Y-19.0932
G01 X16.1911 Y-19.1049
G01 X16.1974 Y-19.1308
G01 X16.2005 Y-19.1424
G01 X16.2074 Y-19.1653
G01 X16.2163 Y-19.1905
G01 X16.2249 Y-19.2128
G01 X16.2296 Y-19.2238
G01 X16.2409 Y-19.2480
G01 X16.2461 Y-19.2588
G01 X16.2574 Y-19.2799
G01 X16.2710 Y-19.3028
G01 X16.2838 Y-19.3230
G01 X16.2906 Y-19.3329
G01 X16.3064 Y-19.3544
G01 X16.3211 Y-19.3733
G01 X16.3288 Y-19.3825
G01 X16.3466 Y-19.4023
G01 X16.3631 Y-19.4197
G01 X16.3804 Y-19.4362
G01 X16.4003 Y-19.4540
G01 X16.4188 Y-19.4692
G01 X16.4499 Y-19.4922
G01 X16.4698 Y-19.5055
G01 X16.4926 Y-19.5193
G01 X16.5134 Y-19.5311
G01 X16.5348 Y-19.5419
G01 X16.5590 Y-19.5532
G01 X16.5699 Y-19.5579
G01 X16.5923 Y-19.5665
G01 X16.6175 Y-19.5753
G01 X16.6289 Y-19.5789
G01 X16.6519 Y-19.5853
G01 X16.6778 Y-19.5917
G01 X16.7013 Y-19.5963
G01 X16.7131 Y-19.5982
G01 X16.7396 Y-19.6020
G01 X16.7634 Y-19.6044
G01 X16.7900 Y-19.6058
G01 X16.8139 Y-19.6064
G01 X17.0997 Y-19.6064
G01 X17.1413 Y-19.6050
G01 X17.1758 Y-19.6018
G01 X17.2035 Y-19.5979
G01 X17.2275 Y-19.5934
G01 X17.2547 Y-19.5872
G01 X17.2744 Y-19.5820
G01 X17.2978 Y-19.5748
G01 X17.3242 Y-19.5656
G01 X17.3563 Y-19.5524
G01 X17.3848 Y-19.5391
G01 X17.5336 Y-19.4647
G01 X17.5551 Y-19.4530
G01 X17.5792 Y-19.4389
G01 X17.6080 Y-19.4197
G01 X17.6224 Y-19.4094
G01 X17.6386 Y-19.3970
G01 X17.6497 Y-19.3880
G01 X17.6708 Y-19.3696
G01 X17.6933 Y-19.3482
G01 X17.7735 Y-19.2679
G01 X17.7992 Y-19.2395
G01 X17.8071 Y-19.2301
G01 X17.8219 Y-19.2110
G01 X17.8374 Y-19.1900
G01 X17.8515 Y-19.1691
G01 X17.8618 Y-19.1979
G01 X17.8694 Y-19.2166
G01 X17.8819 Y-19.2444
G01 X17.8926 Y-19.2657
G01 X17.9022 Y-19.2834
G01 X17.9179 Y-19.3096
G01 X17.9358 Y-19.3363
G01 X17.9539 Y-19.3608
G01 X17.9743 Y-19.3856
G01 X17.9866 Y-19.3994
G01 X18.0089 Y-19.4225
G01 X18.0262 Y-19.4390
G01 X18.0400 Y-19.4513
G01 X18.0649 Y-19.4717
G01 X18.0893 Y-19.4899
G01 X18.1160 Y-19.5077
G01 X18.1422 Y-19.5234
G01 X18.1705 Y-19.5385
G01 X18.1981 Y-19.5515
G01 X18.2166 Y-19.5594
G01 X18.2451 Y-19.5702
G01 X18.2678 Y-19.5777
G01 X18.2871 Y-19.5834
G01 X18.3167 Y-19.5908
G01 X18.3482 Y-19.5971
G01 X18.3665 Y-19.5999
G01 X18.3984 Y-19.6037
G01 X18.4222 Y-19.6054
G01 X18.4407 Y-19.6062
G01 X18.4728 Y-19.6062
G01 X18.5033 Y-19.6047
G01 X18.5352 Y-19.6016
G01 X18.5654 Y-19.5971
G01 X18.5969 Y-19.5908
G01 X18.6265 Y-19.5834
G01 X18.6458 Y-19.5777
G01 X18.6685 Y-19.5702
G01 X18.6970 Y-19.5594
G01 X18.7155 Y-19.5515
G01 X18.7431 Y-19.5385
G01 X18.7714 Y-19.5234
G01 X18.7976 Y-19.5077
G01 X18.8242 Y-19.4899
G01 X18.8392 Y-19.4789
G01 X18.8581 Y-19.4642
G01 X18.8825 Y-19.4434
G01 X18.9047 Y-19.4225
G01 X18.9270 Y-19.3994
G01 X18.9393 Y-19.3856
G01 X18.9597 Y-19.3608
G01 X18.9778 Y-19.3363
G01 X18.9891 Y-19.3196
G01 X19.0019 Y-19.2994
G01 X19.0113 Y-19.2834
G01 X19.0265 Y-19.2551
G01 X19.0345 Y-19.2384
G01 X19.0474 Y-19.2090
G01 X19.0582 Y-19.1805
G01 X19.1358 Y-18.9481
G01 X19.1562 Y-18.9597
G01 X19.1669 Y-18.9652
G01 X19.2018 Y-18.9817
G01 X19.2239 Y-18.9909
G01 X19.2603 Y-19.0039
G01 X19.2717 Y-19.0075
G01 X19.2948 Y-19.0139
G01 X19.3207 Y-19.0202
G01 X19.3324 Y-19.0227
G01 X19.3560 Y-19.0268
G01 X19.3824 Y-19.0306
G01 X19.3938 Y-19.0318
G01 X19.3950 Y-19.0432
G01 X19.3988 Y-19.0696
G01 X19.4007 Y-19.0815
G01 X19.4054 Y-19.1049
G01 X19.4117 Y-19.1308
G01 X19.4181 Y-19.1539
G01 X19.4217 Y-19.1653
G01 X19.4306 Y-19.1905
G01 X19.4347 Y-19.2017
G01 X19.4439 Y-19.2238
G01 X19.4552 Y-19.2480
G01 X19.4659 Y-19.2694
G01 X19.4717 Y-19.2799
G01 X19.4853 Y-19.3028
G01 X19.4916 Y-19.3130
G01 X19.5049 Y-19.3329
G01 X19.5207 Y-19.3544
G01 X19.5354 Y-19.3733
G01 X19.5431 Y-19.3825
G01 X19.5609 Y-19.4023
G01 X19.5774 Y-19.4197
G01 X19.5860 Y-19.4280
G01 X19.6146 Y-19.4540
G01 X19.6238 Y-19.4617
G01 X19.6426 Y-19.4764
G01 X19.6641 Y-19.4922
G01 X19.6740 Y-19.4990
G01 X19.6942 Y-19.5118
G01 X19.7172 Y-19.5253
G01 X19.7277 Y-19.5311
G01 X19.7490 Y-19.5419
G01 X19.7732 Y-19.5532
G01 X19.7842 Y-19.5579
G01 X19.7953 Y-19.5623
G01 X19.8204 Y-19.5714
G01 X19.8431 Y-19.5789
G01 X19.8546 Y-19.5823
G01 X19.8921 Y-19.5917
G01 X19.9156 Y-19.5963
G01 X19.9274 Y-19.5982
G01 X19.9538 Y-19.6020
G01 X19.9657 Y-19.6033
G01 X19.9777 Y-19.6044
G01 X20.0043 Y-19.6058
G01 X20.0163 Y-19.6063
G01 X20.0402 Y-19.6063
G01 X20.0669 Y-19.6051
G01 X20.0907 Y-19.6033
G01 X20.1026 Y-19.6020
G01 X20.1290 Y-19.5982
G01 X20.1408 Y-19.5963
G01 X20.1643 Y-19.5917
G01 X20.2018 Y-19.5823
G01 X20.2247 Y-19.5753
G01 X20.2360 Y-19.5714
G01 X20.2611 Y-19.5623
G01 X20.2722 Y-19.5579
G01 X20.2832 Y-19.5532
G01 X20.3074 Y-19.5419
G01 X20.3182 Y-19.5366
G01 X20.3393 Y-19.5253
G01 X20.3724 Y-19.5055
G01 X20.3923 Y-19.4922
G01 X20.4020 Y-19.4852
G01 X20.4234 Y-19.4692
G01 X20.4327 Y-19.4617
G01 X20.4419 Y-19.4540
G01 X20.4617 Y-19.4362
G01 X20.4791 Y-19.4197
G01 X20.4874 Y-19.4111
G01 X20.5134 Y-19.3825
G01 X20.5286 Y-19.3640
G01 X20.5358 Y-19.3544
G01 X20.5516 Y-19.3329
G01 X20.5583 Y-19.3230
G01 X20.5649 Y-19.3130
G01 X20.5787 Y-19.2902
G01 X20.5847 Y-19.2799
G01 X20.5960 Y-19.2588
G01 X20.6126 Y-19.2238
G01 X20.6217 Y-19.2017
G01 X20.6259 Y-19.1905
G01 X20.6347 Y-19.1653
G01 X20.6383 Y-19.1539
G01 X20.6447 Y-19.1308
G01 X20.6511 Y-19.1049
G01 X20.6535 Y-19.0932
G01 X20.6576 Y-19.0696
G01 X20.6614 Y-19.0432
G01 X20.6627 Y-19.0318
G01 X20.6740 Y-19.0306
G01 X20.7005 Y-19.0268
G01 X20.7240 Y-19.0227
G01 X20.7357 Y-19.0202
G01 X20.7617 Y-19.0139
G01 X20.7732 Y-19.0109
G01 X20.7961 Y-19.0039
G01 X20.8325 Y-18.9909
G01 X20.8436 Y-18.9864
G01 X20.8655 Y-18.9767
G01 X20.8896 Y-18.9652
G01 X20.9002 Y-18.9597
G01 X20.9107 Y-18.9539
G01 X20.9337 Y-18.9403
G01 X20.9438 Y-18.9340
G01 X20.9637 Y-18.9208
G01 X20.9948 Y-18.8977
G01 X21.0041 Y-18.8903
G01 X21.0222 Y-18.8746
G01 X21.0419 Y-18.8566
G01 X21.0505 Y-18.8482
G01 X21.0670 Y-18.8309
G01 X21.0848 Y-18.8110
G01 X21.0925 Y-18.8019
G01 X21.1000 Y-18.7925
G01 X21.1160 Y-18.7712
G01 X21.1298 Y-18.7516
G01 X21.1363 Y-18.7416
G01 X21.1562 Y-18.7084
G01 X21.1619 Y-18.6980
G01 X21.1727 Y-18.6766
G01 X21.1840 Y-18.6524
G01 X21.1887 Y-18.6414
G01 X21.1931 Y-18.6303
G01 X21.2023 Y-18.6052
G01 X21.2062 Y-18.5939
G01 X21.2131 Y-18.5710
G01 X21.2225 Y-18.5335
G01 X21.2272 Y-18.5100
G01 X21.2328 Y-18.4718
G01 X21.2352 Y-18.4480
G01 X21.2359 Y-18.4360
G01 X21.2371 Y-18.4094
G01 X21.2372 Y-18.3974
G01 X21.2366 Y-18.3735
G01 X21.2352 Y-18.3468
G01 X21.2342 Y-18.3349
G01 X21.2328 Y-18.3230
G01 X21.2291 Y-18.2966
G01 X21.2272 Y-18.2848
G01 X21.2225 Y-18.2613
G01 X21.2131 Y-18.2238
G01 X21.2098 Y-18.2123
G01 X21.2023 Y-18.1896
G01 X21.1931 Y-18.1645
G01 X21.1887 Y-18.1534
G01 X21.1790 Y-18.1315
G01 X21.1675 Y-18.1075
G01 X21.1619 Y-18.0968
G01 X21.1501 Y-18.0760
G01 X21.1363 Y-18.0532
G01 X21.1230 Y-18.0333
G01 X21.1072 Y-18.0118
G01 X21.0925 Y-17.9929
G01 X21.0769 Y-17.9748
G01 X21.0588 Y-17.9551
G01 X21.0419 Y-17.9382
G01 X21.0332 Y-17.9301
G01 X21.0133 Y-17.9123
G01 X20.9948 Y-17.8971
G01 X20.9734 Y-17.8811
G01 X20.9539 Y-17.8673
G01 X20.9438 Y-17.8608
G01 X20.9210 Y-17.8469
G01 X20.9002 Y-17.8351
G01 X20.8896 Y-17.8296
G01 X20.8655 Y-17.8181
G01 X20.8436 Y-17.8084
G01 X20.8213 Y-17.7997
G01 X20.7961 Y-17.7909
G01 X20.7732 Y-17.7839
G01 X20.7617 Y-17.7809
G01 X20.7357 Y-17.7746
G01 X20.7123 Y-17.7699
G01 X20.6859 Y-17.7658
G01 X20.6627 Y-17.7630
G01 X20.6614 Y-17.7516
G01 X20.6576 Y-17.7252
G01 X20.6557 Y-17.7133
G01 X20.6511 Y-17.6899
G01 X20.6447 Y-17.6640
G01 X20.6383 Y-17.6409
G01 X20.6347 Y-17.6295
G01 X20.6259 Y-17.6043
G01 X20.6217 Y-17.5931
G01 X20.6126 Y-17.5710
G01 X20.5960 Y-17.5360
G01 X20.5905 Y-17.5254
G01 X20.5787 Y-17.5046
G01 X20.5649 Y-17.4818
G01 X20.5583 Y-17.4718
G01 X20.5516 Y-17.4619
G01 X20.5358 Y-17.4404
G01 X20.5286 Y-17.4308
G01 X20.5134 Y-17.4123
G01 X20.4956 Y-17.3925
G01 X20.4791 Y-17.3751
G01 X20.4705 Y-17.3668
G01 X20.4508 Y-17.3487
G01 X20.4327 Y-17.3331
G01 X20.4234 Y-17.3256
G01 X20.4020 Y-17.3096
G01 X20.3824 Y-17.2958
G01 X20.3724 Y-17.2893
G01 X20.3496 Y-17.2755
G01 X20.3288 Y-17.2637
G01 X20.3182 Y-17.2582
G01 X20.2941 Y-17.2466
G01 X20.2722 Y-17.2369
G01 X20.2499 Y-17.2283
G01 X20.2247 Y-17.2195
G01 X20.2018 Y-17.2125
G01 X20.1760 Y-17.2059
G01 X20.1526 Y-17.2006
G01 X20.1408 Y-17.1985
G01 X20.1145 Y-17.1944
G01 X20.0907 Y-17.1915
G01 X20.0669 Y-17.1897
G01 X20.0402 Y-17.1885
G01 X20.0163 Y-17.1885
G01 X19.9896 Y-17.1897
G01 X19.9657 Y-17.1915
G01 X19.9420 Y-17.1944
G01 X19.9156 Y-17.1985
G01 X19.8921 Y-17.2031
G01 X19.8662 Y-17.2095
G01 X19.8431 Y-17.2158
G01 X19.8204 Y-17.2234
G01 X19.7953 Y-17.2325
G01 X19.7732 Y-17.2416
G01 X19.7490 Y-17.2529
G01 X19.7277 Y-17.2637
G01 X19.7069 Y-17.2755
G01 X19.6840 Y-17.2893
G01 X19.6641 Y-17.3026
G01 X19.6426 Y-17.3184
G01 X19.6238 Y-17.3331
G01 X19.6056 Y-17.3487
G01 X19.5861 Y-17.3667
G00 Z2.0000
G00 X19.1146 Y-18.4407
G01 F60.00
G01 Z-0.0500
G01 F120.00
G01 X19.1184 Y-18.4647
G01 X19.1240 Y-18.4883
G01 X19.1280 Y-18.5021
G01 X19.1362 Y-18.5250
G01 X19.1419 Y-18.5382
G01 X19.1525 Y-18.5601
G01 X19.1648 Y-18.5810
G01 X19.1726 Y-18.5931
G01 X19.1871 Y-18.6126
G01 X19.1963 Y-18.6236
G01 X19.2128 Y-18.6414
G01 X19.2306 Y-18.6579
G01 X19.2416 Y-18.6671
G01 X19.2611 Y-18.6816
G01 X19.2732 Y-18.6894
G01 X19.2941 Y-18.7017
G01 X19.3247 Y-18.7162
G01 X19.3566 Y-18.7276
G01 X19.3895 Y-18.7358
G01 X19.4230 Y-18.7408
G01 X19.4568 Y-18.7425
G01 X19.6831 Y-18.7425
G01 X19.6831 Y-18.9688
G01 X19.6841 Y-18.9931
G01 X19.6853 Y-19.0074
G01 X19.6889 Y-19.0314
G01 X19.6908 Y-19.0408
G01 X19.6967 Y-19.0644
G01 X19.7010 Y-19.0781
G01 X19.7076 Y-19.0964
G01 X19.7133 Y-19.1096
G01 X19.7239 Y-19.1315
G01 X19.7362 Y-19.1525
G01 X19.7440 Y-19.1645
G01 X19.7615 Y-19.1877
G01 X19.7776 Y-19.2059
G01 X19.7876 Y-19.2162
G01 X19.8093 Y-19.2356
G01 X19.8287 Y-19.2502
G01 X19.8405 Y-19.2584
G01 X19.8656 Y-19.2732
G01 X19.8874 Y-19.2838
G01 X19.9006 Y-19.2894
G01 X19.9281 Y-19.2990
G01 X19.9516 Y-19.3052
G01 X19.9656 Y-19.3081
G01 X19.9944 Y-19.3122
G01 X20.0187 Y-19.3137
G01 X20.0330 Y-19.3138
G01 X20.0620 Y-19.3122
G01 X20.0861 Y-19.3089
G01 X20.1002 Y-19.3063
G01 X20.1238 Y-19.3004
G01 X20.1375 Y-19.2960
G01 X20.1603 Y-19.2876
G01 X20.1866 Y-19.2754
G01 X20.1992 Y-19.2684
G01 X20.2199 Y-19.2557
G01 X20.2434 Y-19.2386
G01 X20.2544 Y-19.2293
G01 X20.2722 Y-19.2128
G01 X20.2887 Y-19.1950
G01 X20.2980 Y-19.1840
G01 X20.3151 Y-19.1605
G01 X20.3278 Y-19.1398
G01 X20.3348 Y-19.1272
G01 X20.3451 Y-19.1053
G01 X20.3488 Y-19.0964
G01 X20.3570 Y-19.0736
G01 X20.3598 Y-19.0644
G01 X20.3657 Y-19.0408
G01 X20.3675 Y-19.0314
G01 X20.3711 Y-19.0074
G01 X20.3723 Y-18.9931
G01 X20.3733 Y-18.9688
G01 X20.3733 Y-18.7425
G01 X20.5997 Y-18.7425
G01 X20.6239 Y-18.7415
G01 X20.6382 Y-18.7403
G01 X20.6623 Y-18.7367
G01 X20.6717 Y-18.7349
G01 X20.6952 Y-18.7289
G01 X20.7089 Y-18.7246
G01 X20.7273 Y-18.7180
G01 X20.7405 Y-18.7123
G01 X20.7623 Y-18.7017
G01 X20.7833 Y-18.6894
G01 X20.7953 Y-18.6816
G01 X20.8186 Y-18.6641
G01 X20.8367 Y-18.6480
G01 X20.8470 Y-18.6380
G01 X20.8664 Y-18.6163
G01 X20.8811 Y-18.5969
G01 X20.8892 Y-18.5851
G01 X20.9040 Y-18.5601
G01 X20.9146 Y-18.5382
G01 X20.9202 Y-18.5250
G01 X20.9299 Y-18.4976
G01 X20.9360 Y-18.4741
G01 X20.9390 Y-18.4600
G01 X20.9431 Y-18.4312
G01 X20.9445 Y-18.4070
G01 X20.9447 Y-18.3926
G01 X20.9431 Y-18.3636
G01 X20.9397 Y-18.3395
G01 X20.9371 Y-18.3254
G01 X20.9312 Y-18.3018
G01 X20.9269 Y-18.2881
G01 X20.9185 Y-18.2653
G01 X20.9062 Y-18.2390
G01 X20.8993 Y-18.2264
G01 X20.8866 Y-18.2057
G01 X20.8694 Y-18.1822
G01 X20.8601 Y-18.1712
G01 X20.8437 Y-18.1534
G01 X20.8258 Y-18.1369
G01 X20.8148 Y-18.1277
G01 X20.7914 Y-18.1105
G01 X20.7706 Y-18.0978
G01 X20.7581 Y-18.0909
G01 X20.7361 Y-18.0805
G01 X20.7273 Y-18.0768
G01 X20.7044 Y-18.0686
G01 X20.6952 Y-18.0659
G01 X20.6717 Y-18.0599
G01 X20.6623 Y-18.0581
G01 X20.6382 Y-18.0545
G01 X20.6239 Y-18.0533
G01 X20.5997 Y-18.0523
G01 X20.3733 Y-18.0523
G01 X20.3733 Y-17.8260
G01 X20.3723 Y-17.8017
G01 X20.3711 Y-17.7874
G01 X20.3675 Y-17.7634
G01 X20.3657 Y-17.7540
G01 X20.3598 Y-17.7304
G01 X20.3554 Y-17.7167
G01 X20.3488 Y-17.6984
G01 X20.3432 Y-17.6852
G01 X20.3326 Y-17.6633
G01 X20.3203 Y-17.6423
G01 X20.3124 Y-17.6303
G01 X20.2950 Y-17.6071
G01 X20.2788 Y-17.5889
G01 X20.2688 Y-17.5786
G01 X20.2471 Y-17.5592
G01 X20.2278 Y-17.5446
G01 X20.2159 Y-17.5364
G01 X20.1909 Y-17.5216
G01 X20.1690 Y-17.5110
G01 X20.1558 Y-17.5054
G01 X20.1284 Y-17.4958
G01 X20.1049 Y-17.4896
G01 X20.0908 Y-17.4867
G01 X20.0620 Y-17.4826
G01 X20.0378 Y-17.4811
G01 X20.0234 Y-17.4810
G01 X19.9944 Y-17.4826
G01 X19.9703 Y-17.4859
G01 X19.9562 Y-17.4885
G01 X19.9327 Y-17.4944
G01 X19.9190 Y-17.4988
G01 X19.8962 Y-17.5072
G01 X19.8698 Y-17.5194
G01 X19.8572 Y-17.5264
G01 X19.8365 Y-17.5391
G01 X19.8130 Y-17.5562
G01 X19.8021 Y-17.5655
G01 X19.7842 Y-17.5820
G01 X19.7677 Y-17.5998
G01 X19.7585 Y-17.6108
G01 X19.7413 Y-17.6343
G01 X19.7286 Y-17.6550
G01 X19.7217 Y-17.6676
G01 X19.7113 Y-17.6895
G01 X19.7076 Y-17.6984
G01 X19.6995 Y-17.7212
G01 X19.6967 Y-17.7304
G01 X19.6908 Y-17.7540
G01 X19.6889 Y-17.7634
G01 X19.6853 Y-17.7874
G01 X19.6841 Y-17.8017
G01 X19.6831 Y-17.8260
G01 X19.6831 Y-18.0523
G01 X19.4568 Y-18.0523
G01 X19.4277 Y-18.0536
G01 X19.4135 Y-18.0552
G01 X19.3895 Y-18.0590
G01 X19.3658 Y-18.0646
G01 X19.3521 Y-18.0686
G01 X19.3292 Y-18.0768
G01 X19.3160 Y-18.0825
G01 X19.2941 Y-18.0931
G01 X19.2651 Y-18.1105
G01 X19.2379 Y-18.1307
G01 X19.2197 Y-18.1468
G01 X19.2094 Y-18.1568
G01 X19.1900 Y-18.1785
G01 X19.1726 Y-18.2017
G01 X19.1648 Y-18.2138
G01 X19.1525 Y-18.2347
G01 X19.1399 Y-18.2609
G01 X19.1362 Y-18.2698
G01 X19.1296 Y-18.2881
G01 X19.1252 Y-18.3018
G01 X19.1184 Y-18.3301
G01 X19.1146 Y-18.3541
G01 X19.1130 Y-18.3683
G01 X19.1117 Y-18.3974
G01 X19.1130 Y-18.4265
G01 X19.1146 Y-18.4407
G00 Z2.0000
G00 X17.0235 Y-17.8213
G01 F60.00
G01 Z-0.0500
G01 F120.00
G01 X17.0162 Y-17.8360
G01 X17.0162 Y-18.0302
G01 X17.0235 Y-18.0450
G01 X17.0383 Y-18.0523
G01 X17.1610 Y-18.0523
G01 X17.1758 Y-18.0450
G01 X17.1832 Y-18.0302
G01 X17.1832 Y-17.8360
G01 X17.1758 Y-17.8213
G01 X17.1610 Y-17.8139
G01 X17.0383 Y-17.8139
G01 X17.0235 Y-17.8213
G00 Z2.0000
G00 X16.3264 Y-18.1239
G01 F60.00
G01 Z-0.0500
G01 F120.00
G01 X16.3269 Y-18.1361
G01 X16.3282 Y-18.1503
G01 X16.3309 Y-18.1698
G01 X16.3336 Y-18.1837
G01 X16.3371 Y-18.1982
G01 X16.3409 Y-18.2119
G01 X16.3471 Y-18.2305
G01 X16.3523 Y-18.2437
G01 X16.3624 Y-18.2660
G01 X16.4339 Y-18.4089
G01 X16.4405 Y-18.4214
G01 X16.4480 Y-18.4343
G01 X16.4583 Y-18.4502
G01 X16.4670 Y-18.4623
G01 X16.4758 Y-18.4735
G01 X16.4920 Y-18.4918
G01 X16.5699 Y-18.5700
G01 X16.5802 Y-18.5798
G01 X16.5914 Y-18.5896
G01 X16.6062 Y-18.6015
G01 X16.6183 Y-18.6102
G01 X16.6301 Y-18.6180
G01 X16.6513 Y-18.6303
G01 X16.6866 Y-18.6481
G01 X16.6731 Y-18.6539
G01 X16.6555 Y-18.6623
G01 X16.6471 Y-18.6668
G01 X16.6222 Y-18.6819
G01 X16.5988 Y-18.6991
G01 X16.5914 Y-18.7052
G01 X16.5769 Y-18.7182
G01 X16.5666 Y-18.7282
G01 X16.5472 Y-18.7499
G01 X16.5325 Y-18.7693
G01 X16.5244 Y-18.7811
G01 X16.5096 Y-18.8062
G01 X16.4970 Y-18.8324
G01 X16.4917 Y-18.8457
G01 X16.4837 Y-18.8687
G01 X16.4765 Y-18.8968
G01 X16.4746 Y-18.9062
G01 X16.4717 Y-18.9255
G01 X16.4698 Y-18.9445
G01 X16.4689 Y-18.9688
G01 X16.4701 Y-18.9979
G01 X16.4711 Y-19.0074
G01 X16.4739 Y-19.0267
G01 X16.4765 Y-19.0408
G01 X16.4837 Y-19.0690
G01 X16.4934 Y-19.0964
G01 X16.4970 Y-19.1053
G01 X16.5053 Y-19.1229
G01 X16.5119 Y-19.1357
G01 X16.5270 Y-19.1605
G01 X16.5413 Y-19.1802
G01 X16.5503 Y-19.1914
G01 X16.5699 Y-19.2128
G01 X16.5914 Y-19.2325
G01 X16.6026 Y-19.2415
G01 X16.6222 Y-19.2557
G01 X16.6513 Y-19.2732
G01 X16.6819 Y-19.2876
G01 X16.7138 Y-19.2990
G01 X16.7466 Y-19.3073
G01 X16.7706 Y-19.3111
G01 X16.7849 Y-19.3127
G01 X16.8139 Y-19.3139
G01 X17.0997 Y-19.3139
G01 X17.1193 Y-19.3133
G01 X17.1382 Y-19.3117
G01 X17.1530 Y-19.3097
G01 X17.1670 Y-19.3073
G01 X17.1908 Y-19.3016
G01 X17.2044 Y-19.2976
G01 X17.2185 Y-19.2928
G01 X17.2361 Y-19.2858
G01 X17.2540 Y-19.2775
G01 X17.4052 Y-19.2017
G01 X17.4223 Y-19.1919
G01 X17.4302 Y-19.1869
G01 X17.4382 Y-19.1816
G01 X17.4541 Y-19.1700
G01 X17.4651 Y-19.1611
G01 X17.4763 Y-19.1512
G01 X17.4865 Y-19.1414
G01 X17.5615 Y-19.0663
G01 X17.5776 Y-19.0485
G01 X17.5839 Y-19.0409
G01 X17.6009 Y-19.0176
G01 X17.7439 Y-18.8031
G01 X17.7553 Y-18.7848
G01 X17.7613 Y-18.7740
G01 X17.7688 Y-18.7591
G01 X17.7757 Y-18.7434
G01 X17.7818 Y-18.7278
G01 X17.7871 Y-18.7115
G01 X17.7905 Y-18.6996
G01 X17.8641 Y-18.4050
G01 X17.8688 Y-18.3812
G01 X17.8716 Y-18.3598
G01 X17.8731 Y-18.3380
G01 X17.8733 Y-18.3096
G01 X18.1310 Y-19.0825
G01 X18.1398 Y-19.1051
G01 X18.1482 Y-19.1232
G01 X18.1595 Y-19.1439
G01 X18.1725 Y-19.1643
G01 X18.1872 Y-19.1841
G01 X18.1961 Y-19.1949
G01 X18.2062 Y-19.2061
G01 X18.2230 Y-19.2226
G01 X18.2307 Y-19.2295
G01 X18.2452 Y-19.2414
G01 X18.2573 Y-19.2504
G01 X18.2689 Y-19.2583
G01 X18.2859 Y-19.2686
G01 X18.3025 Y-19.2775
G01 X18.3118 Y-19.2819
G01 X18.3335 Y-19.2911
G01 X18.3522 Y-19.2977
G01 X18.3657 Y-19.3016
G01 X18.3803 Y-19.3053
G01 X18.4034 Y-19.3097
G01 X18.4136 Y-19.3112
G01 X18.4323 Y-19.3130
G01 X18.4474 Y-19.3138
G01 X18.4614 Y-19.3138
G01 X18.4860 Y-19.3126
G01 X18.5000 Y-19.3112
G01 X18.5149 Y-19.3090
G01 X18.5380 Y-19.3042
G01 X18.5614 Y-19.2977
G01 X18.5756 Y-19.2928
G01 X18.5931 Y-19.2858
G01 X18.6111 Y-19.2775
G01 X18.6277 Y-19.2686
G01 X18.6446 Y-19.2583
G01 X18.6645 Y-19.2443
G01 X18.6829 Y-19.2295
G01 X18.6975 Y-19.2161
G01 X18.7106 Y-19.2026
G01 X18.7264 Y-19.1841
G01 X18.7384 Y-19.1683
G01 X18.7513 Y-19.1486
G01 X18.7632 Y-19.1274
G01 X18.7719 Y-19.1095
G01 X18.7791 Y-19.0922
G01 X18.7842 Y-19.0780
G01 X19.2856 Y-17.5734
G01 X19.2933 Y-17.5453
G01 X19.2977 Y-17.5215
G01 X19.2997 Y-17.5072
