(G-CODE GENERATED BY FLATCAM v8.994 - www.flatcam.org - Version Date: 2020/11/7)
(Name: cnc mill pcb tester-Edge_Cuts.gbr_cutout_cnc)
(Type: G-code from Geometry)
(Units: MM)
(Created on Thursday, 11 April 2024 at 22:54)
(This preprocessor is the default preprocessor used by FlatCAM.)
(It is made to work with MACH3 compatible motion controllers.)
(TOOL DIAMETER: 2.4 mm)
(Feedrate_XY: 120.0 mm/min)
(Feedrate_Z: 60.0 mm/min)
(Feedrate rapids 1500.0 mm/min)
(Z_Cut: -1.9 mm)
(DepthPerCut: 0.6 mm <=>4 passes)
(Z_Move: 2.0 mm)
(Z Start: None mm)
(Z End: 15.0 mm)
(X,Y End: None mm)
(Steps per circle: 64)
(Preprocessor Geometry: default)
(X range:    8.4880 ...   58.1780  mm)
(Y range:  -36.0120 ...   -7.9120  mm)
(Spindle Speed: 0.0 RPM)
G21
G90
G94
G01 F120.00
M5
G00 Z15.0000
G00 X0.0000 Y0.0000
T1
(MSG, Change to Tool Dia = 2.4000)
M0
G00 Z15.0000
M03
G01 F120.00
G00 X8.4880 Y-9.2620
G01 F60.00
G01 Z-0.6000
G01 F120.00
G01 X8.4898 Y-9.1933
G01 X8.5030 Y-9.0615
G01 X8.5291 Y-8.9316
G01 X8.5678 Y-8.8049
G01 X8.6187 Y-8.6826
G01 X8.6814 Y-8.5659
G01 X8.7552 Y-8.4559
G01 X8.8394 Y-8.3536
G01 X8.9332 Y-8.2601
G01 X9.0358 Y-8.1762
G01 X9.1461 Y-8.1028
G01 X9.2630 Y-8.0406
G01 X9.3855 Y-7.9901
G01 X9.5124 Y-7.9519
G01 X9.6423 Y-7.9263
G01 X9.7742 Y-7.9135
G01 X9.8380 Y-7.9120
G01 X56.8280 Y-7.9120
G01 X56.8967 Y-7.9138
G01 X57.0237 Y-7.9263
G01 X57.1536 Y-7.9519
G01 X57.2805 Y-7.9901
G01 X57.4074 Y-8.0427
G01 X57.5199 Y-8.1028
G01 X57.6302 Y-8.1762
G01 X57.7364 Y-8.2634
G01 X57.8299 Y-8.3572
G01 X57.9138 Y-8.4598
G01 X57.9846 Y-8.5659
G01 X58.0494 Y-8.6870
G01 X58.0982 Y-8.8049
G01 X58.1369 Y-8.9316
G01 X58.1637 Y-9.0663
G01 X58.1762 Y-9.1933
G01 X58.1780 Y-9.2620
G01 X58.1780 Y-34.6620
G01 X58.1762 Y-34.7307
G01 X58.1637 Y-34.8577
G01 X58.1381 Y-34.9876
G01 X58.0982 Y-35.1191
G01 X58.0473 Y-35.2414
G01 X57.9846 Y-35.3581
G01 X57.9108 Y-35.4681
G01 X57.8299 Y-35.5668
G01 X57.7328 Y-35.6639
G01 X57.6302 Y-35.7478
G01 X57.5241 Y-35.8186
G01 X57.4030 Y-35.8834
G01 X57.2805 Y-35.9339
G01 X57.1584 Y-35.9709
G01 X57.0237 Y-35.9977
G01 X56.8967 Y-36.0102
G01 X56.8280 Y-36.0120
G01 X9.8380 Y-36.0120
G01 X9.7693 Y-36.0102
G01 X9.6423 Y-35.9977
G01 X9.5124 Y-35.9721
G01 X9.3809 Y-35.9322
G01 X9.2586 Y-35.8813
G01 X9.1419 Y-35.8186
G01 X9.0358 Y-35.7478
G01 X8.9296 Y-35.6606
G01 X8.8361 Y-35.5668
G01 X8.7522 Y-35.4642
G01 X8.6814 Y-35.3581
G01 X8.6166 Y-35.2370
G01 X8.5661 Y-35.1145
G01 X8.5291 Y-34.9924
G01 X8.5023 Y-34.8577
G01 X8.4895 Y-34.7258
G01 X8.4880 Y-34.6620
G01 X8.4880 Y-9.2620
G00 X8.4880 Y-9.2620
G01 F60.00
G01 Z-1.2000
G01 F120.00
G01 X8.4880 Y-34.6620
G01 X8.4895 Y-34.7258
G01 X8.5023 Y-34.8577
G01 X8.5291 Y-34.9924
G01 X8.5661 Y-35.1145
G01 X8.6166 Y-35.2370
G01 X8.6814 Y-35.3581
G01 X8.7522 Y-35.4642
G01 X8.8361 Y-35.5668
G01 X8.9296 Y-35.6606
G01 X9.0358 Y-35.7478
G01 X9.1419 Y-35.8186
G01 X9.2586 Y-35.8813
G01 X9.3809 Y-35.9322
G01 X9.5124 Y-35.9721
G01 X9.6423 Y-35.9977
G01 X9.7693 Y-36.0102
G01 X9.8380 Y-36.0120
G01 X56.8280 Y-36.0120
G01 X56.8967 Y-36.0102
G01 X57.0237 Y-35.9977
G01 X57.1584 Y-35.9709
G01 X57.2805 Y-35.9339
G01 X57.4030 Y-35.8834
G01 X57.5241 Y-35.8186
G01 X57.6302 Y-35.7478
G01 X57.7328 Y-35.6639
G01 X57.8299 Y-35.5668
G01 X57.9108 Y-35.4681
G01 X57.9846 Y-35.3581
G01 X58.0473 Y-35.2414
G01 X58.0982 Y-35.1191
G01 X58.1381 Y-34.9876
G01 X58.1637 Y-34.8577
G01 X58.1762 Y-34.7307
G01 X58.1780 Y-34.6620
G01 X58.1780 Y-9.2620
G01 X58.1762 Y-9.1933
G01 X58.1637 Y-9.0663
G01 X58.1369 Y-8.9316
G01 X58.0982 Y-8.8049
G01 X58.0494 Y-8.6870
G01 X57.9846 Y-8.5659
G01 X57.9138 Y-8.4598
G01 X57.8299 Y-8.3572
G01 X57.7364 Y-8.2634
G01 X57.6302 Y-8.1762
G01 X57.5199 Y-8.1028
G01 X57.4074 Y-8.0427
G01 X57.2805 Y-7.9901
G01 X57.1536 Y-7.9519
G01 X57.0237 Y-7.9263
G01 X56.8967 Y-7.9138
G01 X56.8280 Y-7.9120
G01 X9.8380 Y-7.9120
G01 X9.7742 Y-7.9135
G01 X9.6423 Y-7.9263
G01 X9.5124 Y-7.9519
G01 X9.3855 Y-7.9901
G01 X9.2630 Y-8.0406
G01 X9.1461 Y-8.1028
G01 X9.0358 Y-8.1762
G01 X8.9332 Y-8.2601
G01 X8.8394 Y-8.3536
G01 X8.7552 Y-8.4559
G01 X8.6814 Y-8.5659
G01 X8.6187 Y-8.6826
G01 X8.5678 Y-8.8049
G01 X8.5291 Y-8.9316
G01 X8.5030 Y-9.0615
G01 X8.4898 Y-9.1933
G01 X8.4880 Y-9.2620
G00 X8.4880 Y-9.2620
G01 F60.00
G01 Z-1.8000
G01 F120.00
G01 X8.4898 Y-9.1933
G01 X8.5030 Y-9.0615
G01 X8.5291 Y-8.9316
G01 X8.5678 Y-8.8049
G01 X8.6187 Y-8.6826
G01 X8.6814 Y-8.5659
G01 X8.7552 Y-8.4559
G01 X8.8394 Y-8.3536
G01 X8.9332 Y-8.2601
G01 X9.0358 Y-8.1762
G01 X9.1461 Y-8.1028
G01 X9.2630 Y-8.0406
G01 X9.3855 Y-7.9901
G01 X9.5124 Y-7.9519
G01 X9.6423 Y-7.9263
G01 X9.7742 Y-7.9135
G01 X9.8380 Y-7.9120
G01 X56.8280 Y-7.9120
G01 X56.8967 Y-7.9138
G01 X57.0237 Y-7.9263
G01 X57.1536 Y-7.9519
G01 X57.2805 Y-7.9901
G01 X57.4074 Y-8.0427
G01 X57.5199 Y-8.1028
G01 X57.6302 Y-8.1762
G01 X57.7364 Y-8.2634
G01 X57.8299 Y-8.3572
G01 X57.9138 Y-8.4598
G01 X57.9846 Y-8.5659
G01 X58.0494 Y-8.6870
G01 X58.0982 Y-8.8049
G01 X58.1369 Y-8.9316
G01 X58.1637 Y-9.0663
G01 X58.1762 Y-9.1933
G01 X58.1780 Y-9.2620
G01 X58.1780 Y-34.6620
G01 X58.1762 Y-34.7307
G01 X58.1637 Y-34.8577
G01 X58.1381 Y-34.9876
G01 X58.0982 Y-35.1191
G01 X58.0473 Y-35.2414
G01 X57.9846 Y-35.3581
G01 X57.9108 Y-35.4681
G01 X57.8299 Y-35.5668
G01 X57.7328 Y-35.6639
G01 X57.6302 Y-35.7478
G01 X57.5241 Y-35.8186
G01 X57.4030 Y-35.8834
G01 X57.2805 Y-35.9339
G01 X57.1584 Y-35.9709
G01 X57.0237 Y-35.9977
G01 X56.8967 Y-36.0102
G01 X56.8280 Y-36.0120
G01 X9.8380 Y-36.0120
G01 X9.7693 Y-36.0102
G01 X9.6423 Y-35.9977
G01 X9.5124 Y-35.9721
G01 X9.3809 Y-35.9322
G01 X9.2586 Y-35.8813
G01 X9.1419 Y-35.8186
G01 X9.0358 Y-35.7478
G01 X8.9296 Y-35.6606
G01 X8.8361 Y-35.5668
G01 X8.7522 Y-35.4642
G01 X8.6814 Y-35.3581
G01 X8.6166 Y-35.2370
G01 X8.5661 Y-35.1145
G01 X8.5291 Y-34.9924
G01 X8.5023 Y-34.8577
G01 X8.4895 Y-34.7258
G01 X8.4880 Y-34.6620
G01 X8.4880 Y-9.2620
G00 X8.4880 Y-9.2620
G01 F60.00
G01 Z-1.9000
G01 F120.00
G01 X8.4880 Y-34.6620
G01 X8.4895 Y-34.7258
G01 X8.5023 Y-34.8577
G01 X8.5291 Y-34.9924
G01 X8.5661 Y-35.1145
G01 X8.6166 Y-35.2370
G01 X8.6814 Y-35.3581
G01 X8.7522 Y-35.4642
G01 X8.8361 Y-35.5668
G01 X8.9296 Y-35.6606
G01 X9.0358 Y-35.7478
G01 X9.1419 Y-35.8186
G01 X9.2586 Y-35.8813
G01 X9.3809 Y-35.9322
G01 X9.5124 Y-35.9721
G01 X9.6423 Y-35.9977
G01 X9.7693 Y-36.0102
G01 X9.8380 Y-36.0120
G01 X56.8280 Y-36.0120
G01 X56.8967 Y-36.0102
G01 X57.0237 Y-35.9977
G01 X57.1584 Y-35.9709
G01 X57.2805 Y-35.9339
G01 X57.4030 Y-35.8834
G01 X57.5241 Y-35.8186
G01 X57.6302 Y-35.7478
G01 X57.7328 Y-35.6639
G01 X57.8299 Y-35.5668
G01 X57.9108 Y-35.4681
G01 X57.9846 Y-35.3581
G01 X58.0473 Y-35.2414
G01 X58.0982 Y-35.1191
G01 X58.1381 Y-34.9876
G01 X58.1637 Y-34.8577
G01 X58.1762 Y-34.7307
G01 X58.1780 Y-34.6620
G01 X58.1780 Y-9.2620
G01 X58.1762 Y-9.1933
G01 X58.1637 Y-9.0663
G01 X58.1369 Y-8.9316
G01 X58.0982 Y-8.8049
G01 X58.0494 Y-8.6870
G01 X57.9846 Y-8.5659
G01 X57.9138 Y-8.4598
G01 X57.8299 Y-8.3572
G01 X57.7364 Y-8.2634
G01 X57.6302 Y-8.1762
G01 X57.5199 Y-8.1028
G01 X57.4074 Y-8.0427
G01 X57.2805 Y-7.9901
G01 X57.1536 Y-7.9519
G01 X57.0237 Y-7.9263
G01 X56.8967 Y-7.9138
G01 X56.8280 Y-7.9120
G01 X9.8380 Y-7.9120
G01 X9.7742 Y-7.9135
G01 X9.6423 Y-7.9263
G01 X9.5124 Y-7.9519
G01 X9.3855 Y-7.9901
G01 X9.2630 Y-8.0406
G01 X9.1461 Y-8.1028
G01 X9.0358 Y-8.1762
G01 X8.9332 Y-8.2601
G01 X8.8394 Y-8.3536
G01 X8.7552 Y-8.4559
G01 X8.6814 Y-8.5659
G01 X8.6187 Y-8.6826
G01 X8.5678 Y-8.8049
G01 X8.5291 Y-8.9316
G01 X8.5030 Y-9.0615
G01 X8.4898 Y-9.1933
G01 X8.4880 Y-9.2620
G00 Z2.0000
M05
G00 Z2.0000
G00 Z15.00
