(G-CODE GENERATED BY FLATCAM v8.994 - www.flatcam.org - Version Date: 2020/11/7)

(Name: cnc mill pcb tester.drl_edit_cnc)
(Type: G-code from Geometry)
(Units: MM)

(Created on Friday, 12 April 2024 at 10:15)

(This preprocessor is the default preprocessor used by FlatCAM.)
(It is made to work with MACH3 compatible motion controllers.)


(TOOLS DIAMETER: )
(Tool: 1 -> Dia: 0.9)

(FEEDRATE Z: )
(Tool: 1 -> Feedrate: 300)

(FEEDRATE RAPIDS: )
(Tool: 1 -> Feedrate Rapids: 1500)

(Z_CUT: )
(Tool: 1 -> Z_Cut: -1.84)

(Tools Offset: )
(Tool: 1 -> Offset Z: 0.0)

(Z_MOVE: )
(Tool: 1 -> Z_Move: 2)

(Z Toolchange: 15 mm)
(X,Y Toolchange: 0.0000, 0.0000 mm)
(Z Start: None mm)
(Z End: 0.5 mm)
(X,Y End: None mm)
(Steps per circle: 64)
(Preprocessor Excellon: default)

(X range:   17.2620 ...   51.6900  mm)
(Y range:  -29.2560 ...  -15.6700  mm)

(Spindle Speed: 10000 RPM)
G21
G90
G94

G01 F300.00

M5
G00 Z15.0000
T1
G00 X0.0000 Y0.0000                
M6
(MSG, Change to Tool Dia = 0.9000 ||| Total drills for tool T1 = 12)
M0
G00 Z15.0000

G01 F300.00
M03 S10000
G00 X51.2400 Y-22.7240
G01 Z-1.8400
G01 Z0
G00 Z2.0000
G00 X51.2400 Y-23.9940
G01 Z-1.8400
G01 Z0
G00 Z2.0000
G00 X51.2400 Y-25.2640
G01 Z-1.8400
G01 Z0
G00 Z2.0000
G00 X51.2400 Y-26.5340
G01 Z-1.8400
G01 Z0
G00 Z2.0000
G00 X39.8100 Y-28.8060
G01 Z-1.8400
G01 Z0
G00 Z2.0000
G00 X29.6500 Y-28.8060
G01 Z-1.8400
G01 Z0
G00 Z2.0000
G00 X17.7120 Y-28.0290
G01 Z-1.8400
G01 Z0
G00 Z2.0000
G00 X17.7120 Y-23.0290
G01 Z-1.8400
G01 Z0
G00 Z2.0000
G00 X29.6500 Y-22.7240
G01 Z-1.8400
G01 Z0
G00 Z2.0000
G00 X29.6500 Y-16.1200
G01 Z-1.8400
G01 Z0
G00 Z2.0000
G00 X39.8100 Y-16.1200
G01 Z-1.8400
G01 Z0
G00 Z2.0000
G00 X39.8100 Y-22.7240
G01 Z-1.8400
G01 Z0
G00 Z2.0000
M05
G00 Z0.50


