(Exported by FreeCAD)
(Post Processor: KineticNCBeamicon2_post)
(Output Time:2024-12-17 12:00:51.592417)
(begin preamble)
G17 G21 G40 G49 G80 G90
M08
G21
(begin operation: Fixture)
(machine: not set, mm/min)
G54
(finish operation: Fixture)
(begin operation: 2mm_Endmill001)
(machine: not set, mm/min)
(2mm_Endmill001)
M05
M09M6 T2
M3 S10000
(finish operation: 2mm_Endmill001)
(begin operation: Helix)
(machine: not set, mm/min)
(Helix)
(helix cut operation)
G0 Z5.000
G0 Z5.000
G0 X5.150 Y-13.000 Z5.000
G0 X5.150 Y-13.000 Z0.000
G0 X5.800 Y-13.000
G1 Z0.000 F120.000
G2 X4.500 Y-13.000 Z-0.750 I-0.650 J0.000 F170.000
G2 X5.800 Y-13.000 Z-1.500 I0.650 J0.000 F170.000
G2 X4.500 Y-13.000 Z-2.250 I-0.650 J0.000 F170.000
G2 X5.800 Y-13.000 Z-3.000 I0.650 J0.000 F170.000
G2 X4.500 Y-13.000 Z-3.000 I-0.650 J0.000 F170.000
G2 X5.800 Y-13.000 Z-3.000 I0.650 J0.000 F170.000
G0 X5.150 Y-13.000 Z-3.000
G0 Z0.000
G0 Z5.000
G0 X15.840 Y-13.030 Z5.000
G0 X15.840 Y-13.030 Z0.000
G0 X16.090 Y-13.030
G1 Z0.000 F120.000
G2 X15.590 Y-13.030 Z-0.750 I-0.250 J0.000 F170.000
G2 X16.090 Y-13.030 Z-1.500 I0.250 J0.000 F170.000
G2 X15.590 Y-13.030 Z-2.250 I-0.250 J0.000 F170.000
G2 X16.090 Y-13.030 Z-3.000 I0.250 J0.000 F170.000
G2 X15.590 Y-13.030 Z-3.000 I-0.250 J0.000 F170.000
G2 X16.090 Y-13.030 Z-3.000 I0.250 J0.000 F170.000
G0 X15.840 Y-13.030 Z-3.000
G0 Z0.000
G0 Z5.000
G0 X94.190 Y-13.036 Z5.000
G0 X94.190 Y-13.036 Z0.000
G0 X94.440 Y-13.036
G1 Z0.000 F120.000
G2 X93.940 Y-13.036 Z-0.750 I-0.250 J0.000 F170.000
G2 X94.440 Y-13.036 Z-1.500 I0.250 J0.000 F170.000
G2 X93.940 Y-13.036 Z-2.250 I-0.250 J0.000 F170.000
G2 X94.440 Y-13.036 Z-3.000 I0.250 J0.000 F170.000
G2 X93.940 Y-13.036 Z-3.000 I-0.250 J0.000 F170.000
G2 X94.440 Y-13.036 Z-3.000 I0.250 J0.000 F170.000
G0 X94.190 Y-13.036 Z-3.000
G0 Z0.000
G0 Z5.000
G0 X104.850 Y-13.000 Z5.000
G0 X104.850 Y-13.000 Z0.000
G0 X105.500 Y-13.000
G1 Z0.000 F120.000
G2 X104.200 Y-13.000 Z-0.750 I-0.650 J0.000 F170.000
G2 X105.500 Y-13.000 Z-1.500 I0.650 J0.000 F170.000
G2 X104.200 Y-13.000 Z-2.250 I-0.650 J0.000 F170.000
G2 X105.500 Y-13.000 Z-3.000 I0.650 J0.000 F170.000
G2 X104.200 Y-13.000 Z-3.000 I-0.650 J0.000 F170.000
G2 X105.500 Y-13.000 Z-3.000 I0.650 J0.000 F170.000
G0 X104.850 Y-13.000 Z-3.000
G0 Z0.000
G0 Z5.000
(finish operation: Helix)
(begin operation: Profile)
(machine: not set, mm/min)
(Profile)
(Compensated Tool Path. Diameter: 2.0)
G0 Z5.000
G0 X106.363 Y-3.637
G0 Z3.000
G1 X106.363 Y-3.637 Z-2.000 F120.000
G2 X108.999 Y-9.951 Z-2.000 I-6.365 J-6.364 F170.000
G1 X109.000 Y-16.000 Z-2.000 F170.000
G2 X100.049 Y-24.999 Z-2.000 I-9.001 J0.002 F170.000
G1 X10.000 Y-25.000 Z-2.000 F170.000
G2 X1.001 Y-16.049 Z-2.000 I0.002 J9.001 F170.000
G1 X1.000 Y-10.000 Z-2.000 F170.000
G2 X9.951 Y-1.001 Z-2.000 I9.001 J-0.002 F170.000
G1 X100.000 Y-1.000 Z-2.000 F170.000
G2 X106.363 Y-3.637 Z-2.000 I-0.002 J-9.001 F170.000
G1 X106.363 Y-3.637 Z-3.000 F120.000
G2 X108.999 Y-9.951 Z-3.000 I-6.365 J-6.364 F170.000
G1 X109.000 Y-16.000 Z-3.000 F170.000
G2 X100.049 Y-24.999 Z-3.000 I-9.001 J0.002 F170.000
G1 X10.000 Y-25.000 Z-3.000 F170.000
G2 X1.001 Y-16.049 Z-3.000 I0.002 J9.001 F170.000
G1 X1.000 Y-10.000 Z-3.000 F170.000
G2 X9.951 Y-1.001 Z-3.000 I9.001 J-0.002 F170.000
G1 X100.000 Y-1.000 Z-3.000 F170.000
G2 X106.363 Y-3.637 Z-3.000 I-0.002 J-9.001 F170.000
G0 Z5.000
G0 Z5.000
(finish operation: Profile)
(begin postamble)
M05 M09
G17 G90 G80 G40
M30
